nikuehn/KBCG20/DATA/coefficients_KBCG19_smoothed_gprf_T00.01.csv
"T","mu_theta1","mu_theta1a","theta2","theta2a","theta3","theta4","theta4a","theta5","mu_theta6","mu_theta6b","mu_theta7","theta9","theta9a","theta6xc","theta1a_Ca_smallM","theta1_reg_Al","theta1_reg_Ca","theta1_reg_CAM","theta1_reg_Ja","theta1_reg_NZ","theta1_reg_SA","theta1_reg_Tw","theta1a_reg_Al","theta1a_reg_Ca","theta1a_reg_CAM","theta1a_reg_Ja","theta1a_reg_NZ","theta1a_reg_SA","theta1a_reg_Tw","theta7_reg_Al","theta7_reg_Ca","theta7_reg_CAM","theta7_reg_Ja","theta7_reg_NZ","theta7_reg_SA","theta7_reg_Tw","theta6x1_reg_Al","theta6x1_reg_Ca","theta6x1_reg_CAM","theta6x1_reg_Ja","theta6x1_reg_NZ","theta6x1_reg_SA","theta6x1_reg_Tw","theta6x2_reg_Al","theta6x2_reg_Ca","theta6x2_reg_CAM","theta6x2_reg_Ja","theta6x2_reg_NZ","theta6x2_reg_SA","theta6x2_reg_Tw","theta6x3_reg_Al","theta6x3_reg_Ca","theta6x3_reg_CAM","theta6x3_reg_Ja","theta6x3_reg_NZ","theta6x3_reg_SA","theta6x3_reg_Tw","theta61_reg_Al","theta61_reg_Ca","theta61_reg_CAM","theta61_reg_Ja","theta61_reg_NZ","theta61_reg_SA","theta61_reg_Tw","theta62_reg_Al","theta62_reg_Ca","theta62_reg_CAM","theta62_reg_Ja","theta62_reg_NZ","theta62_reg_SA","theta62_reg_Tw","theta63_reg_Al","theta63_reg_Ca","theta63_reg_CAM","theta63_reg_Ja","theta63_reg_NZ","theta63_reg_SA","theta63_reg_Tw","dzb_if","dzb_slab","nft_1","nft_2","phi","tau","psi_theta1","psi_theta1a","psi_theta6","psi_theta6b","psi_theta7","L_reg.1.1","L_reg.2.1","L_reg.3.1","L_reg.4.1","L_reg.5.1","L_reg.6.1","L_reg.7.1","L_reg.8.1","L_reg.9.1","L_reg.1.2","L_reg.2.2","L_reg.3.2","L_reg.4.2","L_reg.5.2","L_reg.6.2","L_reg.7.2","L_reg.8.2","L_reg.9.2","L_reg.1.3","L_reg.2.3","L_reg.3.3","L_reg.4.3","L_reg.5.3","L_reg.6.3","L_reg.7.3","L_reg.8.3","L_reg.9.3","L_reg.1.4","L_reg.2.4","L_reg.3.4","L_reg.4.4","L_reg.5.4","L_reg.6.4","L_reg.7.4","L_reg.8.4","L_reg.9.4","L_reg.1.5","L_reg.2.5","L_reg.3.5","L_reg.4.5","L_reg.5.5","L_reg.6.5","L_reg.7.5","L_reg.8.5","L_reg.9.5","L_reg.1.6","L_reg.2.6","L_reg.3.6","L_reg.4.6","L_reg.5.6","L_reg.6.6","L_reg.7.6","L_reg.8.6","L_reg.9.6","L_reg.1.7","L_reg.2.7","L_reg.3.7","L_reg.4.7","L_reg.5.7","L_reg.6.7","L_reg.7.7","L_reg.8.7","L_reg.9.7","L_reg.1.8","L_reg.2.8","L_reg.3.8","L_reg.4.8","L_reg.5.8","L_reg.6.8","L_reg.7.8","L_reg.8.8","L_reg.9.8","L_reg.1.9","L_reg.2.9","L_reg.3.9","L_reg.4.9","L_reg.5.9","L_reg.6.9","L_reg.7.9","L_reg.8.9","L_reg.9.9"
0.01,3.4367381640060795,4.6716001589414775,-2.471655739318182,-2.475480804545455,0.11203623325113636,0.7794874893181821,1.0259189991477269,0.004722306352667108,-0.002960846745930568,-0.005208769733693182,1.181867049626136,0.015857677194312497,0.02732961046349886,-0.6030620342902044,3.53314054081733,3.1101996042943187,4.449681574296591,3.5477373737486246,4.002841644970569,3.9787673000758694,4.123771534888011,3.1293777422982942,4.62571769712858,4.583971139133068,5.048058060631818,5.3032494278749995,4.876577916311796,4.753738422115283,4.3444374689282395,0.6040068405340909,0.7059954027784093,1.229724096889148,0.8764339246940911,1.0373910029539768,1.2462144415494887,0.9582544137531819,-0.007604013055416478,-0.008978474810445398,-0.004516122140579546,-0.008831460787045454,-0.007408748812638068,-0.0034548576568293747,-0.0037639585415267054,-0.007269484632100567,-0.005465407368104602,0.0008366053306763068,-0.0020261963989772727,-0.005761463463984213,-0.0024450926731108182,-0.0076767136621210775,-0.007776758623087502,-0.007689278714314774,-0.004102033419773125,-0.005478457599624999,-0.0053008663494870465,-0.005608518418188127,-0.0050788224334164765,-0.002854717696630851,-0.002810016087915472,-0.006025769135456251,-0.003407140808279546,-0.004587632684511932,-0.006749513730671818,-0.007367502331822728,-0.0028985930397045453,-0.003885807998990909,-0.0002916521144171018,-0.002912404033035227,-0.002877265564167387,-0.0022010121309515916,-0.0032391727203674755,-0.00667061400499034,-0.006903166572952843,-0.001395402799494659,-0.008250829089675001,-0.005482312891872101,-0.0014256345288143747,-0.0033581488304715904,16.973536612551342,-19.713447095180626,0.9091639958522729,0.1997575960661364,0.602403299182817,0.4891704544481362,0.47702,0.253444,0.001307,0.00256313,0.269228,1,0.161134,-0.169685,-0.0633658,0.1226,-0.534934,-0.110609,-0.120594,0.199143,0,0.986933,0.153788,-0.138929,0.622735,0.181743,-0.180403,0.581567,0.0371057,0,0,0.973425,0.441283,0.12424,-0.134674,-0.0343723,-0.263656,0.151885,0,0,0,0.884281,0.407741,-0.231232,0.166456,0.310701,0.454787,0,0,0,0,0.644579,0.0082005,0.384618,0.227877,0.412853,0,0,0,0,0,0.780476,0.170915,0.116567,-0.122017,0,0,0,0,0,0,0.865557,-0.369608,-0.107292,0,0,0,0,0,0,0,0.528263,-0.0589434,0,0,0,0,0,0,0,0,0.727148
0.01,3.5353481640060798,4.341790158941477,-2.357365739318182,-2.287810804545455,0.09486723325113637,0.885400489318182,1.041568999147727,0.2783025363526671,-0.002666816745930568,-0.004007149733693182,0.8184760496261363,0.0154711771943125,0.022719010463498862,-0.5568070342902045,2.9128405408173297,2.869109604294319,3.2157615742965913,3.448407373748625,3.9156116449705682,3.6059173000758693,3.9770415348880115,3.4829177422982944,3.998927697128579,3.8451011391330683,4.913158060631818,4.880289427875,4.521617916311796,4.411138422115283,3.8436274689282395,0.4987368405340909,0.6422434027784094,0.980017096889148,0.8983249246940911,0.9911670029539769,1.0872644415494888,0.9033894137531819,-0.001634803055416478,0.0000512898795546025,-0.007821312140579547,-0.009104470787045455,-0.0050981188126380675,-0.003885007656829375,-0.003642488541526705,-0.0035521146321005666,-0.005769507368104602,-0.0017084936693236932,-0.0024410463989772728,-0.003262943463984213,-0.0029644326731108183,-0.0013109236621210774,-0.003959308623087502,-0.0021714887143147736,-0.007280623419773125,-0.005641017599624999,-0.002978086349487046,-0.0022505284181881273,0.0008596035665835237,-0.004297747696630851,-0.003304396087915472,-0.0014118991354562507,-0.0007975758082795461,-0.007241782684511932,-0.006933323730671818,-0.004724712331822728,-0.0026899730397045457,-0.003847087998990909,-0.002450463114417102,-0.003153624033035227,-0.0017878855641673868,-0.0020634021309515914,-0.0034208927203674753,-0.00221391400499034,0.000013980527047157594,-0.006463022799494659,-0.008218319089675,-0.0020723528918721013,-0.006250334528814375,-0.00016741183047159033,19.616236612551344,-18.399847095180625,0.892941995852273,0.20248559606613642,0.604229299182817,0.49971745444813626,0.2604,0.254409,0.0009278,0.00201196,0.119315,1,0.253451,0.384863,-0.297189,-0.0036778,0.29976,-0.271012,-0.294845,-0.367864,0,0.967348,0.0498999,-0.448044,0.0864887,-0.563422,0.127845,0.0572717,-0.410828,0,0,0.921624,-0.235039,0.314491,0.243472,-0.00662041,0.0940111,-0.00443591,0,0,0,0.809748,-0.515213,-0.00609946,-0.370538,0.0722979,0.183013,0,0,0,0,0.792563,0.13802,-0.197974,-0.166665,-0.265756,0,0,0,0,0,0.717171,-0.340722,-0.531394,0.263045,0,0,0,0,0,0,0.785863,-0.587391,-0.263954,0,0,0,0,0,0,0,0.490445,-0.0362675,0,0,0,0,0,0,0,0,0.671995
0.01,3.3350981640060797,4.485200158941478,-2.388035739318182,-2.365280804545455,0.10603423325113637,0.838949489318182,0.990248999147727,0.03926073635266711,-0.0033543367459305676,-0.0048342197336931824,0.7574580496261363,0.0184382771943125,0.023381310463498863,-0.5966910342902045,3.09498054081733,3.003479604294319,3.4676315742965915,3.0085673737486247,3.6738216449705683,3.8818173000758693,3.7943415348880114,2.9571477422982944,4.221307697128579,3.946831139133068,4.7485880606318185,4.8573994278749995,4.565977916311796,4.649798422115284,4.077627468928239,0.598702840534091,0.6772404027784094,0.974353096889148,0.867578924694091,0.9359530029539769,1.1003944415494888,0.927941413753182,-0.003325033055416478,-0.004243534810445398,-0.006699422140579546,-0.008814900787045454,-0.005062798812638067,-0.003721307656829375,-0.003782258541526705,-0.008679554632100565,-0.0049957573681046015,-0.0005402596693236932,-0.0020883463989772727,-0.003364453463984213,-0.0024281926731108184,-0.0016095736621210776,-0.0018698586230875014,-0.007192358714314773,-0.006848333419773125,-0.005665677599624999,-0.005402796349487047,-0.003167528418188127,-0.0046471124334164764,-0.0033871976966308513,-0.006933106087915472,-0.005476139135456251,-0.008064420808279547,-0.003907772684511932,-0.006797633730671818,-0.0034190323318227275,-0.0033655130397045453,-0.004004697998990909,-0.001174113114417102,-0.003012964033035227,-0.002933345564167387,-0.0023072521309515912,-0.0035850227203674755,-0.00268685400499034,-0.004843316572952843,-0.00985351279949466,-0.008738119089675,-0.005081392891872101,-0.005839574528814374,-0.00464452883047159,7.514066612551344,-21.342647095180624,0.8766479958522729,0.19490659606613642,0.595693299182817,0.4613064544481362,0.236551,0.292527,0.00103513,0.00245326,0.176968,1,0.117196,0.0616793,0.00757269,0.121121,0.0358452,-0.269559,0.234998,-0.191842,0,0.993109,0.0973242,-0.311677,0.175719,0.252325,0.0482539,0.299688,-0.172328,0,0,0.99334,0.150667,0.116161,-0.193156,0.274622,0.218393,0.118841,0,0,0,0.938136,-0.32048,-0.00762957,-0.126955,0.295048,0.588162,0,0,0,0,0.915561,0.101308,-0.0789563,0.0998283,-0.480061,0,0,0,0,0,0.942028,0.629388,-0.467621,0.298438,0,0,0,0,0,0,0.656591,-0.237796,0.166951,0,0,0,0,0,0,0,0.659569,-0.356564,0,0,0,0,0,0,0,0,0.314496
0.01,3.5476681640060796,4.508720158941477,-2.429145739318182,-2.389070804545455,0.09828153325113637,0.9606274893181821,1.065468999147727,0.1524975363526671,-0.0028396467459305677,-0.006506939733693182,0.8003620496261362,0.0243965771943125,0.017012110463498865,-0.5945020342902045,3.49964054081733,3.2549896042943187,3.2948815742965913,3.2690673737486247,3.8818116449705684,4.141757300075869,4.162881534888012,3.5518777422982946,4.1742376971285795,4.358451139133068,4.269618060631818,5.137719427875,4.668457916311796,4.974888422115284,4.35531746892824,0.5066838405340909,0.6129224027784094,1.145744096889148,0.857303924694091,0.9648420029539768,1.0786344415494888,0.917073413753182,-0.008748803055416476,-0.007586424810445398,-0.005620902140579547,-0.008310760787045455,-0.007084888812638067,-0.003355217656829375,-0.006361328541526705,-0.006715264632100567,-0.011739257368104602,0.0013914063306763068,-0.0018596063989772726,-0.004655773463984212,-0.0035039526731108182,-0.00911487366212108,-0.009680958623087502,-0.004837318714314773,-0.005594833419773125,-0.005263067599624999,-0.007624436349487046,-0.007686538418188127,-0.0015902224334164762,-0.008169797696630851,-0.002495056087915472,-0.012354089135456249,-0.004900360808279546,-0.004129512684511932,-0.006697923730671818,-0.0023116423318227278,-0.0029368230397045455,-0.003827677998990909,-0.00029144811441710186,-0.002618554033035227,-0.0017117655641673867,-0.0021611021309515914,-0.003236092720367475,-0.00418272400499034,-0.010700296572952843,-0.002674252799494659,-0.008111329089675,-0.008636962891872102,-0.0057894545288143745,-0.014678328830471592,7.325376612551343,-10.172077095180624,0.926833995852273,0.19371159606613642,0.598170299182817,0.5168324544481362,0.371967,0.469135,0.000728729,0.00234207,0.137683,1,0.487519,0.172316,0.416691,0.16294,0.201343,0.326947,-0.342728,0.0355378,0,0.873112,-0.135782,0.00054609,0.203215,-0.00559,-0.218619,-0.201453,0.336625,0,0,0.975638,0.301864,0.489544,0.21324,-0.246094,0.508322,-0.205178,0,0,0,0.857465,-0.144302,0.269303,-0.329571,-0.15601,0.0142294,0,0,0,0,0.81956,-0.0920222,-0.534864,0.359469,0.438743,0,0,0,0,0,0.91267,0.468488,0.0700905,-0.455515,0,0,0,0,0,0,0.413004,0.0197212,-0.431768,0,0,0,0,0,0,0,0.651694,0.180957,0,0,0,0,0,0,0,0,0.473245
0.01,3.6732581640060795,4.462950158941478,-2.4702857393181823,-2.434290804545455,0.11147523325113637,0.9453694893181821,1.104748999147727,0.11034553635266711,-0.002390126745930568,-0.004365899733693182,0.8431900496261362,0.0180175771943125,0.016483410463498865,-0.5656270342902044,3.5937105408173298,3.2668396042943186,3.375521574296591,3.5036073737486246,3.8061616449705684,3.6826673000758694,3.9562815348880114,3.3604477422982946,3.923927697128579,4.121581139133068,4.523718060631818,5.0348794278749995,4.544707916311797,4.568428422115284,4.268197468928239,0.6298158405340909,0.6978244027784094,0.947989096889148,0.864238924694091,0.9336150029539769,1.1330344415494888,0.9229514137531819,-0.004323313055416478,-0.0000503305104453975,-0.0067309321405795465,-0.008985490787045454,-0.006490098812638068,-0.0031942976568293748,-0.002394338541526705,-0.0062524646321005664,-0.006705517368104602,-0.0008875576693236932,-0.0019086263989772727,-0.0020829734639842127,-0.002818762673110818,-0.0030524536621210777,-0.004048798623087501,-0.004660638714314774,-0.004711363419773125,-0.005136127599624999,-0.006299206349487046,-0.0069217484181881275,-0.0006298734334164763,-0.0010131076966308514,-0.001834626087915472,-0.00392109913545625,-0.0036144308082795462,-0.0026227326845119315,-0.006301513730671818,-0.004055372331822728,-0.0029872030397045455,-0.004010857998990909,-0.0016908531144171019,-0.002699514033035227,-0.0018361555641673868,-0.0021246421309515915,-0.0031614027203674755,-0.00221018400499034,-0.0030307365729528423,-0.0073125727994946595,-0.008036219089675,-0.004959522891872101,-0.004766484528814375,-0.00286702883047159,15.051236612551344,-2.4326270951806244,0.8809019958522729,0.1933655960661364,0.5950582991828169,0.46799645444813626,0.193831,0.343653,0.000676194,0.00211989,0.147126,1,0.483529,-0.0410803,-0.408656,-0.24547,-0.233569,-0.621654,0.380981,-0.179995,0,0.875328,-0.049716,-0.314639,0.0117821,-0.0295449,0.0944388,-0.0761655,-0.435709,0,0,0.997918,0.14928,0.448824,-0.244123,-0.427835,0.207782,0.0452866,0,0,0,0.843634,-0.516644,-0.173307,-0.0350433,-0.205991,0.315325,0,0,0,0,0.68647,0.195091,0.266127,-0.0485898,-0.620636,0,0,0,0,0,0.903815,-0.295218,-0.265261,0.291906,0,0,0,0,0,0,0.51223,-0.255359,0.420359,0,0,0,0,0,0,0,0.790895,-0.0265319,0,0,0,0,0,0,0,0,0.168744
0.01,3.8346081640060796,4.670460158941477,-2.430875739318182,-2.384300804545455,0.09977023325113636,0.9940384893181821,1.170468999147727,0.012965236352667109,-0.0026864367459305677,-0.003967469733693182,0.8888880496261362,0.022362777194312497,0.017795010463498864,-0.5939440342902045,3.71331054081733,3.3971396042943187,3.6245215742965913,3.956397373748625,3.9513516449705683,4.05643730007587,3.9908815348880116,3.668487742298294,4.119117697128579,4.183861139133068,4.704838060631818,5.181439427875,4.727867916311797,4.724968422115284,4.33966746892824,0.5522128405340909,0.6474544027784094,1.095854096889148,0.871512924694091,0.9827290029539769,1.0390544415494887,0.9386424137531819,-0.006421113055416478,-0.0027645048104453975,-0.004314052140579547,-0.008678150787045454,-0.0044189988126380675,-0.0034114976568293746,-0.003535528541526705,-0.0038239746321005667,-0.0011339173681046014,-0.0008344446693236932,-0.0020494463989772726,-0.0071727834639842124,-0.0027232126731108184,-0.004552253662121078,-0.0083182186230875,-0.007499858714314774,-0.005971863419773125,-0.005304567599624999,-0.001992396349487046,-0.003849978418188127,-0.0029716524334164763,-0.002812307696630851,-0.003070036087915472,-0.00863370913545625,-0.005431950808279546,-0.005808432684511931,-0.006807753730671818,-0.006845982331822728,-0.0027123830397045453,-0.0038612179989909088,-0.0014115631144171019,-0.002857964033035227,-0.0010885255641673868,-0.0020452321309515913,-0.0029938227203674755,-0.00203183400499034,-0.0003737175729528424,-0.006307072799494659,-0.007964049089675001,-0.0060538628918721015,-0.004324794528814375,-0.0009155108304715904,15.300836612551343,-6.528037095180625,0.933584995852273,0.20262159606613642,0.6030922991828169,0.5145884544481363,0.146995,0.367753,0.00095458,0.00200609,0.1345,1,0.451788,0.361995,-0.0486304,0.103775,0.359411,-0.17955,0.0823058,-0.432585,0,0.892125,0.234491,-0.196235,0.0871242,-0.0678953,-0.151322,-0.716662,-0.0856478,0,0,0.902205,0.660666,-0.139544,0.289329,-0.427139,0.0954707,0.0415679,0,0,0,0.722944,0.0322152,-0.0425637,0.130532,-0.444149,0.539094,0,0,0,0,0.980372,-0.642398,-0.497571,-0.0790549,0.201306,0,0,0,0,0,0.606644,0.0483734,-0.293221,0.429432,0,0,0,0,0,0,0.703889,0.101416,-0.513626,0,0,0,0,0,0,0,0.413188,-0.0152426,0,0,0,0,0,0,0,0,0.155579
0.01,3.5936981640060797,4.838030158941478,-2.4881157393181823,-2.4672508045454546,0.10724423325113637,0.9957144893181821,1.189418999147727,0.2497725363526671,-0.002795056745930568,-0.004879439733693182,0.7317830496261363,0.0189682771943125,0.020258110463498864,-0.5749810342902045,3.8894605408173297,3.581609604294319,2.9050415742965914,3.740437373748625,4.096831644970568,4.319847300075869,4.030181534888012,3.272337742298294,4.705137697128579,4.455871139133068,4.9066680606318185,5.305659427875,4.932127916311797,4.967168422115284,4.550617468928239,0.5598868405340909,0.6131294027784093,1.123914096889148,0.8568129246940911,1.0905010029539768,1.1481344415494887,0.9108854137531819,-0.005305563055416478,-0.0013042248104453975,-0.0066558521405795466,-0.008576170787045454,-0.004761578812638067,-0.003699187656829375,-0.002638468541526705,-0.006545494632100566,-0.005653787368104601,-0.0009696036693236931,-0.002089776398977273,-0.0033389334639842127,-0.0020575826731108185,-0.004133503662121078,-0.0026174386230875014,-0.004462188714314774,-0.008023123419773126,-0.004846937599624999,-0.003881816349487046,-0.004922718418188127,-0.008637072433416475,-0.0029988976966308515,-0.0066592360879154724,-0.0043248991354562505,-0.0027103108082795462,-0.004531062684511931,-0.006881593730671818,-0.0036849223318227275,-0.0029447030397045455,-0.003793797998990909,-0.0018560831144171018,-0.002839194033035227,-0.0016092555641673868,-0.0016600221309515913,-0.0028815227203674754,-0.00368293400499034,-0.0038478165729528423,-0.002151622799494659,-0.007927209089675001,-0.0022644028918721013,-0.0038231445288143748,0.00036797616952840965,19.305736612551343,-12.765947095180625,0.8693069958522729,0.2074625960661364,0.600068299182817,0.5186044544481362,0.385849,0.393478,0.000836868,0.00263116,0.209616,1,0.385272,0.504757,-0.294082,0.185265,0.100119,0.114244,0.437867,0.0617548,0,0.922803,-0.035052,0.0926723,0.0225193,0.0285188,0.106731,0.600191,-0.231404,0,0,0.86255,-0.363742,0.812121,-0.595881,0.303031,0.253375,0.367502,0,0,0,0.878988,-0.48012,0.250262,-0.457079,0.288157,0.279035,0,0,0,0,0.27407,0.449835,0.0350764,-0.281577,0.0024342,0,0,0,0,0,0.607541,0.0497511,0.346908,-0.202573,0,0,0,0,0,0,0.819208,-0.126113,0.633372,0,0,0,0,0,0,0,0.292018,0.283921,0,0,0,0,0,0,0,0,0.454871
0.01,4.18122816400608,4.824290158941477,-2.5405757393181823,-2.435790804545455,0.10313423325113637,0.8831324893181821,1.244048999147727,0.1477235363526671,-0.002089706745930568,-0.0037626597336931824,0.9039850496261362,0.0191207771943125,0.021394210463498865,-0.5980990342902045,3.66822054081733,3.729109604294319,4.056161574296592,4.038137373748625,4.5489916449705685,4.2775873000758695,4.564811534888012,3.8492677422982946,4.6863676971285795,4.490861139133068,5.107238060631818,5.100769427875,4.804897916311797,5.1408884221152835,4.65634746892824,0.4959958405340909,0.5348214027784094,1.2324740968891479,0.858238924694091,1.025421002953977,1.1559044415494888,0.9017214137531819,-0.006623193055416478,-0.0011534748104453975,-0.005809152140579547,-0.008848720787045454,-0.005311988812638067,-0.003347207656829375,-0.004725048541526705,-0.0009730346321005666,-0.005240787368104602,0.0009033433306763068,-0.0016794463989772727,-0.0053338534639842125,-0.0022446526731108186,-0.005364383662121078,-0.010349578623087502,-0.010081508714314773,-0.0009258034197731249,-0.005210217599624999,-0.0017411763494870462,-0.001789858418188127,-0.0027624224334164764,0.0003674513033691487,-0.000683464087915472,-0.006557179135456251,-0.005028390808279546,-0.005514102684511931,-0.0069164737306718176,-0.005271352331822727,-0.0027646730397045453,-0.0038115779989909087,-0.0004947031144171019,-0.002676234033035227,-0.0005498225641673868,-0.0018063321309515915,-0.0031089827203674755,-0.00407098400499034,-0.0033713565729528426,-0.0015995927994946592,-0.008344589089675001,-0.004628202891872101,-0.007090704528814375,-0.00018572983047159035,10.820736612551343,-19.832347095180623,0.9360899958522729,0.2073785960661364,0.598408299182817,0.43958745444813624,0.244806,0.17096,0.00102682,0.00235444,0.223388,1,0.645635,-0.0931006,-0.0544798,0.200625,-0.0656901,-0.303095,-0.0791594,-0.521851,0,0.763646,0.234004,-0.251824,0.687346,0.198396,-0.218728,-0.0171835,-0.0373487,0,0,0.967768,0.452111,-0.429467,0.680024,-0.495871,0.186437,-0.389476,0,0,0,0.853939,0.215557,-0.0945382,0.169857,-0.551268,0.214982,0,0,0,0,0.506358,-0.33995,-0.10845,0.393829,0.169334,0,0,0,0,0,0.607773,-0.0547042,0.136401,0.50273,0,0,0,0,0,0,0.755512,0.183849,-0.0368165,0,0,0,0,0,0,0,0.668788,-0.145869,0,0,0,0,0,0,0,0,0.473627
0.01,3.6398781640060798,4.785060158941477,-2.406275739318182,-2.396610804545455,0.10154823325113636,0.9399604893181821,1.241978999147727,0.05564193635266711,-0.002640396745930568,-0.003227149733693182,0.9293460496261362,0.019833677194312498,0.020701910463498865,-0.5612920342902045,3.45361054081733,2.907409604294319,3.3738515742965913,3.469407373748625,3.942191644970568,4.155827300075869,3.8675715348880115,3.3416477422982944,4.442477697128579,4.463771139133068,4.951328060631818,4.994469427875,4.787537916311797,4.9273484221152835,4.571457468928239,0.4736918405340909,0.8134584027784094,1.0074540968891479,0.8573919246940911,1.046161002953977,1.2309544415494889,0.9207094137531819,-0.001947173055416478,0.0005038801895546024,-0.0060618721405795465,-0.008683970787045454,-0.0031740588126380675,-0.002803747656829375,-0.0010823385415267052,-0.006411094632100566,-0.0028240273681046013,-0.0004729556693236932,-0.0021510863989772726,-0.005384373463984213,-0.0024452726731108185,-0.0033679736621210774,-0.0004087886230875013,-0.0030727387143147738,-0.000676084419773125,-0.0054303275996249985,-0.0038710663494870463,-0.004435588418188127,-0.0028482524334164762,0.0005339373033691488,-0.0035335060879154723,-0.0001755671354562506,-0.007272220808279546,-0.006103672684511932,-0.006798963730671818,-0.0021717723318227275,-0.0027185730397045454,-0.003945827998990908,-0.0015709031144171019,-0.002994794033035227,-0.0012915955641673868,-0.0017692821309515914,-0.0031412027203674754,-0.00107412400499034,-0.0010663165729528424,-0.0029801027994946594,-0.008456749089675001,-0.004672612891872101,-0.004399324528814375,-0.0008947038304715903,25.620836612551344,-21.357747095180628,0.914114995852273,0.1928965960661364,0.601112299182817,0.4840604544481362,0.240217,0.21674,0.00118939,0.00195599,0.163861,1,0.302159,0.299491,-0.436418,-0.0786279,-0.388039,-0.634991,0.0204873,-0.630358,0,0.953258,0.392446,-0.383503,0.337477,-0.131016,0.00946518,0.482918,-0.126426,0,0,0.86965,0.241201,0.125612,0.113961,0.0774804,0.218779,0.141485,0,0,0,0.777359,-0.0657141,-0.427802,-0.144613,-0.205638,0.603321,0,0,0,0,0.92727,-0.070993,-0.051868,-0.577497,0.111194,0,0,0,0,0,0.794493,0.501703,0.327579,-0.0274822,0,0,0,0,0,0,0.561591,0.109822,0.346975,0,0,0,0,0,0,0,0.472595,0.151976,0,0,0,0,0,0,0,0,0.214575
0.01,3.4951881640060796,4.709570158941477,-2.440915739318182,-2.400060804545455,0.10509423325113637,0.9073934893181821,1.180198999147727,0.0949871363526671,-0.002943796745930568,-0.005754799733693182,0.7695900496261362,0.0164468771943125,0.018001610463498862,-0.6006370342902045,3.26874054081733,3.199289604294319,3.6336715742965913,3.2796473737486247,4.068341644970568,4.08149730007587,4.121241534888011,3.1020777422982944,4.302267697128579,4.225611139133068,5.114258060631818,4.923219427875,4.670497916311796,5.037548422115283,4.414477468928239,0.523450840534091,0.5461744027784093,0.882048096889148,0.884684924694091,0.9432270029539769,1.0281144415494887,0.9126804137531819,-0.002958223055416478,-0.012568364810445397,-0.006957802140579547,-0.008584150787045455,-0.009670448812638068,-0.0038037176568293746,-0.0070743885415267055,-0.006823414632100566,-0.006354067368104601,-0.00018853866932369318,-0.0020763563989772728,-0.0009508334639842127,-0.0026043826731108185,-0.007871323662121076,-0.002539798623087501,-0.0077578387143147735,-0.002074423419773125,-0.005759167599624999,-0.0008941363494870463,-0.006931698418188127,-0.006627082433416477,-0.00893905769663085,0.0017986839120845278,-0.009737179135456249,-0.004194120808279546,-0.004640162684511931,-0.006317383730671818,-0.007186582331822728,-0.0029084630397045457,-0.003943687998990909,-0.0008203251144171019,-0.002944734033035227,-0.0025836355641673868,-0.0022594721309515914,-0.0032568527203674755,-0.00486650400499034,-0.004369736572952842,-0.002141092799494659,-0.008551169089675001,-0.006543762891872101,-0.011019674528814374,-0.00635502883047159,10.330436612551344,-18.647247095180624,0.8827199958522729,0.1928625960661364,0.600103299182817,0.45737345444813626,0.29219,0.410993,0.000919791,0.00283554,0.199002,1,0.0984615,0.262108,-0.10386,0.185687,0.0326991,0.267953,-0.109469,-0.330898,0,0.995141,0.401628,0.230482,0.291287,-0.30106,-0.174109,0.649592,-0.373311,0,0,0.877493,-0.169443,0.0787192,-0.0960126,-0.214711,0.175925,0.0371222,0,0,0,0.952565,-0.606176,0.0361102,-0.401694,0.184558,-0.162418,0,0,0,0,0.712057,0.169984,-0.276614,0.273865,-0.00446808,0,0,0,0,0,0.932136,-0.460463,0.0396096,0.112659,0,0,0,0,0,0,0.633946,0.0896197,-0.510115,0,0,0,0,0,0,0,0.645316,-0.0310909,0,0,0,0,0,0,0,0,0.670442
0.01,3.9401981640060795,4.156340158941478,-2.4148357393181823,-2.351700804545455,0.10331523325113637,0.849621489318182,1.113808999147727,0.0859493363526671,-0.002925356745930568,-0.003986549733693182,0.8868190496261362,0.0143570771943125,0.013776110463498864,-0.5741750342902044,3.20097054081733,3.243959604294319,3.2028215742965913,3.9400573737486244,4.086971644970569,4.081487300075869,4.050881534888012,3.2493877422982944,4.0163676971285796,3.239741139133068,5.045558060631818,4.670079427875,4.421647916311796,4.6293684221152835,4.11873746892824,0.4031728405340909,0.7168784027784094,1.4515940968891479,0.843875924694091,1.0549210029539768,1.2480844415494887,0.9072344137531819,-0.003291783055416478,-0.0003639268104453975,-0.006153042140579546,-0.008866030787045455,-0.004140198812638067,-0.0033700876568293747,-0.004084478541526705,-0.0030855646321005666,-0.005574197368104601,0.0007296353306763068,-0.002194356398977273,-0.0029733234639842125,-0.0023348026731108184,-0.005067463662121078,-0.004623468623087501,-0.0048309987143147735,-0.002080193419773125,-0.0057402575996249984,-0.006744836349487046,-0.004745528418188127,-0.005414082433416476,-0.004162587696630852,-0.005274646087915472,-0.001953139135456251,-0.0051221408082795464,-0.007952602684511933,-0.006665823730671818,-0.005344582331822728,-0.0029481930397045456,-0.003804237998990909,-0.0011753131144171018,-0.002987234033035227,-0.002008395564167387,-0.0018364421309515913,-0.0033301827203674754,-0.0038429440049903402,-0.004007696572952842,-0.006581522799494659,-0.008658099089675,-0.003711742891872101,-0.004644004528814374,-0.0037958788304715903,10.997336612551344,-12.922947095180625,0.890930995852273,0.2000615960661364,0.602963299182817,0.5009744544481363,0.459144,0.402413,0.000762631,0.00198471,0.244364,1,0.162405,0.348634,-0.0536493,0.300022,0.106129,-0.119993,0.165244,-0.0687154,0,0.986724,0.429653,-0.260504,0.23058,0.243301,-0.14221,0.0475427,-0.413595,0,0,0.832978,0.118953,0.170298,0.0749542,0.101255,0.544188,-0.0255806,0,0,0,0.956614,0.150161,0.362939,-0.277843,-0.0969353,0.220271,0,0,0,0,0.897368,-0.303861,-0.081805,0.572958,-0.280917,0,0,0,0,0,0.83658,0.825097,0.145367,-0.360566,0,0,0,0,0,0,0.436408,0.137883,0.638415,0,0,0,0,0,0,0,0.544493,0.14388,0,0,0,0,0,0,0,0,0.371277
0.01,3.3862281640060794,4.351290158941477,-2.364345739318182,-2.328790804545455,0.10020423325113637,0.9110314893181821,1.1817289991477269,0.1820785363526671,-0.0034835767459305677,-0.0070214497336931825,0.9125580496261363,0.0211222771943125,0.025183510463498864,-0.6507780342902045,3.55074054081733,3.083999604294319,3.7096715742965913,3.103567373748625,3.7185216449705685,3.7711573000758696,3.8967915348880116,3.0718477422982944,4.2095476971285795,3.884961139133068,4.973758060631818,4.865129427875,4.673127916311796,4.881618422115284,4.119667468928239,0.5804338405340909,0.6533834027784093,0.7389080968891479,0.834837924694091,0.9378310029539769,1.0155544415494888,0.9307654137531819,-0.007826453055416478,-0.006805334810445397,-0.006545902140579546,-0.008848540787045455,-0.006395178812638068,-0.0037619976568293747,-0.005251738541526705,-0.0009280306321005666,-0.010746857368104601,0.0001410038306763068,-0.0018943563989772727,-0.008356543463984213,-0.003941452673110819,-0.009103463662121076,-0.0027157486230875013,-0.004194428714314774,-0.010190973419773125,-0.006018857599624999,-0.005880726349487046,-0.009061178418188126,-0.003623122433416476,-0.0028354176966308513,-0.002036746087915472,-0.0019375391354562507,-0.005396280808279546,-0.009335752684511932,-0.006959083730671818,-0.012059372331822728,-0.0029716530397045455,-0.0041894979989909095,-0.0010315231144171018,-0.003139154033035227,-0.0018210655641673866,-0.0024388621309515916,-0.0031834527203674755,-0.01197521400499034,-0.012369796572952842,-0.014606412799494659,-0.008837779089675,-0.006206802891872101,-0.005189304528814375,-0.007872158830471591,16.906536612551342,-20.808647095180625,0.883505995852273,0.20118259606613642,0.597827299182817,0.4936814544481362,0.283426,0.350202,0.00090119,0.00313802,0.137888,1,0.280302,0.0998359,-0.0432581,-0.113108,-0.165302,0.277647,-0.0928725,-0.0278468,0,0.959912,0.357411,-0.181212,0.7409,-0.520321,-0.0891541,0.694758,0.466026,0,0,0.928596,0.261066,-0.311256,-0.358435,-0.367508,-0.26424,0.333765,0,0,0,0.947173,0.0245191,-0.255841,0.0393426,0.281458,-0.0593608,0,0,0,0,0.583774,0.311499,0.170018,-0.290143,-0.13143,0,0,0,0,0,0.641077,-0.770837,0.125297,0.385207,0,0,0,0,0,0,0.394028,0.0877744,-0.444753,0,0,0,0,0,0,0,0.502054,0.304988,0,0,0,0,0,0,0,0,0.458955
0.01,3.7050881640060798,4.759830158941478,-2.418525739318182,-2.382000804545455,0.10029823325113636,0.9315634893181821,1.144578999147727,0.054058436352667105,-0.0027975667459305678,-0.004513829733693182,0.9666200496261362,0.0277842771943125,0.018083910463498862,-0.5713800342902045,3.31607054081733,3.403559604294319,3.2678915742965913,3.538377373748625,3.835141644970568,3.917787300075869,3.9204515348880116,3.4408877422982944,4.318277697128579,4.037441139133068,4.631668060631818,5.155919427874999,4.6118179163117965,5.058988422115283,4.383577468928239,0.6277038405340909,0.7224404027784094,0.9634380968891479,0.881122924694091,0.9722510029539768,1.2122144415494887,0.9209894137531819,-0.00980307305541648,-0.0068263048104453975,-0.0067265521405795465,-0.008873620787045455,-0.005461748812638068,-0.003461047656829375,-0.004968568541526705,-0.0030316946321005665,-0.006244757368104602,-0.0007403376693236932,-0.0019727663989772726,-0.004714743463984213,-0.0015662526731108184,-0.006025653662121077,-0.009843348623087502,-0.007130398714314774,-0.005493563419773125,-0.005211727599624998,-0.008491266349487048,-0.0032163584181881272,-0.004026762433416476,-0.0010302376966308513,-0.001199676087915472,-0.0010791991354562507,-0.004778230808279546,-0.0063421926845119315,-0.006368113730671818,-0.0025055023318227274,-0.0028313030397045455,-0.003847617998990909,-0.0017497131144171018,-0.002785964033035227,-0.0022920055641673866,-0.0016090221309515915,-0.0031468227203674754,-0.0009251220049903401,-0.0020182665729528426,-0.0023988427994946593,-0.008147899089675,0.0000956421081278987,-0.005860084528814375,-0.0034855888304715903,10.415236612551343,-20.46544709518062,0.8801069958522729,0.20470359606613642,0.599474299182817,0.46846545444813625,0.183825,0.302631,0.000533101,0.00295001,0.138218,1,0.722087,0.336161,0.0595626,0.162826,0.124358,-0.493943,0.264149,-0.329002,0,0.691802,0.285301,0.0027868,0.0897682,0.440288,-0.257227,-0.0796773,-0.641038,0,0,0.897552,0.27672,-0.261658,0.438452,-0.116545,0.338592,0.0141151,0,0,0,0.959099,-0.0089862,0.19167,-0.0966882,-0.140305,-0.0177714,0,0,0,0,0.947039,-0.412419,0.243753,0.594479,0.302779,0,0,0,0,0,0.625791,0.670319,0.17379,-0.5278,0,0,0,0,0,0,0.397718,0.134068,0.199458,0,0,0,0,0,0,0,0.622868,0.00155866,0,0,0,0,0,0,0,0,0.265103
0.01,3.9110881640060797,4.794200158941478,-2.444565739318182,-2.3727608045454547,0.09921843325113637,0.9316504893181821,1.182388999147727,0.1616585363526671,-0.002821646745930568,-0.0047159197336931824,0.9807300496261362,0.0253393771943125,0.017695910463498863,-0.5414490342902045,3.3755005408173298,3.574009604294319,3.5084115742965913,3.8317073737486247,4.040911644970568,4.09179730007587,4.1410215348880115,3.6932177422982946,4.339967697128579,3.9529211391330676,4.866898060631818,5.130429427875,4.6101979163117965,5.090328422115284,4.363137468928239,0.6339468405340909,0.7275934027784093,1.0603940968891479,0.886670924694091,1.003861002953977,1.2750244415494887,0.9267384137531819,-0.007250493055416478,-0.005569594810445397,-0.008063822140579546,-0.008873760787045454,-0.005562928812638067,-0.002739837656829375,-0.0031648785415267053,-0.0033969946321005667,-0.0076487773681046005,-0.0003105816693236932,-0.0021644563989772726,-0.005824523463984213,-0.0029391926731108186,-0.004542523662121077,-0.0095756886230875,-0.0077889587143147735,-0.004585813419773125,-0.005332597599624999,-0.007496656349487046,-0.002438228418188127,-0.004932542433416476,-0.0022477976966308513,-0.0025490560879154723,-0.0022279191354562505,-0.0023500008082795463,-0.0037604626845119315,-0.007036713730671818,-0.004130292331822728,-0.0029278230397045456,-0.0039818179989909094,-0.002094483114417102,-0.002773314033035227,-0.0019208855641673866,-0.0016523321309515914,-0.0031459627203674753,-0.00220993400499034,-0.0019681165729528425,-0.004385842799494659,-0.008231529089675001,-0.0001659378918721013,-0.0054301745288143745,-0.0036389988304715904,12.245636612551344,-17.324947095180626,0.881139995852273,0.2050885960661364,0.600184299182817,0.4733984544481362,0.206066,0.337113,0.00057151,0.0029014,0.155133,1,0.767929,0.306435,0.00768795,0.00266234,0.246949,-0.184159,0.231126,-0.251122,0,0.640535,0.384913,0.0243608,0.225782,0.476536,-0.342701,-0.209495,-0.605169,0,0,0.870597,0.156518,-0.188094,0.402045,-0.200572,0.212288,0.08011,0,0,0,0.987345,0.104558,0.176802,-0.0792466,-0.104751,-0.0126415,0,0,0,0,0.950107,-0.369786,0.235973,0.535336,0.240578,0,0,0,0,0,0.618295,0.662208,0.135516,-0.632815,0,0,0,0,0,0,0.554914,0.0372361,0.161194,0,0,0,0,0,0,0,0.735063,0.0456821,0,0,0,0,0,0,0,0,0.278798
0.01,3.5480681640060796,4.953380158941478,-2.387165739318182,-2.432510804545455,0.10619823325113636,0.8625874893181821,1.097428999147727,0.2750285363526671,-0.002419216745930568,-0.004993889733693182,1.025687049626136,0.0288661771943125,0.022480510463498863,-0.6540230342902045,3.53142054081733,3.084389604294319,3.0720015742965914,3.508817373748625,3.581331644970568,3.6141773000758692,3.8628715348880114,2.9928377422982946,4.626607697128579,4.301001139133068,5.116318060631818,5.460309427875,4.617227916311797,5.297298422115284,4.41847746892824,0.503724840534091,0.6503744027784094,1.194694096889148,0.845513924694091,0.9568250029539769,1.2769944415494887,0.881939413753182,-0.005811853055416478,-0.009743264810445396,-0.004858832140579547,-0.008760820787045454,-0.0017228888126380674,-0.0032280476568293747,-0.011713848541526704,-0.006187534632100567,-0.0107586573681046,-0.0001851066693236932,-0.001985786398977273,-0.0043706534639842125,-0.0029285226731108186,-0.010948083662121078,-0.008800848623087502,-0.008188648714314774,-0.001987643419773125,-0.005493477599624999,-0.0024748163494870464,-0.004630278418188127,-0.007855022433416476,-0.010695317696630851,-0.008103856087915471,-0.0035088191354562506,-0.010242360808279546,-0.005535292684511931,-0.006776173730671818,-0.006282462331822727,-0.0030681830397045456,-0.003822287998990909,-0.0013596631144171018,-0.003214384033035227,-0.0018413355641673868,-0.0022951321309515912,-0.002837012720367475,-0.00720905400499034,-0.004596326572952843,-0.008875742799494659,-0.008769399089675,-0.005879242891872101,-0.0014485845288143748,-0.00853348883047159,10.753436612551344,-25.322047095180622,0.913473995852273,0.19149059606613641,0.597427299182817,0.5083764544481363,0.202237,0.435885,0.000496763,0.00258106,0.198671,1,0.408915,0.5112,0.48562,0.321794,0.457033,0.0714363,0.236541,0.364177,0,0.912573,0.215142,-0.451181,0.0155293,-0.666662,-0.0666152,0.303316,-0.393158,0,0,0.832099,-0.325267,-0.110992,0.0477533,0.162201,0.372651,0.259008,0,0,0,0.674396,0.242093,0.0698359,-0.0204125,0.453567,0.206165,0,0,0,0,0.908449,0.252548,-0.198803,-0.058989,-0.26202,0,0,0,0,0,0.525114,0.344821,0.0449823,-0.313305,0,0,0,0,0,0,0.89739,0.329458,-0.404317,0,0,0,0,0,0,0,0.627224,-0.503888,0,0,0,0,0,0,0,0,0.137924
0.01,3.2605781640060796,4.423530158941477,-2.374185739318182,-2.335060804545455,0.10179423325113636,0.9178374893181821,1.014518999147727,0.06039303635266711,-0.0029260467459305676,-0.004564569733693182,0.8975550496261362,0.0232719771943125,0.019140710463498863,-0.5469380342902045,3.16641054081733,2.9216796042943187,3.2815215742965913,3.2071173737486247,3.750681644970568,3.3473873000758694,3.8055415348880115,3.2937877422982944,4.076857697128579,4.134631139133068,4.359818060631818,5.062109427875,4.213907916311797,4.930488422115284,3.9112774689282395,0.7116198405340909,0.6976334027784094,0.749661096889148,0.873299924694091,0.9705740029539769,1.2012844415494888,0.9038794137531819,-0.004342093055416478,-0.008122984810445398,-0.007005382140579546,-0.008786090787045455,-0.005912688812638067,-0.0036937976568293747,-0.006023978541526706,-0.0032317346321005668,-0.0034627473681046014,-0.0006708336693236932,-0.002318496398977273,-0.005099373463984213,-0.0027772926731108186,-0.008842993662121077,-0.0049400686230875014,-0.006852318714314774,-0.001522173419773125,-0.005388427599624998,-0.005032776349487046,-0.007285008418188127,-0.008329432433416476,-0.003361457696630851,-0.0012960360879154722,-0.0075375491354562505,-0.001626800808279546,-0.006176312684511931,-0.006814753730671818,-0.004435972331822728,-0.0029643430397045456,-0.004018757998990909,-0.001531533114417102,-0.002953984033035227,-0.0015894255641673868,-0.0021015921309515914,-0.003203152720367475,-0.00481083400499034,-0.006614056572952842,-0.01129481279949466,-0.008197679089675001,-0.004858262891872102,-0.005646454528814375,-0.00568815883047159,9.768636612551344,-19.944547095180624,0.875941995852273,0.1987025960661364,0.598800299182817,0.45146745444813624,0.28692,0.45435,0.00115861,0.00268011,0.112193,1,0.454624,0.451193,-0.488058,0.10581,-0.274699,-0.180317,-0.200137,-0.597814,0,0.890684,-0.052661,0.264215,0.240649,0.713983,0.0147749,-0.205637,0.260383,0,0,0.890871,0.522739,-0.352926,-0.116754,-0.13818,0.0990135,0.0786197,0,0,0,0.647097,-0.0706479,0.0037917,-0.043725,-0.63748,-0.0833535,0,0,0,0,0.895178,-0.100209,0.0510833,0.263051,0.0948831,0,0,0,0,0,0.625365,-0.32874,-0.0548778,0.140817,0,0,0,0,0,0,0.914102,-0.444005,0.392274,0,0,0,0,0,0,0,0.481795,-0.0515075,0,0,0,0,0,0,0,0,0.613454
0.01,3.58829816400608,5.005190158941478,-2.452875739318182,-2.462550804545455,0.10573323325113637,0.9462884893181821,1.030408999147727,0.2433375363526671,-0.0024248767459305676,-0.005211279733693182,0.9016800496261362,0.0261340771943125,0.03133191046349887,-0.6649390342902045,3.6596605408173297,3.411279604294319,3.247951574296591,3.450577373748625,3.980001644970568,3.5578173000758695,3.9279915348880112,3.4623577422982943,4.737827697128579,4.543751139133068,5.1344980606318185,5.708659427874999,4.970087916311797,5.215228422115284,4.730567468928239,0.4669548405340909,0.6441494027784094,1.224634096889148,0.885187924694091,0.9568700029539768,1.1804044415494888,0.935018413753182,-0.006709303055416478,-0.005649754810445397,-0.006401692140579547,-0.008672570787045454,-0.004432258812638068,-0.0036184976568293748,-0.0030553185415267054,-0.010462254632100567,-0.012830357368104603,0.0008549933306763068,-0.0018532363989772727,-0.004375963463984213,-0.0018879826731108182,-0.006112073662121078,-0.006652988623087501,-0.008006128714314775,-0.004799713419773125,-0.005022247599624999,-0.003458216349487046,-0.0035881984181881273,-0.0038014124334164764,-0.009973317696630851,-0.010816246087915472,-0.0023578191354562505,-0.004036230808279546,-0.0028714226845119317,-0.006172733730671818,-0.0024538223318227277,-0.0026866430397045455,-0.0034400379989909086,-0.00010391711441710185,-0.002886364033035227,-0.0012567655641673868,-0.0017947321309515914,-0.0029285427203674754,-0.0026776040049903403,-0.0033699165729528424,-0.005363022799494659,-0.008084099089675001,-0.006142752891872101,-0.0008197505288143747,-0.00685994883047159,6.931496612551343,-30.537947095180627,0.907674995852273,0.1985665960661364,0.603188299182817,0.5070874544481362,0.222127,0.278278,0.00102983,0.00270065,0.152487,1,0.624324,-0.0028241,-0.0207352,0.377943,0.458223,0.147493,-0.148856,0.391646,0,0.781166,0.198121,-0.713803,0.0448351,-0.624713,-0.00903425,0.180463,-0.358812,0,0,0.980173,0.128054,0.534854,0.030298,0.0621847,0.32195,-0.0255654,0,0,0,0.688228,0.0592812,0.326979,0.0665137,0.579287,-0.126979,0,0,0,0,0.752041,0.0459266,0.140824,0.197059,-0.184686,0,0,0,0,0,0.538352,0.312918,0.114804,-0.219684,0,0,0,0,0,0,0.923106,-0.137328,-0.337538,0,0,0,0,0,0,0,0.659681,0.282474,0,0,0,0,0,0,0,0,0.651918
0.01,3.2042181640060794,4.245230158941477,-2.388305739318182,-2.3194208045454547,0.10070423325113637,0.8607734893181821,0.992157999147727,0.054487036352667106,-0.003305656745930568,-0.0043497597336931825,0.8279070496261363,0.023654377194312497,0.030330810463498864,-0.5432320342902045,3.0649605408173297,3.047859604294319,3.6846515742965913,3.372637373748625,3.8950216449705684,3.8320773000758694,3.8909115348880112,3.1510977422982944,4.16170769712858,4.452461139133068,4.7212080606318185,5.073959427875,4.469657916311797,4.562698422115283,4.00565746892824,0.5615838405340909,0.6567074027784093,0.872979096889148,0.875990924694091,0.9881950029539769,1.2002744415494888,0.9096354137531819,-0.003282263055416478,-0.0022951248104453974,-0.008444182140579546,-0.009330630787045454,-0.005595148812638067,-0.0037835576568293746,-0.003722228541526705,-0.004525454632100566,-0.002833697368104601,-0.0010145336693236932,-0.0022249763989772727,-0.004840723463984213,-0.0030400126731108183,-0.006689293662121077,-0.004163978623087501,-0.004964278714314774,-0.008981283419773126,-0.005838847599624998,-0.007230836349487046,-0.006330438418188127,-0.005312462433416476,-0.0003630096966308513,-0.0033656960879154723,-0.00417581913545625,-0.007137980808279546,-0.0066421726845119315,-0.007269963730671818,-0.0028373823318227276,-0.0029353530397045456,-0.0043034179989909094,-0.001922443114417102,-0.003029074033035227,-0.0025682555641673866,-0.0021325521309515914,-0.0032687827203674753,-0.0044715740049903405,-0.004452386572952842,-0.003518342799494659,-0.008097439089675001,-0.007328122891872102,-0.009298344528814374,-0.0036050688304715903,10.770436612551343,-26.683147095180622,0.872579995852273,0.2030245960661364,0.603649299182817,0.4962974544481362,0.442722,0.351216,0.000719254,0.00272618,0.219686,1,0.159082,0.350833,-0.164388,0.0264853,-0.510488,-0.416044,0.250457,-0.579755,0,0.987265,0.151099,-0.266538,0.577993,0.462574,-0.198209,-0.130634,0.260133,0,0,0.924167,0.0152709,0.10732,0.0207243,-0.531201,0.275323,0.0988279,0,0,0,0.949579,-0.200145,-0.00103732,-0.158585,-0.142613,0.0424646,0,0,0,0,0.783356,-0.206509,0.171802,0.139053,0.0812953,0,0,0,0,0,0.694515,0.0330602,-0.302793,0.181333,0,0,0,0,0,0,0.670588,0.522415,0.0329781,0,0,0,0,0,0,0,0.663422,-0.181755,0,0,0,0,0,0,0,0,0.714865
0.01,3.2480281640060795,4.201730158941477,-2.355015739318182,-2.3031508045454547,0.09995123325113636,0.8683074893181821,0.966097999147727,0.05771893635266711,-0.002393586745930568,-0.004964659733693182,0.8482410496261362,0.022315877194312498,0.03617161046349886,-0.6090490342902045,2.94216054081733,3.0670096042943187,3.3114815742965913,3.462777373748625,3.8197116449705684,3.4875273000758695,3.7591215348880116,2.9751377422982945,4.106347697128579,4.434191139133068,5.093478060631818,5.161019427875,4.2740979163117965,4.7055484221152835,3.992087468928239,0.5225608405340909,0.5554644027784094,1.006194096889148,0.854106924694091,0.9473360029539769,1.0763544415494888,0.914112413753182,-0.008539643055416477,-0.006844314810445397,-0.007615912140579547,-0.008990600787045454,-0.005144288812638067,-0.003561947656829375,-0.005183098541526705,-0.0038601146321005668,-0.0006215453681046013,-0.00039996666932369323,-0.002299366398977273,-0.006486563463984213,-0.0028272726731108184,-0.0017347236621210774,-0.007995218623087502,-0.0020974587143147735,-0.0039017334197731252,-0.005687877599624999,-0.004027236349487046,-0.0038178584181881273,-0.0008225784334164762,-0.003789417696630851,-0.007541276087915472,-0.00790323913545625,-0.008607900808279546,-0.005988352684511931,-0.006520703730671818,-0.0011245723318227276,-0.0031209230397045455,-0.003931517998990908,-0.0016609431144171019,-0.003301164033035227,-0.002005415564167387,-0.0020590421309515912,-0.0034093927203674755,-0.01034591400499034,-0.009265316572952842,-0.0017531227994946592,-0.009020239089675001,-0.002644602891872101,-0.0018508445288143748,-0.0038369688304715904,9.323826612551343,-30.587147095180626,0.904428995852273,0.1956415960661364,0.596175299182817,0.47306945444813625,0.335415,0.383357,0.000686067,0.00242957,0.163154,1,0.370451,0.0293589,-0.033519,0.124836,-0.25335,-0.485192,0.0546304,0.414297,0,0.928852,0.108311,-0.282318,0.259364,-0.0949451,-0.374759,0.342588,-0.226639,0,0,0.993683,0.619635,-0.247818,0.00672022,0.0634489,0.420491,0.25501,0,0,0,0.731591,-0.254192,-0.0114299,0.230584,0.0684286,-0.0788307,0,0,0,0,0.889449,0.220606,0.157508,-0.462869,-0.0547284,0,0,0,0,0,0.936993,-0.0855802,-0.431783,0.192273,0,0,0,0,0,0,0.731312,-0.0357878,0.210432,0,0,0,0,0,0,0,0.544232,0.627534,0,0,0,0,0,0,0,0,0.477183
0.01,3.3787881640060795,4.4783301589414775,-2.441915739318182,-2.436720804545455,0.11009723325113636,0.880979489318182,1.005698999147727,0.05969673635266711,-0.0029780967459305677,-0.005832209733693182,0.8754170496261362,0.0225342771943125,0.02027951046349886,-0.5950320342902045,3.4405105408173298,3.171459604294319,3.341761574296591,3.207217373748625,3.763741644970568,3.5575173000758693,4.006481534888012,3.2650577422982945,4.289527697128579,4.221411139133068,4.758098060631818,5.287589427875,4.717687916311797,4.979908422115284,4.10397746892824,0.5696388405340909,0.6770564027784094,1.141744096889148,0.874582924694091,0.9812180029539769,1.1647444415494888,0.882939413753182,-0.005095313055416478,-0.007626084810445397,-0.007152622140579546,-0.008643840787045455,-0.0037370888126380675,-0.003935537656829375,-0.0018737185415267051,-0.008030614632100568,-0.0084248173681046,-0.0005030316693236932,-0.0021887763989772726,-0.003924573463984213,-0.0021765326731108185,-0.010207383662121077,-0.002187878623087501,-0.009187718714314775,-0.007858383419773126,-0.005725277599624999,-0.007884376349487045,-0.005720858418188127,-0.005582532433416477,-0.005744107696630851,-0.0032549860879154723,-0.009993389135456252,-0.0002812718082795461,-0.00894090268451193,-0.007355363730671818,-0.010720772331822727,-0.0028389730397045455,-0.003830617998990909,-0.0013090531144171018,-0.002982094033035227,-0.002368775564167387,-0.0022784421309515915,-0.003223752720367475,-0.00576171400499034,-0.004581396572952842,-0.0028978027994946594,-0.008388819089675,-0.0040992828918721014,-0.007785434528814374,-0.0040605588304715905,14.383836612551343,-19.096347095180626,0.8953919958522729,0.2022225960661364,0.595387299182817,0.44216145444813626,0.249915,0.356656,0.00085952,0.00222145,0.185828,1,0.345284,0.333897,-0.0767368,0.211446,0.192259,0.268867,-0.0323626,-0.720173,0,0.938498,-0.00218672,-0.46502,0.554151,0.0859592,0.443035,0.0691426,-0.0457614,0,0,0.942607,-0.200044,0.565141,-0.0208601,-0.330971,0.21736,-0.0410881,0,0,0,0.858982,0.0535317,0.0140237,-0.229652,0.253898,0.216989,0,0,0,0,0.570927,-0.149041,-0.158938,0.300446,0.107057,0,0,0,0,0,0.965817,0.178214,0.447904,-0.396972,0,0,0,0,0,0,0.715631,0.172238,-0.0187032,0,0,0,0,0,0,0,0.749607,0.367084,0,0,0,0,0,0,0,0,0.355438
0.01,3.4769981640060794,4.676240158941478,-2.424275739318182,-2.3732408045454547,0.10032523325113636,0.9655614893181821,1.033378999147727,0.1291575363526671,-0.002265936745930568,-0.005603909733693182,0.8037720496261362,0.0223190771943125,0.020388510463498863,-0.5855300342902044,3.28282054081733,3.0425996042943186,3.5180915742965913,3.4169973737486248,3.916201644970568,3.7307073000758693,4.113931534888012,3.0993477422982942,4.1550476971285795,4.393551139133068,5.390768060631818,5.243089427875,4.6032079163117965,4.811328422115284,4.160207468928239,0.4557138405340909,0.6085174027784094,1.089114096889148,0.8721209246940911,1.0480710029539768,1.1501444415494888,0.8891294137531819,-0.008170243055416478,-0.006114824810445398,-0.005813262140579547,-0.008744190787045454,-0.0033183988126380673,-0.003543927656829375,-0.006191538541526705,-0.004622114632100566,-0.007648437368104601,-0.0011392236693236932,-0.0020692063989772727,-0.006417163463984213,-0.0026595526731108183,-0.0019384936621210775,-0.0008967076230875013,-0.0034731787143147735,-0.004259373419773125,-0.005454517599624999,-0.004321236349487046,-0.007754928418188127,-0.004717282433416476,-0.0036346876966308513,-0.002976726087915472,-0.00736350913545625,-0.010424960808279544,-0.005554732684511931,-0.006534913730671818,-0.0028243923318227275,-0.0026173830397045452,-0.0037780479989909087,-0.0014696431144171017,-0.002929774033035227,-0.0018872855641673867,-0.0018990521309515912,-0.0031647127203674754,-0.00749009400499034,-0.005051136572952843,-0.00922991279949466,-0.008317939089675,-0.004467592891872102,-0.008019154528814375,-0.00818512883047159,15.834936612551342,-24.347347095180623,0.888162995852273,0.20411859606613642,0.595596299182817,0.5513854544481362,0.354247,0.346612,0.000668602,0.00215434,0.197105,1,0.130312,0.326354,0.473081,-0.110382,-0.380976,-0.258456,-0.329876,0.255332,0,0.991473,-0.044672,0.127551,-0.0526441,-0.111292,-0.135077,0.347302,-0.240219,0,0,0.944192,0.460312,0.0145781,0.0134304,-0.189908,0.19564,0.231389,0,0,0,0.740295,-0.353157,-0.226619,0.506708,-0.032327,0.362341,0,0,0,0,0.927422,-0.0873382,0.056659,-0.0976803,-0.436902,0,0,0,0,0,0.885046,-0.0431456,-0.443971,0.0993885,0,0,0,0,0,0,0.785535,-0.0819527,-0.372751,0,0,0,0,0,0,0,0.719635,-0.0620257,0,0,0,0,0,0,0,0,0.590522
0.01,3.5006281640060797,4.616910158941478,-2.4152457393181823,-2.4161508045454547,0.10977323325113636,0.9324154893181821,1.063118999147727,0.1450555363526671,-0.003463096745930568,-0.005103849733693182,0.7874570496261363,0.0226087771943125,0.020483510463498864,-0.6250050342902045,3.6175705408173298,3.014909604294319,3.6005415742965914,3.225737373748625,3.5549316449705683,3.2098573000758694,3.8081615348880113,2.8273477422982944,4.438607697128579,4.383861139133068,4.798328060631818,5.121469427875,4.832017916311797,4.867218422115283,4.10362746892824,0.6645628405340909,0.6318424027784094,1.077434096889148,0.855605924694091,1.017721002953977,1.1229744415494887,0.9115994137531819,-0.004072763055416478,-0.0032504048104453976,-0.0066100021405795465,-0.009099520787045455,-0.006579558812638067,-0.004146247656829374,-0.004974368541526705,-0.007750884632100567,-0.005239117368104601,-0.00024350066932369321,-0.0021482363989772726,-0.0033456434639842127,-0.0032523726731108183,-0.007354693662121077,-0.012301678623087502,-0.004741268714314774,-0.005340103419773125,-0.005304977599624999,-0.003933916349487046,-0.003535588418188127,-0.0052175624334164766,-0.0027445576966308514,-0.0065837260879154725,-0.006903929135456251,-0.007807950808279546,-0.006534142684511931,-0.007814283730671818,-0.005494862331822728,-0.0031550430397045454,-0.0042083579989909085,-0.0009734931144171018,-0.003295534033035227,-0.002537695564167387,-0.0024478921309515913,-0.0032155427203674754,0.00023099999500965994,-0.0023118065729528423,-0.003414232799494659,-0.008562059089675,-0.007350912891872102,-0.006302064528814375,-0.0051683488304715905,13.172036612551343,-17.284747095180627,0.898606995852273,0.1959965960661364,0.6080342991828169,0.4997934544481362,0.369883,0.496098,0.000853376,0.00249279,0.158181,1,0.0850976,-0.176757,-0.220754,0.300556,0.181527,-0.0381825,-0.315751,-0.151551,0,0.996373,0.103815,-0.264745,0.483263,-0.119682,0.109554,0.132806,-0.395198,0,0,0.978764,-0.399069,0.525237,0.0929758,-0.255611,0.64618,-0.233206,0,0,0,0.84966,-0.169918,0.338036,-0.186433,0.288838,0.365164,0,0,0,0,0.609406,0.414933,-0.100039,0.246184,0.44516,0,0,0,0,0,0.810951,0.135401,-0.228738,-0.519487,0,0,0,0,0,0,0.926339,0.1349,0.191358,0,0,0,0,0,0,0,0.500562,-0.0972159,0,0,0,0,0,0,0,0,0.344989
0.01,3.7455281640060796,4.823600158941478,-2.4911557393181822,-2.4551308045454547,0.10388423325113637,0.9975964893181821,1.130158999147727,0.1516025363526671,-0.002690986745930568,-0.004207029733693182,0.7499690496261362,0.025689777194312497,0.026488210463498862,-0.5368250342902045,3.9505405408173297,3.382679604294319,3.6046115742965914,3.831257373748625,3.9438816449705687,3.7374473000758694,4.185581534888012,3.2675977422982942,4.595567697128579,4.6028611391330685,4.9387380606318185,5.397809427875,5.081587916311797,4.999528422115284,4.672237468928239,0.4625108405340909,0.6695544027784094,1.183574096889148,0.869314924694091,1.0293010029539769,1.1455344415494888,0.904981413753182,-0.003969663055416478,-0.006115864810445398,-0.006831062140579547,-0.008778060787045454,-0.005573398812638067,-0.003833187656829375,0.00004025474847329478,-0.0058613246321005666,-0.0096401073681046,0.0002565863306763068,-0.0019364663989772726,-0.0027956534639842125,-0.0023103826731108185,-0.007887813662121077,-0.0005482286230875013,-0.00019084271431477366,-0.007680863419773125,-0.005353097599624998,-0.006606516349487046,-0.008160248418188128,-0.0017530224334164762,-0.0033567576966308512,-0.002872896087915472,-0.007245959135456251,-0.010720560808279544,-0.007194522684511932,-0.007261873730671818,-0.005243592331822727,-0.0024500230397045456,-0.0036690479989909086,-0.0005838131144171019,-0.002705924033035227,-0.0013405055641673867,-0.0019092321309515914,-0.0030837927203674754,-0.0053031840049903405,-0.007304136572952842,-0.0067699927994946596,-0.007957289089675001,-0.008542882891872102,-0.006514064528814375,-0.00662786883047159,15.375636612551343,-25.039247095180627,0.917941995852273,0.19518559606613642,0.593156299182817,0.5151174544481363,0.356848,0.362924,0.0010415,0.00304534,0.269437,1,0.570962,0.00532893,-0.658091,-0.00954764,-0.192672,0.101687,-0.134309,0.0691706,0,0.820977,-0.173548,0.195684,0.178765,-0.220214,0.137827,0.191252,-0.0814677,0,0,0.984811,-0.0167527,0.120088,-0.225633,-0.31102,0.233967,-0.141759,0,0,0,0.726873,-0.386074,0.248844,0.348745,-0.504076,0.326989,0,0,0,0,0.896927,-0.594452,-0.343515,0.359579,0.32218,0,0,0,0,0,0.66946,0.235425,-0.0184483,0.0929503,0,0,0,0,0,0,0.760841,0.0868844,0.433259,0,0,0,0,0,0,0,0.706657,-0.053642,0,0,0,0,0,0,0,0,0.747349
0.01,3.98290816400608,5.114350158941478,-2.531615739318182,-2.5168908045454548,0.10938823325113636,0.8933214893181821,1.108868999147727,0.09614553635266711,-0.0022894767459305677,-0.005077029733693182,0.9501120496261363,0.022129477194312498,0.028766910463498864,-0.5673640342902045,4.19437054081733,3.7612196042943187,3.9528215742965913,3.7932673737486247,4.017921644970568,4.199067300075869,4.358611534888011,3.5912477422982945,5.055637697128579,5.067941139133068,5.3009980606318186,5.461649427875,5.302307916311797,5.308698422115284,4.865367468928239,0.49962584053409087,0.6125514027784094,1.212834096889148,0.8574229246940911,1.0343710029539768,1.0969944415494888,0.902236413753182,-0.005362033055416478,-0.0027381348104453976,-0.006390552140579547,-0.008334660787045454,-0.005917398812638067,-0.0028164676568293748,-0.008023808541526706,-0.0036962246321005665,-0.0030519473681046012,0.0000874713306763068,-0.0018586363989772728,-0.008087273463984213,-0.0038213426731108185,-0.006119713662121077,-0.006146268623087502,-0.0032687087143147735,-0.006301023419773125,-0.005188337599624998,-0.006072466349487046,-0.004946738418188127,-0.007313352433416476,-0.0008518776966308513,-0.005765506087915472,-0.0016572191354562505,-0.002361950808279546,-0.007953152684511931,-0.006686703730671818,-0.0033192223318227274,-0.0027410330397045456,-0.003570927998990909,-0.0010505131144171018,-0.002521584033035227,-0.0015409055641673868,-0.0019858421309515914,-0.0027017327203674754,-0.00883667400499034,-0.007803946572952842,-0.006643012799494659,-0.008255369089675,-0.0026360328918721013,-0.004070514528814375,-0.00657865883047159,16.269736612551345,-29.03434709518062,0.9092719958522729,0.19413159606613642,0.594792299182817,0.48348645444813626,0.185514,0.248101,0.000735613,0.00272964,0.152062,1,0.55157,0.232816,-0.316146,-0.102115,0.219684,-0.0174192,0.234932,-0.148529,0,0.834129,0.108403,-0.465891,0.266517,0.165735,-0.226933,0.12887,-0.24548,0,0,0.96646,-0.224137,0.144117,0.0409545,0.139514,0.461844,0.0286103,0,0,0,0.795462,0.38466,-0.253167,-0.220572,-0.109495,0.222996,0,0,0,0,0.865915,0.520536,0.517716,-0.247351,-0.313544,0,0,0,0,0,0.766514,-0.327559,-0.270091,-0.14912,0,0,0,0,0,0,0.710463,0.349277,-0.34032,0,0,0,0,0,0,0,0.668419,0.367515,0,0,0,0,0,0,0,0,0.704061
0.01,2.9346981640060794,3.8649401589414776,-2.318465739318182,-2.2934508045454547,0.10842923325113636,0.9370144893181821,1.007678999147727,0.059415936352667106,-0.002988576745930568,-0.0056199497336931825,0.7612260496261363,0.024537177194312497,0.023588510463498864,-0.6646650342902045,2.5699805408173297,2.3114496042943187,2.647081574296591,3.111317373748625,3.157651644970568,3.149687300075869,3.3021615348880116,2.8883677422982945,3.396097697128579,3.3086311391330683,4.275988060631818,4.388549427875,4.063227916311797,4.402018422115284,3.5607574689282395,0.515423840534091,0.6199654027784094,1.181534096889148,0.847791924694091,1.0308810029539768,1.2085044415494888,0.896769413753182,-0.007071343055416478,-0.005370804810445397,-0.008252762140579547,-0.008876900787045455,-0.004612598812638067,-0.0039822176568293744,-0.004404218541526705,-0.004917934632100567,-0.006707477368104601,0.00027737133067630676,-0.002287756398977273,-0.005921363463984213,-0.0026718126731108184,-0.005964373662121078,-0.008237128623087502,-0.010692608714314773,-0.002206003419773125,-0.0057879975996249985,-0.006899466349487046,-0.004040558418188127,-0.008092882433416475,-0.005098747696630851,-0.004448956087915472,-0.006321819135456251,-0.005296500808279546,-0.0037675726845119314,-0.007528013730671818,-0.006261342331822728,-0.0030434130397045457,-0.0044325079989909096,-0.0014909631144171018,-0.003247684033035227,-0.002583105564167387,-0.0025999321309515913,-0.004101262720367475,-0.0042865340049903404,-0.0038575965729528423,-0.01120451279949466,-0.008958899089675001,-0.0031346228918721014,-0.006296794528814375,-0.00579286883047159,17.554936612551344,-17.301747095180623,0.8734269958522729,0.1973915960661364,0.604226299182817,0.4516984544481362,0.236331,0.356131,0.000666111,0.00195626,0.218625,1,0.0351228,0.220423,0.436452,0.216448,0.472557,0.31674,0.179247,-0.460633,0,0.999383,0.289585,-0.501701,0.273038,-0.0465084,-0.192937,0.213289,0.0474696,0,0,0.931426,0.157552,0.25223,0.154501,0.0151566,0.447742,-0.06591,0,0,0,0.730057,-0.474585,-0.010809,0.0334141,0.258817,0.533129,0,0,0,0,0.767951,0.278996,-0.529065,0.138133,-0.120968,0,0,0,0,0,0.820184,-0.417818,0.455426,-0.194493,0,0,0,0,0,0,0.63767,0.387159,-0.23538,0,0,0,0,0,0,0,0.527763,0.20002,0,0,0,0,0,0,0,0,0.590864
0.01,3.4889281640060794,4.8767901589414775,-2.456495739318182,-2.445060804545455,0.10080723325113637,0.9409254893181821,0.986625999147727,0.06340483635266711,-0.0022650067459305677,-0.004813859733693182,0.9376530496261363,0.0228058771943125,0.015692010463498864,-0.5230610342902045,3.36446054081733,3.4426096042943186,3.4769815742965915,3.920187373748625,3.9800616449705686,4.289747300075869,4.208001534888011,3.3834377422982946,4.579967697128579,4.432641139133068,5.013878060631818,5.257419427875,4.5864579163117964,5.135838422115284,4.202127468928239,0.5587318405340909,0.6497994027784094,1.026344096889148,0.868852924694091,1.0014410029539769,1.1712444415494887,0.936123413753182,-0.008517453055416478,-0.006942144810445397,-0.006236482140579547,-0.008440230787045455,-0.006755268812638067,-0.002936057656829375,-0.005341158541526705,-0.004901874632100567,-0.006701107368104601,-0.0013748336693236933,-0.0020053163989772727,-0.005493273463984213,-0.0026329426731108185,-0.008547803662121076,-0.0031153386230875013,-0.005296918714314773,-0.005727843419773125,-0.005444577599624999,-0.006730306349487046,-0.0045215684181881275,-0.0070614524334164765,-0.0013702476966308513,-0.004559946087915472,-0.004599819135456251,-0.004801150808279546,-0.007169212684511932,-0.006475843730671818,-0.007137522331822728,-0.0028088030397045455,-0.0035751879989909087,-0.002269583114417102,-0.002642624033035227,-0.0017152255641673868,-0.0019000321309515914,-0.0025967427203674753,-0.00437408400499034,-0.005640396572952842,-0.005037882799494659,-0.008129619089675001,-0.0070062428918721015,-0.005357854528814375,-0.0023410888304715902,16.027036612551342,-5.506447095180624,0.9046999958522729,0.19790759606613642,0.602183299182817,0.5285064544481363,0.499136,0.268588,0.000603936,0.00170019,0.138987,1,-0.122576,0.197737,-0.42287,0.46752,-0.467683,-0.452064,0.175651,0.194134,0,0.992459,0.135571,0.356513,0.414398,0.13531,0.0504746,0.324192,-0.371607,0,0,0.970835,0.217115,0.134412,-0.0342432,-0.204976,-0.340578,0.287652,0,0,0,0.804326,0.00947223,0.198113,-0.314609,0.343832,-0.12417,0,0,0,0,0.769118,-0.153978,0.142162,0.00630524,-0.110346,0,0,0,0,0,0.835962,0.536798,-0.413162,0.250542,0,0,0,0,0,0,0.586289,-0.0359391,0.0728505,0,0,0,0,0,0,0,0.676608,0.0333055,0,0,0,0,0,0,0,0,0.802929
0.01,3.5235481640060797,4.424380158941478,-2.478975739318182,-2.419960804545455,0.10284523325113637,0.940336489318182,0.974483999147727,0.1289815363526671,-0.002806946745930568,-0.005333499733693182,0.8343640496261362,0.020869977194312498,0.014104510463498863,-0.5230820342902045,3.2654105408173297,3.3795896042943188,3.7681315742965915,3.7769473737486248,4.124171644970568,4.379977300075869,4.225161534888011,3.7235677422982945,4.217607697128579,4.018201139133068,4.806118060631818,5.049269427875,4.538487916311796,4.908968422115284,4.0591974689282395,0.5701458405340909,0.6012574027784093,1.2143740968891479,0.8711709246940911,1.0214310029539768,1.1114344415494888,0.9251664137531819,-0.004315793055416478,-0.009246664810445396,-0.005798782140579547,-0.008740430787045455,-0.008051188812638067,-0.004218487656829375,-0.0043721685415267055,-0.008031554632100566,-0.009051467368104603,-0.0016450136693236931,-0.002160896398977273,-0.004809903463984213,-0.0024295726731108185,-0.005832773662121078,-0.003520658623087501,-0.006409428714314774,-0.006048433419773125,-0.005544357599624999,-0.005933876349487046,-0.004801698418188127,-0.005799932433416476,-0.0065541776966308515,-0.0009610360879154722,-0.00790338913545625,-0.004260970808279546,-0.007552592684511932,-0.007024813730671818,-0.005381552331822728,-0.0027314330397045453,-0.003781657998990909,-0.0015532531144171018,-0.002766904033035227,-0.0021778555641673867,-0.0017604321309515913,-0.002770632720367475,-0.00616652400499034,-0.005400596572952842,-0.006395542799494659,-0.008070659089675001,-0.0034538428918721013,-0.0039036845288143744,-0.00751334883047159,14.485136612551344,-0.3548130951806243,0.9127589958522729,0.2016455960661364,0.595634299182817,0.4810294544481362,0.453599,0.2811,0.000536074,0.00213012,0.182896,1,0.262935,0.282843,-0.433773,0.326377,0.364059,-0.0415937,0.150307,-0.17498,0,0.964813,0.0367218,-0.0874841,0.223905,0.375494,-0.0387222,0.255787,-0.331142,0,0,0.958463,0.0597527,0.107284,0.168947,-0.224264,0.569261,0.314799,0,0,0,0.894772,-0.036379,0.183902,-0.420929,0.109376,-0.024867,0,0,0,0,0.911324,-0.210774,0.22184,-0.0662068,-0.0778554,0,0,0,0,0,0.787195,0.394108,-0.269487,-0.36365,0,0,0,0,0,0,0.751505,-0.450722,0.00530997,0,0,0,0,0,0,0,0.543877,0.341518,0,0,0,0,0,0,0,0,0.710665
0.01,3.7563981640060797,4.842950158941478,-2.510195739318182,-2.530760804545455,0.11504123325113637,0.8744884893181821,0.978139999147727,0.1365425363526671,-0.0027889067459305676,-0.0050599997336931825,0.9370200496261363,0.0188511771943125,0.022690810463498863,-0.6118370342902045,3.7749005408173297,3.283619604294319,3.5320015742965913,3.644187373748625,3.917971644970568,3.8656673000758692,4.044341534888012,3.3676177422982945,4.615337697128579,4.958171139133068,5.416128060631818,5.3380194278749995,5.017017916311796,4.979488422115284,4.44007746892824,0.605640840534091,0.6575694027784094,1.0686640968891479,0.8733479246940911,1.092831002953977,1.1174544415494887,0.911262413753182,-0.005337453055416478,-0.005484184810445398,-0.006455792140579546,-0.008638840787045455,-0.005566688812638067,-0.003259997656829375,-0.004050348541526705,-0.008091034632100567,-0.005138397368104601,-0.0007386326693236932,-0.0017385663989772726,-0.003166333463984213,-0.0026145726731108183,-0.005057123662121078,0.0004777713769124987,-0.0042231487143147735,-0.0068184634197731245,-0.005188547599624999,-0.006398396349487046,-0.007173668418188127,-0.0031471424334164762,-0.00828328769663085,-0.004288086087915472,-0.00531572913545625,-0.006359570808279546,-0.004849882684511931,-0.006383733730671818,-0.0022074423318227277,-0.0026953230397045455,-0.003483667998990909,-0.0019742631144171016,-0.002744694033035227,-0.0025253055641673867,-0.0020734821309515913,-0.003052942720367475,-0.00172787400499034,-0.004585326572952842,-0.006512622799494659,-0.008185819089675,-0.007952702891872103,-0.008119124528814376,-0.0034024788304715904,11.150336612551344,-14.304247095180624,0.896458995852273,0.1966035960661364,0.598597299182817,0.5059704544481363,0.203512,0.367985,0.000537924,0.00234427,0.146928,1,-0.0444525,0.371997,0.289706,0.0403158,-0.485219,-0.181244,0.189533,-0.0471753,0,0.999011,-0.222294,-0.253328,0.547119,-0.318225,0.119356,-0.114795,-0.375716,0,0,0.901223,0.289677,0.280839,-0.150574,0.568026,0.0697167,-0.23716,0,0,0,0.876346,-0.0239846,-0.10076,0.00627899,-0.0595309,-0.0287028,0,0,0,0,0.78714,0.0971691,-0.0283382,0.326145,-0.0377426,0,0,0,0,0,0.788054,-0.260473,0.155552,0.437752,0,0,0,0,0,0,0.749375,-0.441599,-0.0742817,0,0,0,0,0,0,0,0.785441,0.472335,0,0,0,0,0,0,0,0,0.614714
0.01,3.9021181640060796,4.671830158941478,-2.5042457393181823,-2.424090804545455,0.10972823325113637,0.8913934893181821,0.998466999147727,0.1420535363526671,-0.002693916745930568,-0.006046059733693182,0.9563310496261362,0.0188216771943125,0.02349671046349886,-0.5668040342902045,3.73825054081733,3.526799604294319,3.8407015742965913,4.066717373748625,4.006281644970568,3.9321773000758693,4.230841534888011,3.5399277422982944,4.379227697128579,5.012691139133068,5.0410980606318185,5.058469427875,4.554567916311797,4.622728422115284,4.10118746892824,0.5268268405340909,0.7802624027784094,1.327394096889148,0.870354924694091,0.9154710029539769,1.1879144415494887,0.920466413753182,-0.012020463055416479,-0.007738624810445398,-0.005644842140579547,-0.008752880787045454,-0.004869578812638067,-0.0033034076568293747,-0.0032963785415267054,-0.005053154632100566,-0.0135763573681046,-0.0012161436693236933,-0.002015506398977273,-0.006466753463984213,-0.0029142426731108184,-0.005488693662121078,-0.004378948623087501,-0.009177458714314773,-0.005202503419773125,-0.005838667599624999,-0.007539876349487046,-0.001879478418188127,-0.0055813724334164766,-0.009227997696630852,-0.0054055360879154725,-0.006680039135456251,-0.006768640808279546,-0.0072412726845119315,-0.006550353730671818,-0.008763682331822727,-0.0030076330397045456,-0.004036487998990909,-0.0017177231144171019,-0.002865704033035227,-0.001969685564167387,-0.0020208921309515914,-0.0029367327203674754,-0.00686534400499034,-0.007154456572952842,-0.007786802799494659,-0.008619899089675,-0.007401932891872101,-0.003367234528814375,-0.009001788830471591,15.019136612551343,-13.882047095180624,0.886760995852273,0.2013565960661364,0.5998612991828169,0.46933545444813624,0.204891,0.273676,0.000429321,0.00267665,0.226963,1,0.412999,0.166955,0.193166,-0.0260887,0.305196,0.179424,0.0425834,0.156043,0,0.910731,0.0165903,-0.599221,0.108537,-0.363214,0.0333454,0.0971273,0.203016,0,0,0.985825,0.290613,-0.000844945,-0.0522992,0.508045,0.356284,0.0924158,0,0,0,0.720531,-0.309935,0.0124558,-0.221477,-0.140903,0.25048,0,0,0,0,0.944181,0.532478,-0.456873,0.295711,-0.117599,0,0,0,0,0,0.698933,-0.0931593,-0.422385,0.658185,0,0,0,0,0,0,0.664923,-0.456037,0.0735764,0,0,0,0,0,0,0,0.606743,0.340644,0,0,0,0,0,0,0,0,0.54283
0.01,3.6433981640060797,4.892520158941478,-2.425905739318182,-2.429740804545455,0.10447623325113636,0.9596204893181821,1.065738999147727,0.01916063635266711,-0.002961716745930568,-0.006684589733693182,0.9438440496261362,0.0238177771943125,0.024383710463498864,-0.5769850342902045,3.84923054081733,3.4204596042943187,3.5404615742965913,3.904697373748625,3.6618816449705682,3.7671573000758696,3.8690515348880115,3.4154677422982944,4.576257697128579,4.928371139133068,5.485668060631818,5.2318594278749995,4.927827916311797,4.805618422115284,4.288907468928239,0.711733840534091,0.6940854027784094,1.463234096889148,0.868115924694091,1.0835510029539768,1.1592344415494888,0.8937814137531819,-0.006725273055416478,-0.006928114810445397,-0.006890542140579547,-0.008586830787045455,-0.002045378812638067,-0.003718657656829375,-0.002338258541526705,-0.005559724632100567,-0.010886257368104602,-0.0011701036693236933,-0.0020140863989772727,-0.006096133463984213,-0.0025543726731108185,-0.008338993662121076,-0.004842168623087502,-0.008287388714314774,-0.005103743419773125,-0.005752627599624999,-0.007059386349487046,-0.002853318418188127,-0.008533362433416476,-0.009567967696630852,-0.007706936087915473,-0.00729162913545625,-0.008507770808279545,-0.008054652684511932,-0.006919023730671818,-0.005571422331822728,-0.0030529430397045454,-0.003702067998990909,-0.0018842231144171016,-0.002756784033035227,-0.0024298655641673867,-0.0021814721309515914,-0.0029332227203674754,-0.00581560400499034,-0.005286176572952842,-0.01005391279949466,-0.008391939089675001,-0.007252132891872101,-0.003361254528814375,-0.007435468830471591,13.238436612551343,-12.892447095180625,0.8887049958522729,0.1938605960661364,0.598531299182817,0.4794484544481362,0.107116,0.282075,0.000464071,0.00235813,0.203547,1,0.550058,0.141222,0.0282068,0.216967,0.360223,0.00909727,-0.0538914,0.337655,0,0.835127,-0.0658175,-0.51537,-0.211318,-0.275542,-0.206182,-0.207816,-0.0219251,0,0,0.987788,0.292168,-0.13551,0.141609,0.420614,0.279597,0.162927,0,0,0,0.805131,0.102075,-0.154818,-0.198455,0.279129,0.216887,0,0,0,0,0.93781,0.333072,-0.38081,0.559652,-0.265148,0,0,0,0,0,0.799598,-0.383808,-0.302416,0.578492,0,0,0,0,0,0,0.669911,-0.510315,0.402134,0,0,0,0,0,0,0,0.364326,0.341006,0,0,0,0,0,0,0,0,0.359123
0.01,3.2054381640060794,4.538260158941478,-2.338255739318182,-2.347170804545455,0.10319123325113637,0.9616894893181821,1.113738999147727,0.2853445363526671,-0.002830976745930568,-0.005809499733693182,0.9477240496261362,0.014455077194312499,0.02555251046349886,-0.6352540342902044,3.1531605408173298,3.0560996042943187,3.0128515742965916,3.2102973737486247,3.4803716449705684,3.4143173000758695,3.5489115348880116,2.6594977422982944,4.121267697128579,3.736951139133068,4.711488060631818,4.746159427875,4.751427916311797,4.374728422115283,4.003607468928239,0.5081968405340909,0.6205694027784093,0.960753096889148,0.8809159246940911,1.058801002953977,1.1172444415494887,0.9306494137531819,-0.007298643055416478,-0.007372314810445398,-0.006824952140579547,-0.008799690787045454,-0.005145428812638068,-0.003506087656829375,-0.0074415485415267055,-0.009145704632100567,-0.0053515373681046014,-0.0009465836693236932,-0.0020882963989772726,-0.008514363463984213,-0.0028887526731108185,-0.005996653662121078,-0.007114398623087501,-0.005541638714314774,-0.008739893419773125,-0.005332717599624999,-0.005794286349487046,-0.009476828418188126,-0.0027170224334164762,-0.01052221769663085,-0.002868776087915472,-0.008689759135456252,-0.0040263208082795465,-0.005404212684511932,-0.007201513730671818,-0.007268522331822728,-0.0031956330397045454,-0.003773797998990909,-0.0021170931144171017,-0.003140344033035227,-0.0024694455641673867,-0.0021570121309515914,-0.0034189627203674755,-0.00110356400499034,-0.0043964265729528424,-0.002551952799494659,-0.008535059089675001,-0.008079792891872103,-0.006032534528814375,-0.0017540088304715904,18.696836612551344,-15.403547095180624,0.8899789958522729,0.19557559606613642,0.597454299182817,0.49589445444813623,0.258943,0.629432,0.000528692,0.00205981,0.140637,1,0.475505,0.263807,-0.175858,0.176991,-0.442131,-0.0541541,0.36691,-0.575968,0,0.879713,0.0275565,0.123712,0.182025,-0.00407954,-0.0297827,0.0695942,-0.0992377,0,0,0.964182,0.106889,0.206634,-0.110841,0.053576,0.183171,-0.109823,0,0,0,0.970744,-0.104645,-0.391533,0.200832,-0.00848413,-0.134309,0,0,0,0,0.939092,-0.375086,-0.0234467,0.115761,0.199784,0,0,0,0,0,0.705854,0.470669,0.040472,-0.587879,0,0,0,0,0,0,0.854925,-0.374758,-0.342907,0,0,0,0,0,0,0,0.819407,0.0911023,0,0,0,0,0,0,0,0,0.341924
0.01,3.6875781640060796,4.7575601589414775,-2.5102057393181822,-2.4907908045454548,0.10686623325113637,0.9514114893181821,1.071808999147727,0.007279056352667108,-0.002463676745930568,-0.005130859733693182,0.8681820496261362,0.0178483771943125,0.024585410463498863,-0.5555240342902045,3.84633054081733,3.3629796042943187,3.4282715742965912,3.738547373748625,4.158781644970568,4.035827300075869,4.234251534888012,3.5881577422982947,4.593637697128579,4.691001139133068,5.284348060631818,5.194909427874999,5.160697916311797,5.258998422115284,4.355097468928239,0.636025840534091,0.6082484027784094,1.488384096889148,0.881982924694091,1.0326110029539768,1.1912444415494887,0.9155384137531819,-0.004917193055416478,-0.005076384810445397,-0.0053563021405795466,-0.008389840787045454,-0.005081518812638067,-0.0038214476568293747,-0.005896208541526705,-0.006985104632100566,-0.007992987368104602,-0.001274743669323693,-0.0018231863989772727,-0.0018501034639842127,-0.0022942326731108186,-0.0033709736621210773,-0.0025854186230875012,-0.005619598714314774,-0.004284693419773125,-0.005196967599624998,-0.003798806349487046,-0.004773808418188127,-0.005187032433416477,-0.005742227696630851,-0.002979786087915472,-0.0062403491354562505,-0.006164620808279546,-0.004681652684511931,-0.006777993730671818,-0.005829902331822728,-0.0026392030397045453,-0.0034955179989909087,-0.001378293114417102,-0.002506184033035227,-0.0016294255641673867,-0.0018527621309515914,-0.0025860627203674754,-0.00420750400499034,-0.0056378465729528425,-0.003559692799494659,-0.007806529089675001,-0.004496022891872101,-0.002600254528814375,-0.006587778830471591,10.598336612551343,-14.120547095180624,0.910196995852273,0.19460459606613642,0.596908299182817,0.48940445444813624,0.268261,0.322741,0.000507511,0.0020991,0.225129,1,0.602367,-0.079934,0.168451,0.441461,0.405429,-0.250486,-0.0175185,0.341684,0,0.79822,0.181115,-0.431189,-0.122009,0.107862,0.134706,0.0780048,0.19219,0,0,0.980208,0.132435,0.492318,-0.0237149,-0.496524,0.413419,0.223608,0,0,0,0.876448,-0.258099,0.235144,0.0656355,-0.274383,0.501398,0,0,0,0,0.69371,0.38532,0.182327,0.26659,-0.452133,0,0,0,0,0,0.787189,-0.383198,-0.338818,0.437214,0,0,0,0,0,0,0.698701,-0.0541064,-0.0393678,0,0,0,0,0,0,0,0.747403,0.0653346,0,0,0,0,0,0,0,0,0.378835
0.01,3.62089816400608,4.593090158941478,-2.449485739318182,-2.421490804545455,0.10350823325113637,0.935429489318182,1.029618999147727,0.2911725363526671,-0.002703486745930568,-0.004379459733693182,0.8450640496261362,0.0211102771943125,0.018549510463498863,-0.5685280342902045,3.26875054081733,3.300849604294319,3.3969815742965914,3.431507373748625,3.9579416449705684,3.522727300075869,4.057591534888012,3.2691977422982945,4.3130576971285794,4.605041139133068,4.732558060631818,4.962299427875,4.683267916311797,4.767338422115284,4.15840746892824,0.4846548405340909,0.7226634027784093,1.063554096889148,0.880801924694091,0.9470190029539769,1.1254444415494886,0.927076413753182,-0.005131063055416478,-0.004096134810445398,-0.0057472821405795465,-0.008695910787045454,-0.0030695188126380673,-0.003458767656829375,-0.004423558541526706,-0.008231754632100567,-0.004053277368104602,-0.0011065536693236932,-0.0019967263989772725,-0.0010501734639842128,-0.0024139926731108186,-0.0068778136621210776,-0.0010401286230875013,-0.004153878714314774,-0.001311283419773125,-0.005690947599624999,-0.004799986349487046,-0.007188768418188127,-0.0036712224334164763,-0.0008962876966308513,-0.004587916087915472,-0.008131999135456251,-0.005292410808279546,-0.006660152684511931,-0.006547993730671818,-0.0022406823318227276,-0.0028436430397045455,-0.0038825479989909087,-0.0016959231144171019,-0.002741514033035227,-0.0019123055641673868,-0.0020691421309515915,-0.0030655927203674755,-0.00215162400499034,-0.0018219665729528425,-0.006973522799494659,-0.008734589089675001,-0.004879942891872101,-0.0067377545288143745,-0.0030666488304715903,17.577236612551342,-8.984057095180624,0.9130709958522729,0.1971145960661364,0.603603299182817,0.4903284544481362,0.220691,0.23626,0.00062718,0.00216633,0.193012,1,0.339704,0.167024,-0.396846,-0.154796,-0.572319,0.26113,0.302746,-0.701316,0,0.940532,0.00694,0.254123,0.595733,0.275003,-0.444649,-0.113625,-0.399612,0,0,0.985928,0.10284,0.2392,0.0432949,-0.354389,0.20992,-0.222647,0,0,0,0.87599,0.0102853,-0.129011,-0.231411,0.0638607,0.304598,0,0,0,0,0.750878,-0.441225,-0.222411,0.129901,0.14149,0,0,0,0,0,0.619376,-0.0519504,0.483402,0.0612897,0,0,0,0,0,0,0.709077,0.108639,0.0443156,0,0,0,0,0,0,0,0.76481,-0.018395,0,0,0,0,0,0,0,0,0.424307
0.01,3.7275581640060795,4.573070158941477,-2.405445739318182,-2.3523008045454548,0.09775783325113636,1.038323489318182,1.048348999147727,0.18414953635266712,-0.0030850867459305677,-0.005597119733693182,0.8850870496261363,0.0275571771943125,0.019906610463498862,-0.6063600342902045,3.57943054081733,2.938809604294319,4.0921615742965916,3.7997173737486247,3.728091644970568,4.54308730007587,3.9004715348880112,3.5138677422982942,4.274327697128579,4.071591139133068,5.097618060631818,5.122089427874999,4.475917916311797,4.974048422115284,4.16333746892824,0.4006228405340909,0.5978644027784094,1.192134096889148,0.858910924694091,0.9496430029539769,1.1926844415494888,0.9195264137531819,-0.010040463055416476,-0.008432314810445398,-0.004808732140579547,-0.008763370787045454,-0.0077274588126380675,-0.003744227656829375,-0.004828188541526705,-0.010127654632100566,-0.010043857368104602,-0.0006744726693236932,-0.0021477063989772728,-0.0024504234639842128,-0.0025777926731108186,-0.007312123662121078,-0.008669628623087502,-0.004399658714314774,-0.006041493419773125,-0.005241087599624998,-0.008287076349487048,-0.007745508418188127,-0.006387672433416476,-0.004603147696630851,-0.006083336087915472,-0.00642192913545625,-0.007531090808279546,-0.008798932684511932,-0.007198503730671818,-0.0038568123318227275,-0.0030539930397045453,-0.004246807998990909,-0.0011564531144171019,-0.003088874033035227,-0.002338485564167387,-0.0018642321309515913,-0.0030002527203674754,-0.00315661400499034,-0.0022443765729528425,-0.009143012799494659,-0.008637059089675,-0.007351232891872101,-0.005701804528814375,-0.00294953883047159,10.902236612551343,-18.487247095180628,0.9163059958522729,0.2033205960661364,0.598493299182817,0.5274064544481363,0.323738,0.485294,0.000798954,0.00214089,0.175659,1,0.187229,0.218318,-0.0333489,-0.00453747,0.0382427,-0.334991,-0.0071042,-0.0394639,0,0.982316,0.351601,0.0336982,0.557632,0.0871533,-0.114751,0.491017,-0.132572,0,0,0.910337,0.532595,0.340532,0.128025,-0.0452952,0.177091,-0.121953,0,0,0,0.845042,-0.153686,-0.0601495,0.462539,-0.399553,-0.0365267,0,0,0,0,0.741245,-0.421638,-0.0670469,0.146854,-0.454332,0,0,0,0,0,0.890592,0.292473,-0.355539,-0.294738,0,0,0,0,0,0,0.754045,0.253075,0.234169,0,0,0,0,0,0,0,0.596512,0.24337,0,0,0,0,0,0,0,0,0.746531
0.01,3.8197981640060794,4.924330158941477,-2.461325739318182,-2.430200804545455,0.10341323325113637,0.7621134893181821,1.094118999147727,0.3004055363526671,-0.002858886745930568,-0.004287529733693183,0.8519110496261363,0.018110377194312497,0.024398510463498863,-0.5519610342902045,3.63142054081733,3.5305996042943186,3.4181515742965916,3.5449673737486247,4.206911644970568,3.4520973000758692,4.2858215348880115,3.2149877422982946,4.647907697128579,4.952321139133068,4.994468060631818,5.3263594278749995,4.946697916311797,4.825728422115284,4.50621746892824,0.49328084053409094,0.6102634027784094,1.237494096889148,0.890962924694091,1.024331002953977,1.1478444415494888,0.8465674137531819,-0.004615983055416478,-0.0038889148104453977,-0.007627862140579546,-0.008619120787045454,-0.006624328812638068,-0.003457097656829375,-0.0012494885415267052,-0.009822084632100568,-0.0033712073681046013,-0.0006663486693236932,-0.0019647763989772728,-0.0009975734639842127,-0.0025653426731108184,-0.005380323662121078,-0.005594588623087501,-0.0054316987143147736,-0.005774193419773125,-0.005436207599624998,-0.004522436349487046,-0.002183608418188127,-0.0014421224334164762,-0.006607417696630851,-0.003696316087915472,-0.0046702991354562505,-0.001618220808279546,-0.0024484526845119318,-0.006079183730671818,-0.0056117523318227275,-0.0028081230397045452,-0.003976347998990909,-0.001578313114417102,-0.002707464033035227,-0.002161835564167387,-0.0019688521309515913,-0.003305172720367475,-0.00514945400499034,-0.0024012465729528424,-0.007549872799494659,-0.008656419089675,-0.0055061828918721014,-0.0017898245288143746,-0.0015972788304715903,16.620036612551342,-19.872847095180624,0.937731995852273,0.18994159606613642,0.601334299182817,0.5244124544481362,0.46277,0.145469,0.000534617,0.00171743,0.191297,1,0.281748,0.361961,0.115375,0.0502788,0.102075,-0.306928,0.122608,0.139262,0,0.959489,-0.182715,-0.547308,0.314029,-0.464031,0.508384,0.110084,-0.412942,0,0,0.914111,-0.412359,0.57458,-0.0737556,0.0320512,0.393731,-0.359186,0,0,0,0.719099,0.228388,0.244674,0.346485,-0.407721,0.594227,0,0,0,0,0.718718,0.0863454,-0.0123636,-0.286353,0.162165,0,0,0,0,0,0.837553,-0.179779,0.243061,0.113757,0,0,0,0,0,0,0.702701,-0.156615,-0.11675,0,0,0,0,0,0,0,0.697125,0.0592562,0,0,0,0,0,0,0,0,0.521138
0.01,3.7105981640060794,4.3075101589414775,-2.405575739318182,-2.374080804545455,0.10580923325113636,0.7837924893181821,1.126038999147727,0.14903953635266712,-0.002822226745930568,-0.007938529733693182,0.8407210496261363,0.013323577194312498,0.010779510463498863,-0.5919920342902045,3.22010054081733,3.0059296042943187,3.6708915742965913,3.535107373748625,3.9873816449705686,4.060607300075869,4.091381534888011,3.0910577422982946,4.274427697128579,4.474561139133068,4.353138060631818,4.9095294278749995,4.2503779163117965,4.8416684221152835,4.193607468928239,0.601304840534091,0.6731214027784094,1.1302140968891479,0.870435924694091,1.0452010029539769,1.2823844415494887,0.861538413753182,-0.002631113055416478,-0.006852644810445397,-0.008357522140579547,-0.009172250787045455,-0.006837938812638067,-0.003354117656829375,-0.012791648541526705,-0.014259854632100565,-0.0154088573681046,0.0004101273306763068,-0.0022365963989772726,-0.007227093463984213,-0.0032591526731108184,-0.009629213662121078,-0.011869778623087501,-0.010676908714314773,-0.000592230419773125,-0.0055422075996249985,-0.003934926349487046,-0.005110348418188127,-0.0061287724334164765,-0.01389271769663085,-0.010577546087915472,-0.00629661913545625,-0.008082870808279546,-0.0028786826845119315,-0.006799613730671818,-0.008016162331822728,-0.0030395230397045453,-0.004083027998990909,-0.0009357731144171019,-0.003200344033035227,-0.0012420855641673868,-0.0020980521309515916,-0.0035076827203674756,-0.013645014004990338,-0.006211486572952843,-0.008759122799494659,-0.008778759089675,-0.008392022891872103,-0.004406274528814375,-0.0012450288304715904,16.465636612551343,-2.9602770951806243,0.884169995852273,0.2024225960661364,0.5993282991828169,0.5308374544481362,0.376233,0.322211,0.00075098,0.00304251,0.135882,1,0.455871,0.133236,0.110758,0.123176,0.10363,0.226703,0.0365758,-0.16229,0,0.890046,0.01621,0.0657327,0.0938156,0.436317,-0.427286,-0.220231,-0.112893,0,0,0.990952,0.301633,0.162719,0.445528,0.0445533,0.453169,0.279621,0,0,0,0.944685,-0.366833,-0.192753,-0.517213,-0.0841196,-0.590484,0,0,0,0,0.902764,0.0463462,-0.00700966,0.362976,-0.29249,0,0,0,0,0,0.74906,0.182562,0.443418,-0.333909,0,0,0,0,0,0,0.680559,0.242737,-0.0621438,0,0,0,0,0,0,0,0.591971,-0.292562,0,0,0,0,0,0,0,0,0.497551
0.01,3.7700481640060794,4.382150158941478,-2.290725739318182,-2.2622808045454548,0.09092203325113636,0.8711024893181821,1.148208999147727,0.006403316352667108,-0.0025979967459305677,-0.004648489733693182,0.9128440496261362,0.015001177194312498,0.012402410463498863,-0.6239150342902045,3.0241605408173298,2.933379604294319,3.0785115742965914,3.760837373748625,3.8402416449705683,3.9197173000758694,3.9481615348880115,3.0265077422982944,4.066207697128579,4.034891139133068,4.226208060631818,4.6686794278749995,4.307887916311796,4.575658422115284,4.163987468928239,0.7398508405340909,0.5964094027784094,1.097724096889148,0.848822924694091,1.0350210029539768,1.0573144415494888,0.9194854137531819,-0.004829713055416478,-0.008123874810445398,-0.004843412140579546,-0.008954460787045454,-0.004754278812638067,-0.0034840876568293746,-0.0021137485415267054,-0.0028243646321005665,-0.005035817368104601,-0.002067803669323693,-0.0021470663989772727,-0.003894903463984213,-0.0033591426731108182,-0.0019727536621210774,-0.0023422386230875013,-0.0040683287143147735,-0.006920773419773125,-0.0056628375996249985,-0.008878306349487046,-0.004756938418188127,-0.006913322433416476,-0.0021767976966308514,-0.002369096087915472,-0.00659336913545625,-0.007749630808279545,-0.006036632684511932,-0.007187753730671818,-0.0024794123318227276,-0.0029160930397045455,-0.0042963879989909096,-0.002353063114417102,-0.003107234033035227,-0.002420925564167387,-0.0023091721309515915,-0.0035259627203674754,-0.00487045400499034,-0.004801046572952842,-0.003513432799494659,-0.008902299089675,-0.004038922891872102,-0.008312384528814373,-0.007435738830471591,4.4965666125513435,-16.581747095180624,0.915505995852273,0.2000345960661364,0.5975902991828169,0.4641784544481362,0.382231,0.23581,0.000645383,0.00214662,0.115669,1,0.641656,0.429471,-0.0515523,-0.284335,-0.169555,-0.413255,0.267865,-0.0679979,0,0.766993,0.00245447,-0.269158,0.282362,-0.107528,-0.224095,0.102425,-0.562118,0,0,0.903077,0.198324,0.574216,-0.458722,-0.477058,0.271366,-0.0246174,0,0,0,0.941044,0.00869984,0.372852,0.587564,0.250579,0.118408,0,0,0,0,0.713881,0.135403,-0.0630827,0.0338378,-0.0700906,0,0,0,0,0,0.769357,-0.0221697,0.678668,0.426005,0,0,0,0,0,0,0.449126,0.342114,0.36566,0,0,0,0,0,0,0,0.450056,0.403378,0,0,0,0,0,0,0,0,0.426567
0.01,3.8511481640060796,4.449500158941477,-2.485625739318182,-2.463040804545455,0.11486623325113636,0.855115489318182,1.073068999147727,0.2478025363526671,-0.003315666745930568,-0.0051917497336931824,0.9203760496261363,0.0175066771943125,0.017838210463498864,-0.5895010342902045,3.8220105408173297,3.3241996042943187,4.340971574296592,3.374917373748625,3.8298116449705684,4.288147300075869,4.015151534888011,3.4289277422982942,4.11154769712858,4.354451139133068,4.615318060631818,4.998559427875,4.740707916311797,4.588368422115284,4.23017746892824,0.664777840534091,0.8774594027784094,1.291744096889148,0.8641589246940911,1.105101002953977,1.2036444415494887,0.8906864137531819,-0.004503813055416478,-0.004279864810445398,-0.006582812140579547,-0.008508140787045454,-0.005178358812638067,-0.003674637656829375,-0.003408158541526705,-0.010700454632100568,-0.003328217368104601,0.0005237753306763068,-0.0019244163989772726,-0.005479353463984212,-0.0030111426731108185,-0.005784283662121078,-0.012930378623087501,-0.007166608714314774,-0.003846573419773125,-0.005787667599624999,-0.004587816349487046,-0.002057058418188127,-0.008185472433416476,-0.009409057696630852,-0.003541596087915472,-0.007083329135456251,-0.001701420808279546,-0.0038195026845119313,-0.006225273730671818,-0.009150112331822727,-0.0027993030397045456,-0.004036757998990909,-0.0006444741144171018,-0.002774194033035227,-0.0028605655641673867,-0.0019840221309515914,-0.0030733627203674754,-0.0008543410049903401,-0.006216996572952842,-0.00945095279949466,-0.008916719089675,-0.005223442891872101,-0.005279334528814374,-0.0016149688304715904,12.814736612551343,-16.195247095180626,0.877895995852273,0.20167859606613642,0.5974592991828169,0.48404945444813624,0.321747,0.281623,0.00103514,0.00268241,0.11897,1,0.0768956,-0.144394,0.0801795,-0.276637,0.101553,0.378266,-0.0357067,0.0507099,0,0.997039,-0.331108,0.0978319,-0.23927,0.0802046,-0.141412,0.0576922,-0.077871,0,0,0.932479,0.206961,0.0802581,0.337058,-0.149096,0.26419,-0.0927702,0,0,0,0.970138,-0.449181,-0.35544,-0.74389,0.0458736,0.430593,0,0,0,0,0.811182,-0.169856,0.266759,-0.19013,-0.410422,0,0,0,0,0,0.845256,0.149316,-0.476146,-0.203622,0,0,0,0,0,0,0.409707,-0.472874,-0.467728,0,0,0,0,0,0,0,0.661076,-0.416449,0,0,0,0,0,0,0,0,0.441861
0.01,4.071658164006079,4.617980158941478,-2.530835739318182,-2.483360804545455,0.10752823325113636,0.9841014893181821,1.085178999147727,0.02756653635266711,-0.0023434467459305676,-0.005503909733693182,0.8290120496261363,0.021236377194312497,0.018862010463498863,-0.5317580342902045,3.9337005408173296,3.8228496042943187,4.226021574296592,3.815117373748625,4.185541644970568,4.350087300075869,4.222111534888011,3.7450777422982946,4.541677697128579,4.298111139133068,4.821848060631818,5.193039427875,4.7309279163117965,4.889938422115284,4.45898746892824,0.6105008405340909,0.7068664027784094,1.048044096889148,0.871222924694091,0.9716730029539768,0.9769174415494888,0.8635784137531819,-0.007534523055416478,-0.0036865848104453976,-0.005606862140579547,-0.008804310787045454,-0.0014358088126380673,-0.003680347656829375,-0.009337118541526704,-0.008844944632100567,-0.008407017368104602,-0.0012582536693236932,-0.0018694463989772727,-0.006057743463984213,-0.0015943426731108185,-0.0023848636621210777,-0.005500358623087501,-0.0057052687143147734,-0.006501273419773125,-0.005291657599624999,-0.003480846349487046,-0.005306188418188127,-0.0025072724334164764,-0.0029074776966308514,-0.0022025560879154723,-0.009210399135456251,-0.0073542208082795464,-0.009670472684511933,-0.006367753730671818,-0.0037419123318227277,-0.0029220330397045453,-0.0036779979989909088,-0.0008933401144171019,-0.002568944033035227,-0.0013810755641673867,-0.0017321821309515914,-0.0028337627203674754,-0.00525167400499034,-0.0021889565729528424,-0.006123372799494659,-0.007544029089675001,-0.007792802891872101,-0.009837224528814376,-0.0044852788304715905,23.901436612551343,-18.292447095180627,0.909187995852273,0.1975615960661364,0.599276299182817,0.5096464544481363,0.204387,0.251998,0.000799049,0.00255712,0.098182,1,-0.185266,-0.400257,0.0779591,-0.29532,-0.355151,0.123685,-0.0632556,0.221526,0,0.982688,0.0623478,0.00252322,0.0700055,0.000160374,-0.579712,-0.185944,-0.484211,0,0,0.91428,0.269611,0.616532,-0.0918506,-0.288071,0.554128,-0.195196,0,0,0,0.959805,-0.404974,-0.188907,-0.214823,-0.342201,0.02461,0,0,0,0,0.603133,-0.209295,0.26092,-0.265086,0.0684601,0,0,0,0,0,0.886533,0.292102,-0.384064,-0.417292,0,0,0,0,0,0,0.605061,0.112484,-0.349433,0,0,0,0,0,0,0,0.553927,-0.309836,0,0,0,0,0,0,0,0,0.529942
0.01,3.1929481640060797,4.145220158941478,-2.346955739318182,-2.2896608045454547,0.10080123325113637,1.0952134893181822,1.077058999147727,0.11577453635266712,-0.003052406745930568,-0.005057419733693182,0.7992970496261362,0.0300627771943125,0.013938710463498863,-0.6064060342902045,2.72286054081733,2.889839604294319,3.2542415742965916,3.2399873737486247,3.4294516449705683,3.4578273000758695,3.5278715348880114,2.7764277422982944,3.653787697128579,3.951851139133068,4.409738060631818,4.510319427874999,4.408017916311796,4.541418422115283,3.7003874689282394,0.4149788405340909,0.6221294027784093,1.160894096889148,0.8777109246940911,1.1378810029539768,1.1596444415494886,0.928822413753182,-0.005347513055416478,-0.007996454810445398,-0.006680022140579547,-0.009154280787045454,-0.0024070288126380674,-0.004204397656829375,-0.0054925185415267055,-0.008344154632100566,-0.008244747368104603,-0.0006055036693236932,-0.002316296398977273,-0.0016653534639842127,-0.0033990526731108184,-0.009492183662121078,-0.006864618623087501,-0.0056040487143147735,-0.005343663419773125,-0.006031147599624999,-0.000040337349487046226,-0.0023653284181881272,-0.006970142433416477,-0.007588977696630851,-0.006269316087915472,-0.00452852913545625,-0.004640080808279546,-0.005875952684511932,-0.0076223137306718185,-0.005598542331822728,-0.0030907430397045456,-0.004116287998990909,-0.0014014731144171017,-0.003282744033035227,-0.002503805564167387,-0.0022228221309515913,-0.003768742720367475,-0.008366234004990342,-0.0072091965729528425,-0.005063342799494659,-0.008730609089675,-0.0034606928918721014,-0.0028939145288143747,-0.0025735488304715905,16.608836612551343,-12.011447095180625,0.904678995852273,0.2059615960661364,0.598259299182817,0.5315264544481363,0.301146,0.321221,0.00107881,0.00259726,0.192154,1,0.487313,0.452078,-0.145663,0.32212,0.305721,-0.235174,-0.38619,-0.372144,0,0.873227,0.390966,-0.147301,0.665585,-0.0211418,0.45542,0.0030595,0.0225185,0,0,0.80173,0.152451,-0.0460107,0.0974725,0.114805,-0.217774,0.30425,0,0,0,0.966356,0.188346,0.16477,0.1995,0.0929386,0.219681,0,0,0,0,0.644705,0.0171994,0.373043,0.384188,-0.171984,0,0,0,0,0,0.932278,-0.438245,0.177451,0.321101,0,0,0,0,0,0,0.59421,-0.447753,0.225502,0,0,0,0,0,0,0,0.64437,0.609643,0,0,0,0,0,0,0,0,0.406169
0.01,3.6175081640060798,4.490470158941478,-2.4395057393181823,-2.4065908045454547,0.10449423325113637,0.9501374893181821,1.089888999147727,0.1410395363526671,-0.0016626467459305678,-0.005982239733693182,1.044937049626136,0.027385677194312497,0.014967610463498864,-0.5371170342902045,3.17820054081733,3.4712396042943188,3.4025515742965915,3.780567373748625,3.723221644970568,3.5624173000758694,3.8892615348880115,3.1268477422982945,4.462887697128579,4.218681139133068,4.626068060631818,5.005849427875,4.574817916311797,4.761298422115284,4.189607468928239,0.6136888405340909,0.7058094027784094,1.2911440968891479,0.8864829246940911,0.9695530029539768,1.2182644415494888,0.8744784137531819,-0.008454123055416478,-0.007879384810445398,-0.005649642140579547,-0.008943450787045455,-0.0071999188126380675,-0.003161867656829375,-0.006949988541526705,-0.004343344632100566,-0.007157597368104601,-0.0012923936693236932,-0.002204936398977273,-0.004365133463984212,-0.0025843726731108185,-0.008365303662121078,-0.0021343886230875014,-0.004247378714314774,-0.003853603419773125,-0.005704587599624999,-0.002380216349487046,-0.001802078418188127,-0.007472842433416476,-0.0056440076966308515,-0.0059289860879154724,-0.00792607913545625,-0.007633820808279546,-0.005194882684511931,-0.006624473730671818,-0.006208282331822727,-0.0032278330397045455,-0.003971897998990909,-0.0010598231144171018,-0.002946054033035227,-0.0017637455641673868,-0.0019541721309515913,-0.0029399227203674755,-0.0068700040049903405,-0.0010929965729528424,-0.0065436327994946595,-0.008412739089675,-0.0082504828918721,-0.008671044528814374,-0.0025629588304715905,13.579736612551343,-14.587547095180625,0.8821339958522729,0.2060145960661364,0.5998342991828169,0.5030064544481363,0.248081,0.204459,0.00117238,0.00230455,0.178165,1,0.0176191,0.125647,0.143038,-0.0412931,-0.212552,0.194545,0.218971,0.263465,0,0.999845,0.278408,-0.05537,0.0297961,0.0498355,-0.516698,0.0435741,-0.485703,0,0,0.952209,0.217706,-0.0024372,-0.142369,0.0141998,0.538999,-0.0484463,0,0,0,0.963887,-0.0516501,-0.243157,-0.336672,-0.479224,-0.0539343,0,0,0,0,0.997363,0.208831,-0.206643,-0.172835,-0.106456,0,0,0,0,0,0.910677,0.318775,-0.091625,-0.185243,0,0,0,0,0,0,0.661292,0.0255969,-0.273477,0,0,0,0,0,0,0,0.625344,-0.724345,0,0,0,0,0,0,0,0,0.210499
0.01,3.8141481640060797,4.644330158941478,-2.496395739318182,-2.449960804545455,0.10575323325113636,0.9898534893181821,1.128418999147727,0.09577163635266711,-0.0028908967459305678,-0.004970019733693183,1.003657049626136,0.0284421771943125,0.011989610463498864,-0.5922100342902045,3.54853054081733,3.413769604294319,3.750051574296591,3.7132173737486247,3.885711644970568,3.8803373000758694,4.048671534888012,3.8100077422982945,4.266467697128579,4.144561139133068,4.982828060631818,5.057899427874999,4.5346779163117965,4.893428422115284,4.341557468928239,0.32587084053409093,0.6191754027784093,1.054004096889148,0.849853924694091,0.9708790029539769,1.1567444415494887,0.9298904137531819,-0.003978133055416478,-0.005540724810445398,-0.004717152140579547,-0.008571700787045455,-0.0025828688126380674,-0.003391807656829375,-0.0052265585415267055,-0.008932704632100566,-0.007807887368104601,-0.0007927096693236932,-0.0017455563989772728,-0.003994983463984213,-0.0023640926731108183,-0.005353523662121077,-0.007090138623087501,-0.006226828714314773,-0.004469773419773125,-0.005254097599624999,-0.005799386349487046,-0.003799838418188127,-0.0050263824334164766,-0.0025800576966308513,-0.0038642560879154717,-0.005206549135456251,-0.005660940808279546,-0.00825241268451193,-0.006424523730671818,-0.006280012331822728,-0.0024575530397045455,-0.003751877998990909,-0.0006258741144171019,-0.002606854033035227,-0.0005623995641673867,-0.0018195221309515914,-0.0026064927203674755,-0.00147667400499034,-0.0027598865729528423,-0.003590692799494659,-0.008085679089675,-0.005813152891872102,-0.008619304528814375,-0.004482328830471591,11.096036612551343,-6.173717095180624,0.9131639958522729,0.2000225960661364,0.602057299182817,0.47222545444813624,0.110484,0.297952,0.00115175,0.00206099,0.20743,1,0.381073,0.317971,-0.315891,0.437976,0.461281,0.0986534,-0.278266,-0.513556,0,0.924545,0.2846,0.0600107,0.613867,0.261898,0.502457,0.151233,0.0894607,0,0,0.904377,0.256441,-0.0890758,0.0856757,-0.336249,0.190337,-0.148429,0,0,0,0.91151,-0.0525636,0.328817,0.266911,0.322935,0.168853,0,0,0,0,0.648573,-0.143642,-0.478036,0.471852,0.178967,0,0,0,0,0,0.76324,0.221838,0.404193,0.160432,0,0,0,0,0,0,0.525138,-0.450026,0.469292,0,0,0,0,0,0,0,0.413087,-0.0198088,0,0,0,0,0,0,0,0,0.631918
