nikuehn/KBCG20/DATA/coefficients_KBCG19_smoothed_gprf_T00.25.csv
"T","mu_theta1","mu_theta1a","theta2","theta2a","theta3","theta4","theta4a","theta5","mu_theta6","mu_theta6b","mu_theta7","theta9","theta9a","theta6xc","theta1a_Ca_smallM","theta1_reg_Al","theta1_reg_Ca","theta1_reg_CAM","theta1_reg_Ja","theta1_reg_NZ","theta1_reg_SA","theta1_reg_Tw","theta1a_reg_Al","theta1a_reg_Ca","theta1a_reg_CAM","theta1a_reg_Ja","theta1a_reg_NZ","theta1a_reg_SA","theta1a_reg_Tw","theta7_reg_Al","theta7_reg_Ca","theta7_reg_CAM","theta7_reg_Ja","theta7_reg_NZ","theta7_reg_SA","theta7_reg_Tw","theta6x1_reg_Al","theta6x1_reg_Ca","theta6x1_reg_CAM","theta6x1_reg_Ja","theta6x1_reg_NZ","theta6x1_reg_SA","theta6x1_reg_Tw","theta6x2_reg_Al","theta6x2_reg_Ca","theta6x2_reg_CAM","theta6x2_reg_Ja","theta6x2_reg_NZ","theta6x2_reg_SA","theta6x2_reg_Tw","theta6x3_reg_Al","theta6x3_reg_Ca","theta6x3_reg_CAM","theta6x3_reg_Ja","theta6x3_reg_NZ","theta6x3_reg_SA","theta6x3_reg_Tw","theta61_reg_Al","theta61_reg_Ca","theta61_reg_CAM","theta61_reg_Ja","theta61_reg_NZ","theta61_reg_SA","theta61_reg_Tw","theta62_reg_Al","theta62_reg_Ca","theta62_reg_CAM","theta62_reg_Ja","theta62_reg_NZ","theta62_reg_SA","theta62_reg_Tw","theta63_reg_Al","theta63_reg_Ca","theta63_reg_CAM","theta63_reg_Ja","theta63_reg_NZ","theta63_reg_SA","theta63_reg_Tw","dzb_if","dzb_slab","nft_1","nft_2","phi","tau","psi_theta1","psi_theta1a","psi_theta6","psi_theta6b","psi_theta7","L_reg.1.1","L_reg.2.1","L_reg.3.1","L_reg.4.1","L_reg.5.1","L_reg.6.1","L_reg.7.1","L_reg.8.1","L_reg.9.1","L_reg.1.2","L_reg.2.2","L_reg.3.2","L_reg.4.2","L_reg.5.2","L_reg.6.2","L_reg.7.2","L_reg.8.2","L_reg.9.2","L_reg.1.3","L_reg.2.3","L_reg.3.3","L_reg.4.3","L_reg.5.3","L_reg.6.3","L_reg.7.3","L_reg.8.3","L_reg.9.3","L_reg.1.4","L_reg.2.4","L_reg.3.4","L_reg.4.4","L_reg.5.4","L_reg.6.4","L_reg.7.4","L_reg.8.4","L_reg.9.4","L_reg.1.5","L_reg.2.5","L_reg.3.5","L_reg.4.5","L_reg.5.5","L_reg.6.5","L_reg.7.5","L_reg.8.5","L_reg.9.5","L_reg.1.6","L_reg.2.6","L_reg.3.6","L_reg.4.6","L_reg.5.6","L_reg.6.6","L_reg.7.6","L_reg.8.6","L_reg.9.6","L_reg.1.7","L_reg.2.7","L_reg.3.7","L_reg.4.7","L_reg.5.7","L_reg.6.7","L_reg.7.7","L_reg.8.7","L_reg.9.7","L_reg.1.8","L_reg.2.8","L_reg.3.8","L_reg.4.8","L_reg.5.8","L_reg.6.8","L_reg.7.8","L_reg.8.8","L_reg.9.8","L_reg.1.9","L_reg.2.9","L_reg.3.9","L_reg.4.9","L_reg.5.9","L_reg.6.9","L_reg.7.9","L_reg.8.9","L_reg.9.9"
0.25,3.9558953390060796,4.662565096441479,-2.250451570568182,-2.1427370201829548,0.09386266161363635,0.9444408568181818,1.191903710397727,0.3121040876677434,-0.0035798186231818185,-0.005023653602443183,2.2644601335261365,0.028338700886812503,0.01981154515099886,-0.5784359067902045,3.9101907408173298,3.5854684042943186,4.644796299296591,3.9900504487486255,4.15007109497057,4.37525086257587,4.147547134888012,3.312561367298296,4.590651172128579,4.519330826633069,5.112083998131817,4.922001527875002,4.911153966311796,4.917352959615285,4.382018356428238,1.600568146284091,2.0414329542784095,2.429156411360398,2.008744045909091,2.4015199272102272,2.4770129811619888,2.267486008693181,-0.002497421426741477,-0.0027696342013953977,-0.008997104145579544,-0.009657028262045455,-0.007586696473388067,-0.004237180770579375,-0.004919665929664206,-0.003953387179600566,-0.004344306550604601,-0.00037937299973619324,-0.0028524717409772727,-0.004910020040734213,-0.0031751652117193176,-0.006649412110871079,-0.005322440556337501,-0.0067611738440647735,-0.003592615207023126,-0.007029057253124999,-0.0025109101094870447,-0.005433758156438125,-0.007978526571766478,-0.001173322307830852,-0.002315925824915471,-0.0033704159453312515,-0.004773329283404544,-0.00794413056438693,-0.007729343080671818,-0.003318031955322727,-0.0032742922248295446,-0.005360487980740908,-0.0018246943881608517,-0.0036349609347727263,-0.0036067958740136365,-0.002792202015784091,-0.0037798346615570515,-0.004784281702377842,-0.005154555921452843,-0.007660115553280909,-0.009443651852175,-0.003356813506497102,-0.0054628565035643745,-0.005538565710684091,17.444041263801346,-22.394100681430622,0.8612211561772729,0.19437801021363643,0.6529660752954547,0.4973224488394363,0.434356,0.240634,0.00122676,0.00279833,0.236596,1,0.0477909,0.240186,-0.316312,0.0837128,0.172314,-0.107005,-0.00207663,-0.251302,0,0.998857,-0.011541,0.015724,0.367799,-0.267689,0.137372,0.00898175,0.198882,0,0,0.970658,-0.0967992,0.0587073,-0.0938617,-0.113924,0.445374,-0.152474,0,0,0,0.943573,0.0745217,-0.619179,0.43588,-0.258283,0.359482,0,0,0,0,0.921258,-0.341339,0.309667,0.330325,-0.483028,0,0,0,0,0,0.624456,-0.0365068,0.228445,0.0185737,0,0,0,0,0,0,0.818219,0.490525,-0.137661,0,0,0,0,0,0,0,0.577001,0.18344,0,0,0,0,0,0,0,0,0.677167
0.25,4.009135339006079,4.548015096441478,-2.278811570568182,-2.109877020182955,0.09649996161363635,1.0614708568181819,1.249583710397727,0.0689740876677434,-0.0038577286231818186,-0.007723323602443183,2.0988701335261366,0.036818300886812504,0.025136745150998858,-0.5066609067902046,3.62490074081733,4.021228404294318,3.9357562992965915,4.0595304487486255,4.026941094970569,4.0667208625758695,4.046817134888012,3.958371367298296,4.576691172128579,4.407360826633068,4.483133998131818,4.711721527875002,4.762223966311796,4.422162959615285,4.328448356428238,1.806448146284091,2.1022329542784095,2.599586411360398,2.009504045909091,2.3401799272102273,2.639102981161989,2.293986008693181,-0.006594061426741477,-0.007347094201395398,-0.008769204145579544,-0.010213498262045454,-0.005844886473388067,-0.004159150770579375,-0.009336655929664206,-0.007943637179600565,-0.010022976550604601,-0.0012150189997361931,-0.0030781117409772727,-0.0052458500407342136,-0.0038364252117193175,-0.008879192110871077,-0.004930150556337501,-0.008602023844064773,-0.009633165207023125,-0.006956107253125,-0.005885150109487045,-0.007532558156438125,-0.0075762965717664785,-0.011493162307830852,-0.007358005824915471,-0.010412455945331252,-0.010202529283404545,-0.005389980564386931,-0.007647973080671818,-0.009332981955322728,-0.003938572224829545,-0.005288847980740908,-0.002128244388160852,-0.0036233509347727262,-0.0019973058740136366,-0.002322212015784091,-0.004733894661557051,-0.008753861702377842,-0.007869035921452845,-0.005731395553280909,-0.009926651852175,-0.004352133506497101,-0.0012959465035643747,-0.004947405710684091,15.964441263801346,-20.520000681430624,0.8662181561772728,0.17832101021363644,0.6550270752954547,0.5042214488394363,0.0355301,0.123568,0.00112295,0.00280134,0.224027,1,0.446233,0.159598,0.0660753,0.27181,-0.137597,0.058571,0.539505,0.134716,0,0.894917,-0.26935,0.249385,-0.222533,0.259572,-0.0277017,0.0469583,-0.450271,0,0,0.949726,0.329309,0.223756,0.0531416,-0.0889122,0.140392,0.296671,0,0,0,0.908293,-0.341443,0.802462,-0.567835,0.334299,0.233408,0,0,0,0,0.842584,0.303335,-0.289468,0.31353,0.247291,0,0,0,0,0,0.418221,0.0402402,0.373693,0.23032,0,0,0,0,0,0,0.761609,0.0382155,0.100453,0,0,0,0,0,0,0,0.579531,-0.314309,0,0,0,0,0,0,0,0,0.643066
0.25,4.147805339006079,4.613225096441479,-2.265191570568182,-2.076737020182955,0.08674336161363636,1.0590108568181817,1.278753710397727,0.0122933376677434,-0.004054798623181819,-0.005819563602443183,2.1940401335261366,0.031313000886812506,0.03033904515099886,-0.5548019067902046,3.84266074081733,4.074318404294319,3.9424362992965913,4.277440448748625,4.399221094970569,4.30775086257587,4.499277134888012,3.926591367298296,4.613441172128579,4.859490826633069,4.694953998131818,4.853231527875002,4.983263966311795,4.488592959615285,4.395358356428238,1.887968146284091,1.9010029542784097,2.554976411360398,2.013834045909091,2.3122099272102274,2.6485129811619887,2.266866008693181,-0.009061721426741477,-0.002738224201395398,-0.008336634145579544,-0.010000458262045453,-0.008256256473388067,-0.004626960770579375,-0.006104875929664206,-0.005588747179600566,-0.0082538565506046,-0.0013853189997361933,-0.0027506317409772725,-0.004077680040734213,-0.0027060452117193177,-0.007813642110871079,-0.0026323705563375006,-0.003150833844064773,-0.008569345207023127,-0.006951637253124999,-0.0063681901094870446,-0.009988798156438125,-0.0025602465717664783,-0.004822432307830852,-0.007467055824915471,-0.008570165945331252,-0.004456979283404544,-0.008915600564386932,-0.006549203080671817,-0.005802811955322727,-0.0033901922248295445,-0.005440907980740908,-0.0021725443881608518,-0.003747150934772726,-0.002391095874013637,-0.002474942015784091,-0.004190444661557051,-0.010644761702377842,-0.0050143859214528425,-0.004836955553280909,-0.009271791852175,-0.007067673506497102,-0.008409206503564373,-0.005561525710684091,18.935541263801348,-22.37290068143062,0.8453821561772729,0.20732901021363645,0.6439930752954547,0.45796144883943635,0.217069,0.385408,0.00107986,0.00242657,0.161424,1,0.256176,0.406411,0.108115,0.239822,-0.529226,-0.170067,0.416466,-0.169927,0,0.96663,-0.0984063,-0.0248246,0.284388,0.305049,-0.0295476,0.248832,0.235177,0,0,0.908375,0.0305668,0.197113,-0.144453,-0.147707,0.453035,0.348607,0,0,0,0.993358,-0.108852,-0.243602,-0.162323,-0.558851,0.0270231,0,0,0,0,0.900504,-0.532022,-0.398947,-0.170374,-0.492757,0,0,0,0,0,0.513428,-0.369636,0.290145,-0.514509,0,0,0,0,0,0,0.791359,-0.145778,-0.088421,0,0,0,0,0,0,0,0.33559,-0.150472,0,0,0,0,0,0,0,0,0.50554
0.25,4.12698533900608,4.685765096441479,-2.2855515705681824,-2.1381170201829547,0.09264896161363635,0.9583928568181819,1.227573710397727,0.0083735876677434,-0.0033673686231818186,-0.007181463602443183,2.1121901335261364,0.0331164008868125,0.03376654515099886,-0.5658529067902046,3.68882074081733,4.067698404294319,3.7884662992965916,4.300460448748626,4.200191094970569,4.57110086257587,4.458617134888012,3.8020113672982956,4.697351172128579,4.849370826633068,4.726753998131818,4.940451527875002,5.182553966311795,4.796652959615285,4.4988783564282375,1.642748146284091,1.9737329542784097,2.403766411360398,1.9792140459090908,2.312439927210227,2.3906429811619887,2.2355760086931813,-0.006418461426741477,-0.004400494201395397,-0.007876054145579545,-0.010082238262045453,-0.003361616473388067,-0.004422310770579375,-0.005705645929664206,-0.006675487179600566,-0.007902066550604601,-0.0017641989997361932,-0.0024041017409772727,-0.008315190040734215,-0.0032559952117193177,-0.012172092110871079,-0.0040723105563375,-0.008999383844064773,-0.009111565207023126,-0.006997147253125,-0.009582530109487043,-0.010956678156438126,-0.006247986571766478,-0.009307012307830851,-0.005687355824915471,-0.005389025945331251,-0.010104929283404545,-0.005296090564386931,-0.007821423080671817,-0.010304951955322727,-0.003302222224829545,-0.005025677980740908,-0.0021451643881608517,-0.0034551009347727262,-0.0033378458740136365,-0.002753802015784091,-0.0037961146615570515,-0.004000061702377843,-0.012957685921452841,-0.009412605553280908,-0.009457231852175,-0.007933003506497102,-0.005505846503564375,-0.005675895710684091,20.111341263801343,-23.500500681430623,0.8416651561772729,0.18242101021363644,0.6494670752954547,0.5147324488394364,0.206548,0.403045,0.000935528,0.00257719,0.197882,1,0.271533,0.0558759,0.390542,0.147226,0.0700006,0.315155,0.602616,0.114062,0,0.962429,0.0208448,-0.119948,-0.162669,-0.512343,-0.0408697,0.113223,0.0840456,0,0,0.99822,-0.0219558,0.0285059,-0.445124,-0.240807,0.0650206,-0.326396,0,0,0,0.912473,-0.197455,-0.138121,0.0279939,-0.0373041,-0.22362,0,0,0,0,0.955019,-0.0868596,-0.192418,-0.102056,-0.0152599,0,0,0,0,0,0.712634,-0.0404162,0.494269,0.0746832,0,0,0,0,0,0,0.895308,0.148646,-0.321803,0,0,0,0,0,0,0,0.584468,0.464927,0,0,0,0,0,0,0,0,0.705593
0.25,4.1648753390060795,4.751685096441479,-2.310451570568182,-2.1302670201829548,0.09226136161363635,0.9796808568181818,1.256453710397727,0.2070240876677434,-0.0038273086231818184,-0.006355633602443183,2.2511701335261365,0.028318400886812502,0.02811724515099886,-0.5373259067902045,3.85923074081733,4.254118404294318,4.443276299296591,4.598820448748626,4.455991094970569,4.64568086257587,4.712887134888012,3.7657513672982956,4.636751172128579,4.945390826633068,4.914213998131817,4.910521527875002,4.886523966311795,4.799012959615285,4.484698356428238,1.811548146284091,2.1934729542784095,2.294216411360398,1.996844045909091,2.2853399272102273,2.426552981161989,2.2911860086931815,-0.0032064614267414767,-0.0107391842013954,-0.008972794145579544,-0.009999438262045454,-0.011395216473388066,-0.0055856907705793745,-0.003241915929664206,-0.006934837179600566,-0.005908786550604601,-0.0011434889997361931,-0.0027579917409772726,-0.001782910040734213,-0.002336805211719318,-0.009543352110871078,-0.007394100556337501,-0.006561923844064773,-0.001988035207023126,-0.007153707253125,-0.0007831451094870448,-0.0016341581564381247,-0.012114446571766479,-0.008203012307830854,-0.010792805824915472,-0.007999245945331253,-0.008342629283404545,-0.008036920564386933,-0.007763383080671818,-0.007335091955322727,-0.0034682622248295445,-0.005357387980740908,-0.002721464388160852,-0.003510780934772726,-0.002763815874013637,-0.002688432015784091,-0.004040784661557051,-0.008237261702377843,-0.006197005921452843,-0.005663305553280909,-0.009683861852175001,-0.009911353506497102,-0.008569176503564375,-0.006416535710684091,16.882841263801346,-21.594900681430623,0.9069501561772728,0.19911201021363645,0.6502930752954547,0.5221854488394363,0.295562,0.142812,0.000820597,0.00255117,0.215996,1,0.491363,0.281283,-0.197594,0.656256,0.496123,-0.0226447,0.118932,-0.33761,0,0.870955,-0.0770544,-0.538079,0.315933,0.179375,0.321371,-0.369194,0.0184823,0,0,0.956526,0.0248315,-0.0626641,0.0855628,0.521297,-0.0673284,0.175766,0,0,0,0.819031,-0.192189,-0.291674,0.445642,0.129512,-0.144886,0,0,0,0,0.654714,0.218202,-0.101576,0.596441,-0.227349,0,0,0,0,0,0.76268,0.0458513,-0.0647163,0.679193,0,0,0,0,0,0,0.642993,0.277342,-0.138887,0,0,0,0,0,0,0,0.625616,-0.265999,0,0,0,0,0,0,0,0,0.48037
0.25,4.300955339006079,4.8433350964414785,-2.3446515705681823,-2.170737020182955,0.09712676161363636,1.000100856818182,1.119873710397727,0.0078297176677434,-0.0034001786231818184,-0.005226743602443183,2.0876701335261365,0.019913400886812503,0.03254324515099886,-0.5430679067902046,3.6532107408173298,3.9429884042943186,4.095676299296591,4.282610448748626,4.5689010949705695,4.480580862575869,4.6428971348880115,4.009811367298296,4.746461172128579,4.487770826633069,4.532903998131817,4.997011527875002,4.888443966311796,4.818182959615285,4.505408356428238,1.865018146284091,1.9802929542784096,2.573856411360398,1.997454045909091,2.3163499272102275,2.5039129811619887,2.265516008693181,-0.011094081426741478,-0.008014954201395398,-0.007637004145579545,-0.010039758262045454,-0.0034477364733880673,-0.004049240770579375,-0.008555755929664207,-0.003449327179600566,-0.004847966550604601,-0.0016226189997361933,-0.0025010917409772726,-0.0027302700407342132,-0.003953715211719317,-0.002470332110871079,-0.003919740556337501,-0.005178333844064773,-0.008246705207023126,-0.006992257253124999,-0.004106820109487045,-0.008264748156438125,-0.002814466571766478,-0.001699682307830852,-0.001103306824915471,-0.007059325945331252,-0.0032285292834045446,-0.008622940564386932,-0.007759533080671818,-0.003281531955322727,-0.0032097822248295447,-0.005005657980740908,-0.002443714388160852,-0.0032780909347727262,-0.002987055874013637,-0.002650412015784091,-0.003589294661557051,-0.00911096170237784,-0.003882405921452843,-0.0034557555532809094,-0.009709371852175,-0.0058353935064971016,-0.004088226503564375,-0.010948345710684091,11.347341263801344,-26.020200681430623,0.8406751561772728,0.19157001021363643,0.6504910752954547,0.5089034488394364,0.206798,0.183658,0.000760135,0.0022265,0.20866,1,0.289254,-0.110493,0.133502,-0.249625,-0.490943,0.0137772,0.179809,0.17025,0,0.957252,-0.263965,0.330417,-0.596591,0.104794,-0.100232,0.00575855,-0.0929824,0,0,0.958183,0.319889,0.194479,-0.0626895,-0.633733,0.403666,-0.00892098,0,0,0,0.87788,-0.24172,0.17258,-0.52264,-0.183801,0.612482,0,0,0,0,0.69679,-0.221409,0.0594757,-0.0623029,-0.0594712,0,0,0,0,0,0.815633,0.0423629,-0.0405561,-0.554679,0,0,0,0,0,0,0.556473,-0.449765,-0.0518302,0,0,0,0,0,0,0,0.750394,-0.110213,0,0,0,0,0,0,0,0,0.510995
0.25,4.323455339006079,4.7444250964414785,-2.281111570568182,-2.1357870201829545,0.08850036161363635,0.9713808568181819,1.168273710397727,0.3830080876677434,-0.0037357986231818185,-0.006512163602443183,2.1585401335261367,0.0219584008868125,0.02594514515099886,-0.5056219067902046,4.0747407408173295,3.9971684042943183,3.5743962992965916,4.483900448748626,4.574301094970569,4.941020862575869,4.786157134888012,4.216621367298296,4.685911172128579,4.420360826633068,4.681833998131817,4.968421527875002,4.9123039663117956,4.846362959615285,4.565608356428238,1.573958146284091,2.0643429542784095,2.628726411360398,1.9794940459090908,2.404079927210227,2.567352981161989,2.2364060086931814,-0.009416671426741477,-0.0022502042013953978,-0.008995354145579545,-0.009883538262045454,-0.004086706473388067,-0.004480290770579375,-0.004906655929664206,-0.007534927179600566,-0.0071663365506046016,-0.002523678999736193,-0.0028349717409772725,-0.00044564904073421315,-0.0036924752117193176,-0.008076292110871078,-0.0085657905563375,-0.004181263844064773,-0.005434095207023126,-0.006979377253124999,-0.006548610109487045,-0.008068648156438124,-0.007037296571766478,-0.01055526230783085,-0.005319895824915471,-0.008299505945331253,-0.0075962992834045446,-0.006744470564386931,-0.007764203080671818,-0.006951571955322727,-0.0032061622248295446,-0.0049582479807409085,-0.0028399943881608518,-0.0034150709347727263,-0.0034299258740136365,-0.0029899320157840913,-0.0040974946615570515,-0.008161001702377841,-0.0062707159214528425,-0.007205375553280909,-0.009258231852175,-0.008248683506497103,-0.005186486503564375,-0.0025982857106840907,9.675941263801345,-21.35050068143062,0.8988881561772729,0.19902401021363644,0.6463350752954546,0.48605344883943635,0.3331,0.154534,0.000884724,0.00256514,0.291586,1,0.478506,0.329828,-0.120527,0.401944,-0.267912,-0.0916981,0.410514,-0.120092,0,0.878084,-0.143864,-0.0861435,0.424847,-0.218456,-0.116548,-0.074597,-0.171712,0,0,0.933015,0.175951,0.163881,0.478878,0.349172,0.00663508,0.0429601,0,0,0,0.973187,-0.208728,0.280668,0.616998,-0.36535,0.63801,0,0,0,0,0.766499,-0.105511,-0.344257,0.143144,-0.141063,0,0,0,0,0,0.749179,0.177313,0.0956944,0.203159,0,0,0,0,0,0,0.57048,-0.719922,-0.201857,0,0,0,0,0,0,0,0.380071,-0.0690492,0,0,0,0,0,0,0,0,0.663705
0.25,4.20944533900608,4.330575096441478,-2.347591570568182,-2.144387020182955,0.09780996161363635,1.055000856818182,1.134413710397727,0.0167469876677434,-0.0036625086231818183,-0.006246803602443183,2.1376601335261367,0.017552100886812503,0.02317724515099886,-0.5801929067902045,3.78097074081733,4.084758404294319,4.3073562992965915,4.3176704487486255,4.6994610949705695,4.292980862575869,4.590887134888012,4.1023013672982955,4.384861172128579,4.339070826633068,4.450923998131818,4.724481527875001,4.486713966311795,4.591432959615285,4.218528356428238,1.500428146284091,2.0443829542784098,2.4415164113603978,1.9985540459090907,2.3396299272102272,2.596662981161989,2.2288960086931815,-0.012366781426741476,-0.008305394201395398,-0.008724774145579546,-0.009670788262045454,-0.004786996473388067,-0.0038022507705793747,-0.006842865929664206,-0.002884537179600566,-0.002440256550604601,-0.0011244789997361933,-0.0023913617409772724,-0.0025845100407342132,-0.0038709452117193176,-0.006593402110871079,-0.0062715305563375,-0.009254083844064773,-0.010387355207023125,-0.007433307253124999,-0.008457430109487046,-0.006477258156438125,-0.004901266571766478,-0.004809072307830852,0.00012093017508452901,-0.0035547659453312517,-0.007595759283404544,-0.005828310564386931,-0.0072391030806718175,-0.006084231955322727,-0.0031750322248295447,-0.005262847980740908,-0.0022713543881608517,-0.0034160209347727263,-0.002947545874013637,-0.002694032015784091,-0.0038707746615570513,-0.003311141702377842,-0.0022692659214528428,-0.003929795553280909,-0.009756391852175,-0.004073083506497102,-0.008696436503564376,-0.005222415710684091,11.890841263801343,-20.98780068143062,0.8471291561772729,0.19753201021363645,0.6550850752954547,0.4984824488394363,0.212877,0.185711,0.00080087,0.00255337,0.274786,1,-0.144408,0.319653,-0.031332,0.27121,-0.298399,0.0208142,0.194462,-0.286722,0,0.989518,0.175811,0.0298373,-0.144785,-0.0315316,0.107106,0.103592,-0.514149,0,0,0.931081,0.455663,0.0145585,-0.344513,-0.230413,0.312263,-0.112749,0,0,0,0.8891,-0.22523,0.405055,-0.308033,-0.0784175,-0.00977751,0,0,0,0,0.924414,-0.344962,0.089512,0.216137,0.71924,0,0,0,0,0,0.712886,-0.340873,0.0337386,-0.0765195,0,0,0,0,0,0,0.846117,-0.146162,0.111749,0,0,0,0,0,0,0,0.882371,0.00107352,0,0,0,0,0,0,0,0,0.324012
0.25,4.40271533900608,4.269725096441478,-2.308951570568182,-2.1195970201829546,0.09666526161363635,1.0260008568181818,1.1129437103977269,0.1637430876677434,-0.0036399886231818185,-0.006102743602443183,2.2942401335261366,0.016913700886812502,0.018318545150998858,-0.5073469067902046,3.3363007408173297,4.129968404294319,4.373926299296591,3.9796204487486255,4.520061094970569,3.9448008625758697,4.645047134888012,4.101771367298296,4.405531172128579,4.152420826633069,4.3413639981318175,4.635531527875002,4.428663966311795,4.493822959615285,4.063178356428238,1.956228146284091,1.9275329542784096,2.592566411360398,2.000354045909091,2.3973399272102274,2.554792981161989,2.2438460086931813,-0.0037682614267414765,-0.0026849942013953978,-0.007776144145579545,-0.010416298262045454,-0.003644556473388067,-0.003918750770579375,-0.005637055929664206,-0.008444367179600567,-0.010175506550604601,-0.0020778589997361933,-0.0028913617409772724,-0.003172900040734213,-0.003576115211719318,-0.007448162110871079,-0.006367940556337501,-0.010433503844064773,-0.005867415207023126,-0.007541187253125,-0.006595530109487045,-0.004418868156438125,-0.008664496571766479,-0.008718672307830851,-0.008338315824915472,-0.0027109659453312517,-0.0038939792834045447,-0.00823163056438693,-0.007333233080671818,-0.0043575419553227275,-0.003458562224829545,-0.005371037980740908,-0.002470394388160852,-0.003555460934772726,-0.0027398058740136367,-0.002791772015784091,-0.004335814661557051,-0.008751241702377843,-0.009675255921452842,-0.005423875553280909,-0.010090481852175,-0.0047165135064971015,-0.004878156503564375,-0.00806571571068409,11.246741263801344,-15.475000681430622,0.8761991561772728,0.19507301021363643,0.6436640752954547,0.4946814488394363,0.353118,0.193701,0.000741233,0.002534,0.199503,1,-0.167843,0.276427,0.0821279,0.120681,0.0825005,-0.145563,-0.353809,0.188087,0,0.985814,-0.234629,-0.058151,0.479047,-0.313517,-0.4385,0.26337,-0.0924195,0,0,0.931953,-0.176766,0.283388,0.229763,0.151949,0.395181,0.634243,0,0,0,0.979095,-0.337823,-0.0880535,-0.408061,-0.246949,-0.149125,0,0,0,0,0.749344,-0.207463,0.264863,0.18563,-0.248192,0,0,0,0,0,0.889559,-0.110807,0.437831,0.17416,0,0,0,0,0,0,0.717284,-0.464938,-0.546965,0,0,0,0,0,0,0,0.382075,-0.153592,0,0,0,0,0,0,0,0,0.341889
0.25,4.317845339006079,4.662605096441479,-2.314201570568182,-2.1633370201829547,0.09200746161363635,1.0865508568181819,1.151613710397727,0.0268121876677434,-0.0036127186231818182,-0.006153743602443183,2.1211701335261366,0.0183732008868125,0.02597124515099886,-0.5338409067902046,3.78045074081733,4.018078404294318,4.205356299296591,4.424330448748625,4.59686109497057,4.68826086257587,4.596497134888012,4.108531367298296,4.670101172128579,4.464470826633068,4.824323998131818,5.073341527875002,5.095513966311795,4.868922959615285,4.379428356428238,1.794488146284091,2.02419295427841,2.436266411360398,1.990794045909091,2.2104999272102273,2.441172981161989,2.1974060086931813,-0.008162131426741479,-0.008395614201395396,-0.006553454145579545,-0.010096858262045453,-0.004930886473388067,-0.004486510770579375,-0.0045123859296642066,-0.003016297179600566,-0.0092276665506046,-0.0029855089997361936,-0.0026121817409772725,-0.009603270040734212,-0.0034841352117193176,-0.010008452110871077,-0.005700780556337501,-0.010420003844064774,-0.004689795207023126,-0.0068594472531249995,-0.0067552301094870445,-0.0059144781564381245,-0.008038636571766478,-0.006728672307830852,-0.003578295824915471,-0.0036614959453312515,0.0002463127165954553,-0.0035148405643869313,-0.007398213080671818,-0.007786421955322727,-0.0034192222248295447,-0.004910967980740908,-0.0028786343881608517,-0.003416710934772726,-0.003447915874013637,-0.0025554420157840913,-0.003899944661557051,-0.003971711702377843,-0.006565555921452843,-0.00915466555328091,-0.009677011852175,-0.010348273506497101,-0.007875546503564375,-0.0067158257106840905,15.185341263801345,-18.924100681430623,0.8667671561772728,0.19397101021363644,0.6465460752954546,0.4745374488394363,0.216043,0.173344,0.000760621,0.00238994,0.261596,1,0.552245,0.0197226,-0.0869311,-0.0253816,0.195514,0.169427,0.0754778,-0.357111,0,0.833682,0.267111,-0.0789269,0.372486,0.12054,0.452238,0.1466,-0.452548,0,0,0.963464,0.624194,0.123102,-0.133892,-0.164626,0.360483,-0.361869,0,0,0,0.772396,-0.277867,0.313953,-0.138272,0.147419,0.413499,0,0,0,0,0.876496,0.570009,-0.112355,0.284735,0.279606,0,0,0,0,0,0.711225,-0.0780313,0.248035,-0.12812,0,0,0,0,0,0,0.83776,0.150416,0.128418,0,0,0,0,0,0,0,0.809883,0.268254,0,0,0,0,0,0,0,0,0.427429
0.25,4.369065339006079,4.579085096441479,-2.283281570568182,-2.0895670201829546,0.08530536161363635,1.0685208568181819,1.101083710397727,0.0167780876677434,-0.0033132586231818186,-0.006646633602443183,2.1046001335261364,0.0231110008868125,0.024074045150998858,-0.5079139067902045,3.77039074081733,3.8392484042943185,4.149496299296591,4.043490448748626,4.64484109497057,4.90683086257587,4.6000571348880115,4.333761367298296,4.4442711721285795,4.590950826633069,4.682363998131818,4.863901527875002,4.839173966311796,4.650642959615285,4.2885983564282375,1.673788146284091,2.0600729542784095,2.443026411360398,2.023404045909091,2.2736999272102274,2.6196229811619887,2.2407460086931814,-0.011893081426741475,-0.0077353742013953975,-0.009578154145579547,-0.009931188262045454,-0.008239346473388066,-0.0035434007705793746,-0.003645015929664206,-0.005259717179600566,-0.005780316550604602,-0.0019122689997361933,-0.0026611717409772725,-0.0046384400407342135,-0.004038505211719318,-0.01156419211087108,-0.005540010556337501,-0.009222413844064772,-0.005607855207023126,-0.0065980172531249996,-0.008401520109487044,-0.005563538156438124,-0.009448796571766479,-0.006732092307830852,-0.006619895824915471,-0.006698495945331251,-0.0022477892834045447,-0.0035218405643869313,-0.006067413080671818,-0.011565451955322728,-0.003372102224829545,-0.005127817980740908,-0.002050844388160852,-0.003246430934772726,-0.003395555874013637,-0.002654722015784091,-0.004275794661557052,-0.0046026817023778425,-0.008053725921452842,-0.0015681555532809093,-0.009522691852175,-0.008028483506497102,-0.0078097365035643745,-0.005447335710684091,8.608291263801345,-19.753200681430624,0.8854321561772729,0.19329801021363643,0.6526910752954547,0.4850004488394363,0.403102,0.173351,0.000694931,0.00273279,0.218712,1,0.0112044,0.177099,0.329086,-0.185558,-0.42536,0.00459435,0.235313,-0.301611,0,0.999937,-0.0279988,0.0243911,0.583414,0.390711,0.535852,-0.0295096,-0.0910991,0,0,0.983795,0.334576,0.0499759,0.0215951,0.339565,0.461973,-0.101228,0,0,0,0.882704,-0.166649,0.179283,-0.212632,-0.115262,0.169013,0,0,0,0,0.771315,0.425752,-0.190368,-0.0916974,-0.142953,0,0,0,0,0,0.672712,-0.0390934,0.468328,-0.186809,0,0,0,0,0,0,0.717326,0.270796,-0.289899,0,0,0,0,0,0,0,0.644967,0.683005,0,0,0,0,0,0,0,0,0.506012
0.25,4.16224533900608,4.505885096441479,-2.2316415705681822,-2.0857870201829547,0.08528906161363635,1.0595308568181818,1.1131137103977269,0.0996396876677434,-0.0031205986231818182,-0.005377283602443183,2.1399701335261363,0.022447300886812502,0.02324714515099886,-0.4890489067902046,3.75045074081733,3.6342284042943183,4.2629662992965915,3.7172804487486255,4.36040109497057,4.81136086257587,4.493377134888012,4.149401367298296,4.38125117212858,4.781510826633069,4.449973998131818,4.8073915278750015,4.927493966311795,4.730052959615285,4.166748356428238,1.650538146284091,2.0729729542784097,2.380216411360398,2.002804045909091,2.3954499272102274,2.463802981161989,2.2460360086931814,-0.0025119914267414767,-0.005952554201395397,-0.006110974145579546,-0.010018358262045455,-0.004279916473388067,-0.004470240770579375,-0.0033272859296642064,-0.0031446371796005662,-0.0080256865506046,-0.0014182689997361932,-0.0027422417409772725,-0.007413070040734213,-0.0038475752117193176,-0.006458522110871079,-0.00018919455633750073,-0.007414983844064773,-0.003553615207023126,-0.007163427253124999,-0.005762750109487045,-0.004877688156438124,-0.006937106571766478,-0.004828852307830852,-0.006012605824915471,-0.006090855945331252,-0.003466829283404545,-0.0030425005643869314,-0.007919633080671817,-0.005024451955322727,-0.0032265422248295445,-0.005189927980740908,-0.001644034388160852,-0.0033068609347727262,-0.0034857658740136367,-0.003147292015784091,-0.0038819546615570513,-0.010300761702377842,-0.007139445921452843,-0.003965345553280909,-0.009046131852175,-0.004719903506497102,-0.008670776503564376,-0.003615405710684091,12.783841263801344,-17.105300681430624,0.8264701561772728,0.19831501021363643,0.6516370752954547,0.46611044883943636,0.502583,0.21847,0.000707478,0.00221344,0.167213,1,0.453929,0.276218,0.027617,0.0733852,-0.492602,-0.165475,-0.0346882,-0.302712,0,0.891038,-0.0340673,-0.301066,0.194995,0.285442,0.222953,-0.287916,-0.217591,0,0,0.960491,-0.165923,0.148091,-0.229634,-0.324563,0.172233,0.28409,0,0,0,0.938651,-0.125253,0.421468,0.441473,0.0469708,0.33998,0,0,0,0,0.958631,0.422877,-0.145978,0.0523535,-0.254041,0,0,0,0,0,0.516405,-0.272309,0.629269,-0.0284083,0,0,0,0,0,0,0.726092,0.319136,0.0798246,0,0,0,0,0,0,0,0.619243,0.352063,0,0,0,0,0,0,0,0,0.684881
0.25,3.9718653390060794,4.602795096441478,-2.247961570568182,-2.138607020182955,0.08954136161363635,1.0340808568181818,1.101433710397727,0.0122913176677434,-0.0031545586231818182,-0.005469073602443183,2.1754701335261366,0.024268500886812504,0.02149534515099886,-0.5423189067902046,3.76760074081733,3.3747484042943183,4.076426299296592,3.982380448748626,4.33311109497057,4.76510086257587,4.3745271348880115,4.129041367298296,4.442341172128579,4.830730826633069,4.704533998131818,4.999721527875002,4.973673966311795,4.890782959615285,4.308148356428238,1.663648146284091,1.8768629542784097,2.297386411360398,1.995604045909091,2.3544899272102273,2.597162981161989,2.2704960086931814,-0.0070898714267414766,-0.0036605742013953975,-0.007438094145579545,-0.010208898262045454,-0.002335156473388067,-0.003815150770579375,-0.007075655929664206,-0.0007137591796005661,-0.006300686550604601,-0.0010769689997361933,-0.0026078517409772726,-0.006946770040734213,-0.004074805211719317,-0.005190382110871079,-0.0013315705563375008,-0.009600373844064772,-0.001756435207023126,-0.007232217253124999,-0.008549330109487045,-0.0018210381564381247,-0.0068676565717664785,-0.009241502307830853,-0.002951215824915471,-0.00805864594533125,-0.0058101092834045446,-0.0007484855643869313,-0.0074873830806718175,-0.006861961955322727,-0.0031198122248295448,-0.005112017980740908,-0.0016917443881608518,-0.003491930934772726,-0.003478655874013637,-0.002815432015784091,-0.003803624661557051,-0.007017921702377842,-0.009468355921452842,-0.004447485553280909,-0.009748141852175,-0.006706243506497102,-0.004035986503564374,-0.0043750757106840905,12.013841263801345,-15.953400681430622,0.8683381561772728,0.20182501021363644,0.6463720752954546,0.48038944883943635,0.679088,0.239108,0.00061992,0.00193828,0.176779,1,0.393435,0.285748,0.142013,0.00776769,-0.409445,0.0169031,-0.0403134,-0.315627,0,0.919353,0.0535306,-0.0447189,0.280835,-0.0250076,0.317868,-0.348752,-0.511421,0,0,0.956809,-0.262857,-0.189941,0.0836542,-0.0433969,-0.0845477,0.262633,0,0,0,0.953278,-0.140612,0.161268,0.23497,0.298884,0.339144,0,0,0,0,0.930173,0.604909,-0.500316,0.0851725,-0.119304,0,0,0,0,0,0.657882,-0.238079,0.60159,0.392507,0,0,0,0,0,0,0.731152,0.204189,-0.123096,0,0,0,0,0,0,0,0.60779,0.337176,0,0,0,0,0,0,0,0,0.397113
0.25,4.32259533900608,4.182725096441478,-2.341781570568182,-2.115497020182955,0.09435616161363634,1.057920856818182,1.096423710397727,0.2276290876677434,-0.004016668623181818,-0.005872093602443183,2.1196601335261365,0.022562200886812503,0.01815864515099886,-0.5350749067902045,3.32950074081733,4.015938404294318,4.392736299296591,4.020730448748626,4.631811094970569,4.83335086257587,4.731237134888012,4.299851367298296,4.027041172128579,4.006300826633068,3.946273998131818,4.733881527875002,4.708963966311795,4.580132959615285,4.132878356428238,1.572518146284091,2.1137629542784095,2.389936411360398,2.0239140459090907,2.344219927210227,2.566712981161989,2.2037060086931812,-0.012399781426741478,-0.0025914042013953976,-0.008902834145579547,-0.010337298262045455,-0.004514346473388067,-0.004487720770579374,-0.005388305929664206,-0.004563497179600566,-0.0075301665506046014,-0.00043393599973619323,-0.0024988417409772725,-0.005649670040734213,-0.003403045211719318,-0.0074176021108710785,-0.0104132805563375,-0.0027602338440647733,-0.007906825207023127,-0.0071042272531249995,-0.004471610109487044,-0.008135868156438126,-0.005256926571766478,-0.005370992307830852,-0.007039255824915471,-0.0015913959453312517,-0.010691329283404544,-0.0071225205643869315,-0.008326853080671817,-0.005861441955322727,-0.0033267122248295446,-0.005261817980740908,-0.0014726643881608518,-0.0033587609347727264,-0.004012725874013637,-0.002581642015784091,-0.004303904661557051,-0.006997231702377842,-0.008208285921452844,-0.002487075553280909,-0.009969551852175,-0.004882743506497102,-0.005523836503564375,-0.008284125710684091,13.217741263801344,-12.373500681430622,0.8694531561772728,0.19918301021363644,0.6464950752954547,0.5086174488394364,0.227059,0.321134,0.000958952,0.00284553,0.278536,1,0.283095,0.0803919,-0.0443162,0.135088,0.22163,-0.211537,-0.144596,-0.19129,0,0.959092,0.0908861,-0.0974386,0.0542729,-0.253288,-0.432642,0.32955,0.102827,0,0,0.992611,0.738731,0.39105,0.503804,0.131044,0.484931,0.519307,0,0,0,0.665446,-0.588656,0.32697,-0.0932857,-0.497651,-0.286887,0,0,0,0,0.692365,0.307566,0.3949,-0.153139,0.0160041,0,0,0,0,0,0.656811,-0.124499,0.156912,-0.252575,0,0,0,0,0,0,0.755482,0.0424366,0.189725,0,0,0,0,0,0,0,0.581206,-0.106188,0,0,0,0,0,0,0,0,0.699663
0.25,4.16390533900608,4.4456250964414785,-2.261441570568182,-2.1240870201829547,0.09206756161363634,0.9780208568181818,1.164703710397727,0.2648530876677434,-0.003291118623181818,-0.005943863602443183,2.1238301335261367,0.012460100886812502,0.01613214515099886,-0.5159259067902046,3.67980074081733,3.7881084042943183,3.8229162992965913,4.129180448748626,4.493971094970569,4.21900086257587,4.6103571348880115,3.9592013672982955,4.196561172128579,3.9277908266330686,4.458203998131817,4.8663015278750015,4.701423966311795,4.682012959615285,4.299338356428238,1.661898146284091,1.9338929542784096,2.358246411360398,2.028194045909091,2.3334999272102275,2.430482981161989,2.2191160086931814,-0.009129081426741476,-0.010732384201395398,-0.007305464145579545,-0.010069668262045453,-0.007901176473388068,-0.004478290770579375,-0.002628285929664206,-0.006360827179600566,-0.006072926550604601,-0.0023734089997361936,-0.0027723517409772728,-0.004481830040734213,-0.004012235211719318,-0.00896832211087108,-0.008026740556337501,-0.0077569338440647735,-0.003120765207023126,-0.007639007253124999,-0.0036964101094870447,-0.0030468981564381247,-0.0032384765717664785,-0.004205912307830852,-0.006896865824915471,-0.0058282859453312515,-0.004548719283404544,-0.007666520564386931,-0.008141323080671817,-0.007594931955322727,-0.0033479922248295445,-0.005361787980740908,-0.0021767843881608517,-0.003449850934772726,-0.0030254858740136367,-0.002975982015784091,-0.004094644661557052,-0.004713221702377842,-0.004269605921452843,-0.00814918555328091,-0.009521461852175,-0.009455173506497102,-0.006478126503564375,-0.004320865710684091,16.402941263801345,-7.899910681430622,0.8741171561772728,0.19402801021363644,0.6541910752954546,0.47165644883943636,0.291381,0.227735,0.00112965,0.00196376,0.157776,1,0.529289,0.190659,0.334071,0.303837,-0.393223,0.0656245,0.0605454,-0.338688,0,0.848442,-0.00495506,-0.242407,0.157726,0.191362,0.219297,0.00678233,-0.512702,0,0,0.981644,-0.0719541,0.0969887,0.18198,-0.342664,0.120819,-0.121917,0,0,0,0.907997,-0.553721,-0.112205,0.211716,0.350594,0.232398,0,0,0,0,0.752856,0.333839,-0.0719522,0.497604,-0.0344943,0,0,0,0,0,0.807218,-0.196918,-0.174996,-0.00828412,0,0,0,0,0,0,0.861049,0.0575609,-0.21387,0,0,0,0,0,0,0,0.759755,0.0267325,0,0,0,0,0,0,0,0,0.711225
0.25,4.372305339006079,4.339945096441478,-2.276901570568182,-2.0659970201829547,0.08612676161363635,0.9891808568181819,1.1647337103977269,0.0422696876677434,-0.0036895986231818183,-0.006030513602443183,2.1469901335261365,0.014740400886812503,0.015903445150998858,-0.5336889067902045,3.61838074081733,4.119048404294318,3.9436362992965917,4.226980448748626,4.769761094970569,4.83236086257587,4.836807134888012,4.380601367298295,4.043271172128579,4.230050826633069,4.323723998131817,4.776541527875001,4.626733966311796,4.709782959615286,4.183538356428238,1.857078146284091,2.1017829542784097,2.347246411360398,2.010944045909091,2.3204699272102274,2.4693529811619888,2.2579660086931814,-0.005190761426741477,-0.007561944201395398,-0.006409954145579546,-0.010095398262045455,-0.006891386473388067,-0.005030640770579375,-0.008211625929664207,-0.005282997179600566,-0.0057391365506046016,-0.0006893649997361933,-0.002575101740977273,-0.005641830040734213,-0.003154395211719318,-0.007868352110871078,-0.004765550556337501,-0.0028490338440647733,-0.007168415207023126,-0.007583837253125,-0.007291490109487045,-0.005715548156438125,-0.009490176571766479,-0.007042932307830852,-0.004718775824915471,-0.006024955945331252,-0.007507179283404545,-0.005548780564386931,-0.008134663080671818,-0.006647041955322727,-0.0034623122248295447,-0.005584297980740908,-0.0007648933881608519,-0.003387080934772726,-0.0030191458740136366,-0.003036292015784091,-0.004129884661557051,-0.008398901702377844,-0.004803175921452843,-0.007214795553280909,-0.009907401852175,-0.005266413506497102,-0.006085276503564375,-0.006562715710684091,20.02804126380134,-13.618500681430621,0.8593221561772728,0.19862801021363644,0.6509190752954547,0.5219374488394364,0.245648,0.337444,0.00183674,0.00209987,0.1822,1,0.406514,0.172231,-0.0361503,0.33184,-0.0413694,0.0271614,0.264317,-0.0507211,0,0.913645,-0.163672,-0.327334,0.0752411,-0.173102,-0.238505,-0.512555,0.292506,0,0,0.971364,0.476477,0.234532,0.186537,-0.0391831,-0.0874431,0.239148,0,0,0,0.815178,-0.271263,-0.0558904,-0.397268,-0.291063,-0.133948,0,0,0,0,0.869271,0.232787,-0.289458,0.336481,-0.0255987,0,0,0,0,0,0.936063,0.304562,-0.0595956,0.284953,0,0,0,0,0,0,0.778766,0.368332,0.226033,0,0,0,0,0,0,0,0.567996,-0.0211501,0,0,0,0,0,0,0,0,0.838655
0.25,4.138065339006079,4.493665096441479,-2.334641570568182,-2.167837020182955,0.10221906161363635,0.8605148568181819,1.146273710397727,0.1415060876677434,-0.0034767886231818184,-0.005967663602443183,2.3559101335261365,0.026683300886812502,0.01618354515099886,-0.5270209067902045,3.44310074081733,3.8380984042943185,4.627226299296591,3.7966904487486257,4.27134109497057,4.29684086257587,4.4107971348880115,3.678761367298296,4.338031172128579,4.347450826633069,4.650643998131818,4.8301015278750015,4.629933966311795,4.614692959615285,4.220038356428238,1.7938381462840909,2.1100529542784097,2.338056411360398,1.9828540459090909,2.3978299272102275,2.642172981161989,2.189996008693181,-0.002443961426741477,-0.0067907242013953975,-0.007504494145579545,-0.009923078262045455,-0.0040021264733880665,-0.004420860770579375,-0.004155235929664206,-0.011811867179600566,-0.0089391065506046,-0.0010027479997361931,-0.0028200317409772728,-0.002892400040734213,-0.003461225211719318,-0.006220162110871079,-0.005329000556337501,-0.006832463844064773,-0.005381415207023126,-0.006943617253124999,-0.008085150109487044,-0.006923438156438125,-0.007008056571766478,-0.002928092307830852,-0.005670165824915471,-0.0034768459453312518,-0.005899139283404545,-0.0065913505643869314,-0.007174023080671818,-0.0055588119553227275,-0.003223852224829545,-0.005400797980740908,-0.0015683043881608517,-0.0035099309347727263,-0.0026411158740136365,-0.002587972015784091,-0.004248984661557051,-0.003047451702377842,-0.006360025921452843,-0.007700865553280909,-0.009595391852175,-0.0057870535064971015,-0.005833806503564375,-0.003314915710684091,13.911241263801344,-12.316000681430623,0.8550491561772728,0.18652601021363643,0.6521330752954546,0.4466034488394363,0.342237,0.187031,0.00175345,0.00322896,0.260043,1,0.540659,0.361199,-0.000145178,0.233374,-0.052142,-0.404525,-0.261308,-0.00671616,0,0.841242,-0.0149354,0.0169956,0.434502,-0.0670125,0.0747554,0.520643,-0.349978,0,0,0.932369,0.0143895,0.210804,-0.261325,-0.260318,0.188579,0.160333,0,0,0,0.999752,0.0266654,-0.0642255,0.0934903,0.573717,0.31731,0,0,0,0,0.843561,-0.197435,0.02411,0.125062,-0.0817052,0,0,0,0,0,0.938826,-0.615608,-0.348005,-0.209321,0,0,0,0,0,0,0.612136,0.297975,0.264,0,0,0,0,0,0,0,0.265329,-0.246594,0,0,0,0,0,0,0,0,0.755038
0.25,4.5864453390060795,4.873735096441479,-2.3304115705681823,-2.1524670201829545,0.08542556161363635,0.9760608568181819,1.223053710397727,0.0755669876677434,-0.003937588623181818,-0.006949843602443183,2.1914901335261363,0.028403700886812502,0.01560044515099886,-0.47086490679020454,3.66030074081733,4.5912884042943185,4.482166299296591,4.421070448748626,4.6140410949705695,4.63933086257587,4.808737134888012,4.455331367298296,4.956871172128579,4.827580826633069,5.006143998131818,5.180821527875001,4.921143966311795,5.120822959615285,4.674448356428238,1.8404081462840909,2.2235029542784095,2.454146411360398,2.015344045909091,2.3536099272102273,2.518502981161989,2.288706008693181,-0.008706001426741477,-0.006460394201395397,-0.009464604145579546,-0.009731988262045453,-0.0065074564733880675,-0.004978840770579375,-0.009540665929664207,-0.003709007179600566,-0.006925846550604601,-0.0010140689997361933,-0.002548081740977273,-0.005588600040734213,-0.0029244052117193176,-0.00869090211087108,-0.0079349005563375,-0.004352863844064773,-0.007805015207023126,-0.006957807253124999,-0.009713000109487044,-0.007451328156438125,-0.005544586571766479,-0.005528732307830852,-0.005531135824915471,-0.0031524159453312516,-0.006220469283404545,-0.007157260564386932,-0.007799423080671818,-0.006737031955322727,-0.0035992922248295448,-0.004675687980740908,-0.001934054388160852,-0.0029501809347727264,-0.002642295874013637,-0.002380012015784091,-0.003774054661557051,-0.0065271817023778425,-0.007819025921452841,-0.005544205553280909,-0.008870481852175,-0.004511513506497102,-0.008967696503564375,-0.0058352857106840905,18.945241263801343,-14.614300681430622,0.8955111561772728,0.18890201021363645,0.6508090752954546,0.5051154488394363,0.0928037,0.152534,0.00132022,0.0019289,0.155348,1,0.121836,-0.0822599,0.483343,-0.0894613,-0.0496763,-0.396005,0.15406,-0.282309,0,0.99255,-0.0351939,-0.0991762,0.267196,-0.188316,0.221927,-0.474384,-0.114864,0,0,0.995989,0.294783,-0.0462009,0.402556,0.206641,0.125895,-0.282252,0,0,0,0.818319,-0.428473,0.344962,-0.0635353,-0.431186,-0.13996,0,0,0,0,0.857251,0.0626494,0.0426539,0.366546,0.225153,0,0,0,0,0,0.822857,0.44799,-0.127137,0.0542074,0,0,0,0,0,0,0.738022,0.168889,0.0119893,0,0,0,0,0,0,0,0.608614,0.0222687,0,0,0,0,0,0,0,0,0.86809
0.25,4.208265339006079,4.589775096441478,-2.343311570568182,-2.1744970201829545,0.10467406161363635,0.8773438568181818,0.963442710397727,0.1091200876677434,-0.0031194586231818185,-0.006341713602443183,2.1650501335261367,0.027679900886812502,0.01816294515099886,-0.5432529067902045,2.90024074081733,3.7312984042943182,4.414436299296591,4.361690448748626,4.24999109497057,4.78297086257587,4.4839471348880116,3.9778013672982957,4.343601172128579,4.451140826633068,4.865813998131817,4.980011527875002,4.689533966311795,4.747502959615285,4.216068356428238,1.592868146284091,2.0096629542784097,2.659716411360398,1.987544045909091,2.3144499272102275,2.534862981161989,2.2193960086931814,-0.0029727614267414768,-0.006514294201395397,-0.009024424145579545,-0.010288098262045454,-0.009439296473388066,-0.004149370770579375,-0.007038675929664206,-0.008541677179600566,-0.007991476550604601,-0.0021290589997361936,-0.0030196517409772725,-0.005923310040734213,-0.003962285211719318,-0.007580232110871079,-0.003981370556337501,-0.0037595838440647733,-0.008806545207023127,-0.0070157272531249995,-0.007577030109487045,-0.007734278156438124,-0.005318616571766478,-0.007128052307830852,-0.006471765824915471,-0.0037833759453312515,-0.006069009283404545,-0.005798940564386931,-0.007377393080671818,-0.005673591955322728,-0.0032770522248295447,-0.005147307980740908,-0.002658504388160852,-0.003753000934772726,-0.0032156558740136366,-0.0025543520157840912,-0.004562594661557052,-0.007618111702377842,-0.0062942159214528426,-0.010514405553280908,-0.009949101852175,-0.003771433506497102,-0.004675286503564375,-0.007682835710684091,16.493641263801344,-16.850800681430623,0.8504691561772728,0.19687701021363643,0.6519580752954547,0.46462344883943635,0.314302,0.151681,0.000756179,0.00174352,0.25026,1,0.402131,0.183298,-0.280149,0.0708053,0.0430828,0.25082,-0.302542,0.258031,0,0.915582,-0.19922,-0.133909,0.327946,-0.0129299,-0.176998,0.25644,-0.292142,0,0,0.962659,0.00407365,0.619001,-0.274292,-0.130422,0.317368,0.223792,0,0,0,0.950562,-0.0388029,-0.201069,0.081258,0.221793,0.409163,0,0,0,0,0.709063,-0.0952325,0.121188,0.0335761,-0.360524,0,0,0,0,0,0.934475,-0.5841,0.0470479,0.0117864,0,0,0,0,0,0,0.725457,-0.371135,0.049068,0,0,0,0,0,0,0,0.742772,-0.188792,0,0,0,0,0,0,0,0,0.680007
0.25,4.7944753390060795,4.813045096441479,-2.318331570568182,-2.168367020182955,0.08608536161363635,1.049140856818182,1.160033710397727,0.1270440876677434,-0.0036174486231818183,-0.005713973602443183,2.3096301335261367,0.026032900886812503,0.013571145150998859,-0.5035069067902046,3.9496407408173297,4.303198404294318,4.465266299296592,4.4904604487486255,4.58844109497057,4.93219086257587,4.9412971348880115,4.239671367298295,5.151871172128579,4.549820826633068,5.044943998131818,5.383241527875001,4.983433966311795,5.1360229596152855,4.719668356428238,1.792768146284091,1.8997429542784097,2.252466411360398,2.026874045909091,2.3174699272102273,2.586922981161989,2.2537360086931812,-0.012705481426741477,-0.008360664201395397,-0.008655454145579545,-0.009579648262045454,-0.003681706473388067,-0.004353370770579375,-0.008396725929664206,-0.005951187179600566,-0.006040026550604601,-0.0014093489997361933,-0.0023887617409772727,-0.005820960040734213,-0.003561135211719318,-0.004952372110871079,-0.006946590556337501,-0.005069073844064773,-0.0039701752070231255,-0.006710297253125,-0.006471640109487045,-0.006797388156438125,-0.006512516571766478,-0.0018870423078308522,-0.004235135824915471,-0.0024568359453312517,-0.0035838392834045447,-0.0077151905643869315,-0.0074296930806718176,-0.004661891955322727,-0.0034501422248295445,-0.004745757980740908,-0.0023102043881608517,-0.002945780934772726,-0.0036227558740136367,-0.002554502015784091,-0.003822394661557051,-0.005846461702377842,-0.007632105921452843,-0.009680705553280908,-0.008499611852175,-0.0034765235064971017,-0.005867836503564375,-0.010119985710684091,14.976541263801344,-18.067200681430624,0.8907901561772729,0.19196701021363644,0.6496150752954546,0.5137054488394364,0.216943,0.290818,0.00105596,0.00190475,0.210695,1,0.186412,0.304474,0.665427,-0.275666,-0.0443269,-0.281047,-0.126718,0.141666,0,0.982472,-0.179342,-0.261922,0.335092,-0.199826,0.129924,0.174148,-0.112435,0,0,0.935485,0.319032,-0.246661,0.224494,-0.00813793,0.221356,-0.304668,0,0,0,0.621951,0.256979,0.209679,-0.196585,0.0311323,-0.0396203,0,0,0,0,0.827551,-0.119016,-0.298715,0.368209,0.336871,0,0,0,0,0,0.921725,0.553539,0.144207,0.00836294,0,0,0,0,0,0,0.685408,0.0937197,-0.249261,0,0,0,0,0,0,0,0.859355,0.223591,0,0,0,0,0,0,0,0,0.8045
0.25,4.16578533900608,4.677195096441478,-2.344561570568182,-2.198077020182955,0.10166506161363635,0.9811108568181819,1.102213710397727,0.1116100876677434,-0.0033413086231818185,-0.0062618536024431825,2.3481801335261365,0.0293725008868125,0.01626244515099886,-0.5582809067902046,3.8592107408173297,3.9222984042943185,4.232626299296592,3.7358004487486256,4.324351094970569,4.11525086257587,4.5498271348880115,3.9630113672982956,4.523811172128579,4.610640826633069,4.582813998131818,5.240871527875002,4.602333966311795,4.884412959615285,4.488638356428238,1.568628146284091,2.1528329542784097,2.003556411360398,1.996554045909091,2.2433199272102273,2.409842981161989,2.2745760086931814,-0.014116181426741477,-0.006058444201395397,-0.007388744145579546,-0.009760608262045454,-0.007839306473388067,-0.005205190770579375,-0.004281755929664206,0.0013689428203994339,-0.0090267665506046,-0.0018495789997361933,-0.0026493017409772728,-0.004982040040734213,-0.0036177152117193175,-0.00925839211087108,-0.005562080556337501,-0.005695813844064773,-0.006625095207023126,-0.006887037253125,-0.0057247001094870445,-0.007399538156438124,-0.006463606571766478,-0.011001162307830853,-0.004170645824915471,-0.008612865945331252,-0.0059390892834045445,-0.0052977805643869315,-0.008256613080671818,-0.0037824319553227273,-0.0032631622248295447,-0.005211257980740908,-0.002119344388160852,-0.003404750934772726,-0.002259065874013637,-0.0029021620157840913,-0.004149244661557051,-0.013114161702377843,-0.002928865921452843,-0.005504245553280909,-0.009606951852175,-0.006946223506497102,-0.010964726503564375,-0.001991445710684091,7.846751263801345,-13.853400681430623,0.8544531561772729,0.19502701021363644,0.6558820752954546,0.4681204488394363,0.168519,0.305843,0.000667235,0.0022676,0.218619,1,0.0993023,0.162326,0.113174,-0.124842,0.0659664,0.212363,-0.00950936,-0.0325271,0,0.995057,-0.407627,0.165342,-0.00735892,0.161145,0.255296,-0.217007,-0.195772,0,0,0.898605,0.213845,-0.327633,-0.230426,0.0865464,-0.0508183,0.0470977,0,0,0,0.956098,-0.454763,-0.213867,0.216791,-0.294095,0.473145,0,0,0,0,0.818662,-0.171491,-0.346934,0.148526,-0.320985,0,0,0,0,0,0.917298,-0.466964,0.402327,0.14613,0,0,0,0,0,0,0.704854,-0.00928912,0.380183,0,0,0,0,0,0,0,0.824457,-0.0796841,0,0,0,0,0,0,0,0,0.677685
0.25,4.517105339006079,4.912495096441479,-2.285051570568182,-2.114837020182955,0.08302436161363635,1.0898308568181818,1.109193710397727,0.3011070876677434,-0.0032365186231818185,-0.005443873602443183,2.2480401335261364,0.0317786008868125,0.02052244515099886,-0.4899469067902046,3.91668074081733,4.2066684042943185,3.9233162992965913,4.560550448748626,4.50670109497057,4.73239086257587,4.6888571348880115,4.402511367298295,4.532851172128579,4.440980826633068,4.966073998131818,5.473091527875002,4.894683966311796,4.9762329596152854,4.527628356428238,1.929298146284091,1.9008429542784095,2.941326411360398,2.0036340459090907,2.2298899272102273,2.517832981161989,2.242746008693181,-0.005126991426741477,-0.0074775942013953975,-0.008323684145579546,-0.009992648262045455,-0.0048332864733880675,-0.004123120770579375,-0.006839085929664206,-0.006218397179600566,-0.011224356550604601,-0.0009897139997361933,-0.0025655817409772725,-0.006912180040734213,-0.0038529252117193175,-0.004260382110871079,-0.004665500556337501,-0.006087833844064773,-0.006048315207023126,-0.007074017253124999,-0.007200050109487045,-0.004557928156438125,-0.0044534665717664785,-0.000819504307830852,-0.000374161824915471,-0.008760455945331251,-0.0060973892834045446,-0.00877317056438693,-0.006976993080671818,-0.004853211955322727,-0.003513252224829545,-0.004960907980740908,-0.001436424388160852,-0.003157900934772726,-0.004058195874013636,-0.002499422015784091,-0.004117674661557051,-0.002775791702377842,-0.003691475921452843,-0.003809175553280909,-0.009182621852175001,-0.006127003506497102,-0.004868496503564375,-0.006163955710684091,7.590141263801344,-10.605900681430622,0.8732981561772729,0.19745501021363643,0.6501040752954547,0.5168344488394363,0.244177,0.301205,0.000881843,0.00236635,0.20558,1,0.399135,0.0965906,0.343163,0.296178,0.153342,-0.412741,0.292642,0.142462,0,0.916892,0.0019456,-0.0593413,0.229853,-0.217909,-0.342718,0.358788,-0.386675,0,0,0.995322,0.294353,0.403067,0.181669,-0.222664,0.516161,-0.187402,0,0,0,0.889985,-0.0745097,0.286465,0.104879,0.193341,-0.0643515,0,0,0,0,0.831524,0.184424,0.0112995,0.171961,0.151118,0,0,0,0,0,0.883133,0.675621,0.148485,0.416723,0,0,0,0,0,0,0.44161,0.026387,-0.238414,0,0,0,0,0,0,0,0.655374,0.267584,0,0,0,0,0,0,0,0,0.682634
0.25,4.627575339006079,4.8168250964414785,-2.3322415705681823,-2.1442770201829546,0.08846936161363635,1.0663008568181818,1.104433710397727,0.2289110876677434,-0.0029436086231818186,-0.005686373602443183,2.2795101335261365,0.034453300886812505,0.021122145150998858,-0.47897490679020455,4.0128707408173305,4.260708404294318,4.014266299296592,4.610930448748626,4.556401094970569,4.90938086257587,4.784727134888012,4.472941367298295,4.446881172128579,4.426540826633069,4.763863998131818,5.406261527875002,4.852703966311795,5.004892959615285,4.416608356428238,2.0004881462840913,1.8405829542784096,2.627126411360398,2.013354045909091,2.401239927210227,2.570532981161989,2.2110460086931814,-0.011860781426741476,-0.011941684201395398,-0.008481084145579545,-0.010002308262045454,-0.0008768794733880671,-0.004540930770579375,-0.007016015929664206,-0.006149677179600566,-0.008051416550604602,-0.0005626119997361932,-0.0025830317409772726,-0.006522740040734213,-0.003957295211719318,-0.004059542110871079,-0.0081689305563375,-0.012328703844064773,-0.005513595207023126,-0.007270707253125,-0.0037527901094870446,-0.0052073081564381245,-0.006552756571766479,-0.004670592307830852,-0.005871795824915471,-0.009271275945331253,-0.008324119283404544,-0.0042656405643869315,-0.007483123080671818,-0.008192581955322728,-0.0033562222248295446,-0.005134697980740908,-0.0016713243881608518,-0.0032132309347727263,-0.002371155874013637,-0.002751632015784091,-0.0037110146615570512,-0.002015111702377842,-0.006313425921452843,-0.002363285553280909,-0.008979581852175,-0.0066434935064971015,-0.006076816503564375,-0.005742075710684091,5.961901263801344,-10.062800681430621,0.8562501561772728,0.19264201021363644,0.6524650752954546,0.5343044488394363,0.25047,0.272088,0.000778095,0.00255597,0.197025,1,0.379512,0.151412,0.564375,0.305577,0.172184,-0.309243,0.180872,0.266067,0,0.925187,0.050077,-0.125982,0.236789,0.127711,-0.0266988,0.195484,-0.472641,0,0,0.987201,0.253332,0.222295,0.34917,-0.0136681,0.581388,-0.151277,0,0,0,0.775521,-0.255986,0.230636,0.369963,0.284144,-0.035471,0,0,0,0,0.857677,0.0739456,-0.0848286,-0.00308919,0.155974,0,0,0,0,0,0.879467,0.609332,0.352617,0.0694492,0,0,0,0,0,0,0.622989,-0.365863,-0.390276,0,0,0,0,0,0,0,0.502112,0.363978,0,0,0,0,0,0,0,0,0.606407
0.25,4.471655339006079,4.8602750964414785,-2.3759615705681822,-2.1966070201829546,0.09879816161363635,1.0193908568181818,1.113883710397727,0.0277543876677434,-0.0034264486231818186,-0.006905453602443183,2.2040101335261366,0.028755300886812503,0.011822745150998858,-0.5461369067902045,4.15318074081733,4.303628404294319,4.6775462992965915,4.394750448748626,4.54025109497057,4.5279408625758695,4.669017134888012,4.439181367298295,4.456991172128579,4.369470826633068,5.272983998131818,5.190381527875002,4.763503966311795,4.946782959615285,4.569648356428238,1.628398146284091,2.2187529542784095,2.598966411360398,2.001824045909091,2.3602099272102275,2.4854029811619887,2.2432660086931815,-0.008607471426741477,-0.005224724201395398,-0.008313734145579545,-0.009772148262045454,-0.004908526473388067,-0.0042921307705793745,-0.009106955929664207,-0.012929767179600565,-0.007726406550604601,-0.002208768999736193,-0.0025164117409772727,-0.007664560040734213,-0.0031978952117193175,-0.004966572110871079,-0.0059756105563375005,-0.005449093844064773,-0.002703715207023126,-0.0069228472531249995,-0.006846690109487045,-0.009059938156438125,-0.008481286571766479,-0.008127582307830852,-0.011216805824915473,-0.00817720594533125,-0.0031579592834045447,-0.011426680564386931,-0.007924273080671817,-0.0052348719553227275,-0.0032149122248295446,-0.0055586479807409085,-0.003081524388160852,-0.0033081709347727263,-0.0028435158740136367,-0.002527672015784091,-0.003951644661557051,-0.011393161702377842,-0.005941325921452843,-0.0030438255532809094,-0.009519241852175,-0.006583453506497102,-0.0031519165035643745,-0.005899815710684091,10.766941263801344,-13.376000681430622,0.8936671561772729,0.19128301021363645,0.6516080752954546,0.46887744883943633,0.130497,0.362588,0.00101588,0.00303758,0.186485,1,-0.0148755,0.237783,0.305601,0.0825527,-0.0929363,-0.231922,-0.109236,-0.0365155,0,0.999889,0.0277064,0.300971,0.270656,-0.191515,0.444959,0.172649,0.131047,0,0,0.970923,-0.10847,0.397901,0.0335636,-0.207868,0.0523315,0.151572,0,0,0,0.896805,-0.469839,-0.219157,-0.449185,0.0502206,0.683691,0,0,0,0,0.735429,-0.240459,-0.0384564,-0.231171,0.0940572,0,0,0,0,0,0.920711,-0.35707,-0.288414,0.165715,0,0,0,0,0,0,0.611776,0.213782,0.30799,0,0,0,0,0,0,0,0.87788,-0.120864,0,0,0,0,0,0,0,0,0.587632
0.25,4.373755339006079,5.041915096441478,-2.3233715705681823,-2.1772170201829546,0.09203316161363635,1.0132008568181818,1.127303710397727,0.0901791876677434,-0.0029250386231818182,-0.006196753602443183,2.1925001335261367,0.030782600886812506,0.011453845150998858,-0.5042929067902046,3.85217074081733,4.140378404294318,4.474286299296591,4.1059804487486256,4.426691094970569,4.470210862575869,4.622047134888012,4.401911367298296,4.672001172128579,4.610770826633068,4.703323998131817,5.281101527875002,4.8023439663117955,5.184602959615285,4.611688356428238,1.922548146284091,2.0669829542784095,2.242036411360398,1.9752740459090907,2.3589099272102274,2.5012729811619887,2.2569360086931813,-0.005396771426741477,-0.009256104201395398,-0.0067461741455795456,-0.010190798262045454,-0.005864446473388067,-0.004653690770579375,-0.004552515929664206,-0.004584047179600566,-0.003674146550604601,-0.0018669189997361933,-0.0024293117409772726,-0.005538720040734213,-0.0040365152117193175,-0.010354692110871078,-0.006026370556337501,-0.008547553844064772,-0.004024005207023126,-0.007281167253124999,-0.005665660109487045,-0.0031576781564381247,-0.008361946571766478,-0.005293622307830852,-0.005218305824915471,-0.0030010859453312513,-0.004144879283404544,-0.0028969005643869313,-0.0076100730806718175,-0.007327731955322727,-0.0033881322248295446,-0.004975007980740908,-0.0017901443881608518,-0.003249800934772726,-0.0024845858740136367,-0.002872862015784091,-0.004114704661557051,-0.009905821702377842,-0.008250925921452844,-0.007455405553280909,-0.009325611852175,-0.006848863506497102,-0.0022639165035643746,-0.0034252057106840907,8.177391263801344,-6.708120681430622,0.8618451561772729,0.19880901021363645,0.6478820752954546,0.49809144883943635,0.230662,0.363513,0.00115422,0.00252771,0.177985,1,0.304239,0.318303,-0.20992,0.0345619,-0.236909,0.0674567,-0.49515,0.308592,0,0.952596,-0.0347814,-0.0165758,-0.183395,0.0934484,-0.268968,0.143392,0.159774,0,0,0.947351,0.0337032,-0.248625,0.250946,0.244115,0.322411,0.608714,0,0,0,0.976997,0.117674,0.168455,-0.179564,-0.25832,0.310089,0,0,0,0,0.943138,0.647807,-0.243057,0.205105,-0.280579,0,0,0,0,0,0.651258,-0.494603,0.358969,-0.254852,0,0,0,0,0,0,0.726334,0.279652,-0.4209,0,0,0,0,0,0,0,0.560763,-0.000734393,0,0,0,0,0,0,0,0,0.30286
0.25,4.6441353390060796,4.9177550964414785,-2.347401570568182,-2.1490370201829547,0.08872096161363635,0.9716008568181818,1.155793710397727,0.0947789876677434,-0.0029272286231818182,-0.007854303602443182,2.1701101335261366,0.028042400886812504,0.01078914515099886,-0.4417399067902046,3.79179074081733,4.430408404294319,4.6212162992965915,4.630790448748626,4.673901094970569,4.93287086257587,4.950037134888012,4.501781367298296,4.599191172128579,4.600040826633069,4.745093998131818,5.1046415278750015,4.810523966311795,5.172492959615285,4.557858356428238,1.457598146284091,1.9578529542784096,2.325486411360398,1.9790540459090908,2.3449399272102274,2.556492981161989,2.2691260086931813,-0.011191981426741476,-0.0034874842013953977,-0.007622794145579545,-0.009953008262045454,-0.005681146473388067,-0.004013280770579375,-0.006317215929664206,-0.008214257179600566,-0.0082319365506046,-0.002343308999736193,-0.0028537417409772725,-0.012105150040734213,-0.003364695211719318,-0.007693582110871079,-0.0104571805563375,-0.008501953844064773,-0.005159125207023126,-0.006803597253124999,-0.008139530109487043,-0.010182078156438125,-0.009350216571766478,-0.0073631323078308525,-0.008310715824915473,-0.011217255945331253,-0.010497729283404545,-0.007581890564386931,-0.007645193080671818,-0.007518241955322727,-0.003223712224829545,-0.005270577980740908,-0.0024691943881608516,-0.003099940934772726,-0.0034788258740136367,-0.002450602015784091,-0.003996234661557052,-0.00923776170237784,-0.006108325921452843,-0.008820375553280909,-0.008720361852175,-0.006512463506497102,-0.009543466503564375,-0.00946961571068409,7.751511263801344,-7.633490681430622,0.8773521561772729,0.19228901021363645,0.6516770752954546,0.47157444883943633,0.179759,0.373985,0.00107565,0.00317408,0.237328,1,0.169344,0.362244,0.494002,-0.147266,0.0408033,-0.0393753,-0.293505,0.172212,0,0.985557,0.0784353,-0.0334576,0.0613997,-0.110237,0.311936,0.150371,0.27952,0,0,0.928777,0.274385,0.205838,0.323081,-0.04599,0.197914,-0.0946445,0,0,0,0.824352,-0.282849,0.0488696,0.416299,-0.699073,0.25507,0,0,0,0,0.92313,0.183641,-0.2889,0.0912569,-0.279356,0,0,0,0,0,0.919614,0.00584361,0.070734,-0.164212,0,0,0,0,0,0,0.801391,0.338619,-0.813948,0,0,0,0,0,0,0,0.485157,0.169686,0,0,0,0,0,0,0,0,0.147931
0.25,4.741205339006079,5.103345096441479,-2.430971570568182,-2.257327020182955,0.09464986161363635,0.8723498568181819,1.107183710397727,0.2866330876677434,-0.0025762886231818186,-0.005744013602443183,2.2255701335261366,0.022126300886812503,0.01333564515099886,-0.5257979067902046,3.67196074081733,4.6021984042943185,5.057796299296592,4.798540448748626,4.988181094970569,5.1432508625758695,5.2374671348880115,4.549901367298296,5.0119311721285795,4.8048808266330685,5.089733998131818,5.410691527875001,5.190713966311796,5.503782959615285,4.831548356428238,1.956148146284091,2.0911429542784097,2.370446411360398,2.017824045909091,2.263689927210227,2.579012981161989,2.2485360086931814,-0.007471151426741477,-0.007603884201395398,-0.007103304145579545,-0.009408518262045454,-0.007568696473388067,-0.004066230770579375,-0.0023809859296642063,-0.007368297179600566,-0.006409916550604601,-0.0015589389997361933,-0.002211871740977273,-0.0031935300407342133,-0.0032337052117193178,-0.007651672110871079,-0.005621790556337501,-0.006670963844064773,-0.007284215207023126,-0.0068328672531249995,-0.005372040109487045,-0.003435288156438125,-0.004976386571766478,-0.006013672307830852,-0.004270755824915471,-0.0038767359453312517,-0.0076382292834045445,-0.003993790564386932,-0.007369283080671818,-0.003657311955322727,-0.0030270722248295447,-0.0045354279807409085,-0.0022150643881608516,-0.002943970934772726,-0.0019575158740136366,-0.0027113520157840913,-0.0036699246615570515,-0.007555941702377842,-0.008052455921452845,-0.003743155553280909,-0.009105721852175,-0.004665783506497102,-0.003522816503564375,-0.004062205710684091,18.082641263801342,-12.316100681430623,0.8683691561772728,0.19908301021363645,0.6465160752954546,0.49194244883943633,0.273515,0.203275,0.000987072,0.00242562,0.132448,1,0.487884,0.185204,-0.508441,0.224705,0.0794098,0.0738606,-0.0929264,0.0231835,0,0.872908,0.0943857,-0.0266098,-0.362535,0.482531,-0.0411139,0.299448,0.386148,0,0,0.978157,0.444799,0.0334895,-0.181416,-0.329282,0.0924687,0.17285,0,0,0,0.73684,-0.120054,0.129065,-0.186458,0.185547,-0.289903,0,0,0,0,0.895847,-0.312885,0.118347,-0.0148306,0.0598325,0,0,0,0,0,0.783193,0.361669,0.329042,0.0916845,0,0,0,0,0,0,0.839554,-0.0114986,0.724434,0,0,0,0,0,0,0,0.866081,0.0460114,0,0,0,0,0,0,0,0,0.444437
0.25,4.595295339006079,4.785925096441479,-2.363531570568182,-2.1429170201829546,0.09152076161363636,0.9186018568181818,1.178733710397727,0.1624060876677434,-0.003916848623181818,-0.007031013602443183,2.1850601335261364,0.0235235008868125,0.014071845150998859,-0.48557490679020454,3.62857074081733,4.166348404294318,3.9464362992965913,4.782500448748626,4.787091094970569,4.986110862575869,5.008237134888012,4.366271367298296,4.499281172128579,4.440580826633068,4.958403998131818,4.955331527875002,4.923363966311795,4.9034329596152855,4.534148356428238,1.682998146284091,2.0242329542784097,2.458696411360398,1.9829140459090908,2.3445899272102273,2.482342981161989,2.281176008693181,-0.005185651426741477,-0.0016176742013953977,-0.008187394145579546,-0.010000968262045454,-0.010394116473388067,-0.004765790770579374,-0.007183815929664206,-0.008681007179600566,-0.010631156550604601,-0.0013705989997361931,-0.0027888617409772727,-0.004604900040734213,-0.0037483352117193176,-0.00924698211087108,-0.005510130556337501,-0.005710733844064773,-0.005344225207023126,-0.007098327253124999,-0.009937410109487045,-0.011332778156438125,-0.0016599965717664783,-0.005384852307830852,-0.01175640582491547,-0.006220325945331251,-0.0058600692834045445,-0.004186830564386931,-0.008080003080671817,-0.009418071955322727,-0.0031049922248295447,-0.005533187980740908,-0.0019120443881608519,-0.003233860934772726,-0.0034677858740136368,-0.002338082015784091,-0.003826774661557051,-0.004586791702377842,-0.002594035921452843,-0.007956355553280909,-0.009119601852175,-0.009044133506497102,-0.010206526503564375,-0.010050215710684091,18.066441263801345,-14.195500681430621,0.8814461561772728,0.19504801021363644,0.6470350752954547,0.5018354488394363,0.258603,0.227077,0.000894298,0.00294303,0.282982,1,0.190584,0.106168,-0.00389755,0.23607,-0.470113,0.231681,0.299126,-0.432143,0,0.981671,-0.0471098,-0.639738,0.627298,-0.156699,0.0575655,0.125482,0.000541919,0,0,0.993232,-0.309016,0.0370105,0.441405,0.231143,0.0756707,-0.122484,0,0,0,0.703725,-0.0467196,-0.107391,-0.231342,-0.220843,0.215289,0,0,0,0,0.73974,0.247853,-0.393271,0.733754,-0.224349,0,0,0,0,0,0.697594,0.123837,-0.0465342,-0.482783,0,0,0,0,0,0,0.816129,0.143361,0.234778,0,0,0,0,0,0,0,0.528362,0.0885561,0,0,0,0,0,0,0,0,0.636809
0.25,4.57632533900608,4.793735096441479,-2.355991570568182,-2.1445470201829546,0.09151456161363634,0.9171868568181818,1.177063710397727,0.1627780876677434,-0.003969528623181819,-0.007054593602443183,2.1876101335261366,0.0224293008868125,0.014212245150998858,-0.48352090679020454,3.62909074081733,4.161938404294318,3.9667862992965914,4.755230448748626,4.772781094970569,4.994000862575869,4.954367134888011,4.356721367298296,4.520091172128579,4.461650826633068,4.953333998131818,4.983071527875002,4.924773966311795,4.907122959615285,4.544118356428238,1.732058146284091,2.0253829542784096,2.451146411360398,2.0161040459090906,2.3523299272102274,2.4593729811619887,2.2794660086931815,-0.005529471426741477,-0.0017314942013953976,-0.007993704145579546,-0.010267498262045455,-0.010757216473388067,-0.0046547807705793745,-0.007083085929664206,-0.008564327179600565,-0.0106998565506046,-0.0014757589997361933,-0.0024600617409772725,-0.004363060040734213,-0.003614585211719318,-0.009299132110871078,-0.005368090556337501,-0.005686463844064773,-0.005369255207023126,-0.007147727253125,-0.009707470109487044,-0.011117278156438124,-0.0016605765717664783,-0.005154682307830852,-0.011477005824915471,-0.006430615945331251,-0.005864869283404545,-0.0037710605643869314,-0.008388563080671818,-0.009489941955322725,-0.0030267222248295447,-0.005378677980740908,-0.0018998143881608519,-0.003235750934772726,-0.0035785158740136366,-0.002376952015784091,-0.003823774661557051,-0.005094641702377842,-0.0029875359214528428,-0.00806044555328091,-0.009074741852175,-0.009760473506497102,-0.009914206503564376,-0.010081665710684092,19.012741263801345,-14.669200681430622,0.8830781561772728,0.19344101021363644,0.6469240752954546,0.5001754488394363,0.254984,0.229259,0.000900104,0.00293181,0.260915,1,0.169053,0.118439,-0.00460063,0.256177,-0.471143,0.213865,0.259226,-0.442244,0,0.985607,-0.0349531,-0.628211,0.625735,-0.15395,0.0699369,0.119045,-0.000796507,0,0,0.992346,-0.283955,0.0413238,0.433348,0.225029,0.0736772,-0.118646,0,0,0,0.724361,-0.0601145,-0.0891939,-0.257626,-0.197255,0.235752,0,0,0,0,0.733149,0.227792,-0.382884,0.750426,-0.234245,0,0,0,0,0,0.711821,0.0962942,-0.0254231,-0.460664,0,0,0,0,0,0,0.822489,0.126206,0.252295,0,0,0,0,0,0,0,0.542751,0.0698813,0,0,0,0,0,0,0,0,0.631779
0.25,4.820195339006079,5.064535096441478,-2.462771570568182,-2.265717020182955,0.09601536161363634,0.9549828568181818,1.138933710397727,0.0077629576677434005,-0.0033823686231818184,-0.006365733602443183,2.2581801335261367,0.022691500886812502,0.009336345150998859,-0.4442569067902046,4.16665074081733,4.438108404294319,4.844186299296592,4.760360448748625,5.0394810949705695,5.123710862575869,5.279997134888012,4.573631367298296,4.973661172128579,4.807340826633069,5.060403998131818,5.400291527875002,5.052703966311795,5.2478629596152855,4.961608356428238,1.887968146284091,2.1558429542784094,2.576116411360398,1.9974640459090907,2.2736099272102273,2.602782981161989,2.262806008693181,-0.004792941426741477,-0.0013035642013953976,-0.0060648641455795455,-0.009407108262045454,-0.0058842564733880675,-0.0033357207705793745,-0.003963745929664206,-0.003948217179600566,-0.010375556550604601,-0.00039175099973619325,-0.0023676017409772726,-0.006566330040734213,-0.0036285652117193177,-0.005742472110871079,-0.006380740556337501,-0.004330683844064773,-0.008827835207023125,-0.006953337253125,-0.003252580109487045,-0.0054028781564381245,-0.010430946571766478,-0.0023765923078308522,-0.006071815824915471,-0.009488595945331253,-0.010838229283404544,-0.007664390564386931,-0.006572593080671818,-0.007017911955322727,-0.003129212224829545,-0.004876337980740908,-0.0008768333881608518,-0.0028314509347727264,-0.0029426758740136367,-0.002220532015784091,-0.0035079846615570513,-0.006236751702377842,-0.006667605921452843,-0.0073600955532809095,-0.008798551852175,-0.007425393506497102,-0.0022580165035643745,-0.007027145710684091,12.960441263801345,-14.960600681430622,0.8622921561772728,0.19590601021363643,0.6522730752954546,0.47551044883943633,0.294103,0.147396,0.00112453,0.00250445,0.183297,1,0.518704,0.272254,-0.0914248,-0.042793,0.0562786,-0.31883,0.263929,-0.11839,0,0.854954,-0.111748,-0.497352,0.108048,-0.312928,-0.403854,-0.0528392,0.215615,0,0,0.955715,0.0086873,0.00262319,-0.370637,-0.0893178,0.438683,0.18264,0,0,0,0.862674,-0.0848006,0.144393,0.102078,-0.0166562,0.299599,0,0,0,0,0.989594,0.214889,-0.0354661,0.465113,-0.135639,0,0,0,0,0,0.833373,0.498116,0.0293504,0.15559,0,0,0,0,0,0,0.68372,0.255654,-0.0784017,0,0,0,0,0,0,0,0.672517,-0.237139,0,0,0,0,0,0,0,0,0.843439
0.25,4.80098533900608,4.941525096441478,-2.437601570568182,-2.246607020182955,0.09785246161363635,0.9328028568181819,1.147453710397727,0.014333487667743401,-0.0037202886231818186,-0.005559383602443183,2.2568601335261365,0.020989500886812503,0.008635945150998858,-0.4750649067902046,4.2758707408173295,4.440168404294319,4.873236299296591,4.8080504487486255,4.94563109497057,4.8117708625758695,5.127327134888012,4.310351367298296,4.864331172128579,4.675830826633068,4.9688739981318175,5.3135615278750015,4.867233966311796,5.231292959615285,4.759618356428238,1.898048146284091,2.18369295427841,2.5174364113603978,2.011244045909091,2.2755399272102275,2.5574729811619887,2.2421060086931814,-0.004832871426741477,-0.004573554201395397,-0.007170564145579546,-0.009656158262045455,-0.006121776473388067,-0.004015730770579375,-0.0033820759296642063,-0.004571357179600566,-0.004361006550604602,-0.00047408199973619325,-0.0022461717409772725,-0.0066093800407342135,-0.0035637352117193176,-0.004254662110871079,-0.0078185705563375,-0.006295753844064773,-0.006499815207023126,-0.007079767253124999,-0.0054174201094870445,-0.0017854081564381247,-0.005513516571766478,-0.001697602307830852,-0.006179125824915471,-0.01004585594533125,-0.008385989283404545,-0.005289570564386932,-0.007082433080671817,-0.006115231955322727,-0.003250362224829545,-0.005282217980740908,-0.0011071143881608517,-0.002898020934772726,-0.0026696458740136366,-0.002425772015784091,-0.0034116846615570512,-0.007641591702377842,-0.005457915921452843,-0.00897718555328091,-0.009449101852175,-0.007141263506497102,-0.003212696503564375,-0.008992715710684092,16.916141263801343,-11.849600681430623,0.8461581561772729,0.18755801021363644,0.6483240752954547,0.47781944883943633,0.35693,0.187105,0.00113324,0.00252415,0.16386,1,0.584269,0.225686,-0.243995,0.153173,0.117058,-0.0383023,0.0523818,-0.141478,0,0.81156,-0.126079,-0.286379,-0.189634,0.071201,-0.257231,0.0860781,-0.00412087,0,0,0.966007,-0.112266,0.00985749,0.00346376,-0.372705,0.625114,0.181199,0,0,0,0.919701,-0.184189,0.218142,-0.0303149,-0.0577068,0.364975,0,0,0,0,0.952131,0.134595,-0.117307,0.238499,-0.0598308,0,0,0,0,0,0.956825,0.383323,-0.264166,0.136609,0,0,0,0,0,0,0.794883,0.157357,-0.166344,0,0,0,0,0,0,0,0.666575,-0.0225902,0,0,0,0,0,0,0,0,0.873787
0.25,4.57759533900608,4.579895096441478,-2.337151570568182,-2.1435370201829547,0.09158176161363635,0.9192668568181819,1.157363710397727,0.1930930876677434,-0.0033485686231818183,-0.005046943602443183,2.2706801335261364,0.018323300886812503,0.009532145150998858,-0.5728269067902045,3.7771807408173297,4.120588404294319,4.5235962992965915,4.453910448748625,4.770651094970569,4.5021108625758695,4.889347134888012,4.137921367298295,4.44673117212858,4.436510826633069,4.703103998131818,4.9071215278750016,4.548273966311795,4.709782959615286,4.465028356428238,1.9678881462840911,2.0536329542784095,2.408336411360398,1.972354045909091,2.3551699272102273,2.6119029811619887,2.265796008693181,-0.004528391426741477,-0.0037879142013953976,-0.009132574145579546,-0.009794428262045454,-0.0047246264733880675,-0.004228670770579375,-0.004849835929664206,-0.009200797179600565,-0.005177956550604601,-0.00036533899973619324,-0.0026188217409772725,-0.007984210040734213,-0.003062225211719318,-0.004190392110871079,-0.008268090556337501,-0.005411163844064773,-0.009852075207023126,-0.006986437253124999,-0.006837390109487045,-0.003962998156438125,-0.006697976571766478,-0.0000626326078308521,-0.005393815824915471,-0.004641745945331252,-0.010516829283404545,-0.005119940564386931,-0.007568473080671817,-0.0015773319553227271,-0.0032644122248295447,-0.004988567980740908,-0.001502844388160852,-0.0034749409347727264,-0.0029818858740136367,-0.002451732015784091,-0.003985264661557051,-0.005552511702377842,-0.0026638259214528427,-0.005057255553280909,-0.009484381852175,-0.007068733506497102,-0.008245476503564376,-0.002955535710684091,18.181441263801347,-7.672170681430622,0.8976211561772729,0.20126601021363644,0.6485470752954546,0.5099984488394363,0.227204,0.151781,0.00116061,0.00281755,0.238695,1,0.279972,-0.134077,0.185932,-0.244873,0.576829,-0.595204,-0.499462,0.0907375,0,0.960008,-0.325246,-0.240679,0.0151191,-0.226822,-0.554801,0.38786,-0.304729,0,0,0.936076,-0.150961,0.464946,-0.325065,0.176321,0.483547,-0.28067,0,0,0,0.940592,-0.299222,0.116304,0.0799439,-0.374291,0.516884,0,0,0,0,0.796304,-0.0670801,-0.121781,-0.0355334,0.345749,0,0,0,0,0,0.701517,-0.0623301,0.149826,-0.0174344,0,0,0,0,0,0,0.530785,-0.0790491,0.25794,0,0,0,0,0,0,0,0.442981,-0.00111121,0,0,0,0,0,0,0,0,0.605459
0.25,4.5815653390060795,4.478685096441478,-2.373041570568182,-2.174477020182955,0.09522756161363635,0.9200678568181818,1.128023710397727,0.0817541876677434,-0.0033920686231818185,-0.006458173602443183,2.2505501335261364,0.020565300886812504,0.008592945150998859,-0.49026490679020457,3.90201074081733,4.148218404294318,4.6458962992965915,4.485070448748625,4.795311094970569,4.718310862575869,4.9562171348880115,4.135841367298296,4.435181172128579,4.286880826633069,4.457593998131817,4.917561527875002,4.621493966311795,4.959882959615285,4.485908356428238,1.6581281462840909,1.9977429542784098,2.5663764113603977,2.011324045909091,2.3718399272102273,2.6531129811619887,2.2023660086931813,-0.011195181426741477,-0.004977854201395398,-0.009013524145579547,-0.009843638262045455,-0.0015818264733880672,-0.004268110770579375,-0.005758735929664206,-0.010270667179600566,-0.004849976550604602,-0.0009483559997361933,-0.0025137317409772725,-0.008501010040734214,-0.0036363152117193176,-0.0066455821108710785,-0.005101430556337501,-0.004247553844064773,-0.007486275207023126,-0.006901537253124999,-0.006029730109487045,-0.008510828156438124,-0.009352376571766479,-0.007935292307830851,-0.003212615824915471,-0.007802985945331252,-0.009757939283404545,-0.00848921056438693,-0.007192993080671817,-0.0040483719553227274,-0.0033671022248295446,-0.0052418679807409085,-0.0014034343881608518,-0.0030963809347727264,-0.0029022458740136366,-0.002533192015784091,-0.004186064661557052,-0.007935911702377842,-0.004150315921452843,-0.010573505553280908,-0.009197721852175,-0.006674973506497102,-0.005141286503564374,-0.0030235757106840907,10.117341263801345,-7.418450681430622,0.8898981561772729,0.19359401021363645,0.6493160752954547,0.4928804488394363,0.241504,0.218653,0.00105929,0.00309639,0.22053,1,0.34839,-0.0524857,0.27584,0.335472,0.547504,-0.341706,-0.15821,0.122051,0,0.93735,0.100904,-0.0102266,0.116502,-0.462211,-0.419424,0.566288,-0.197474,0,0,0.993511,-0.15347,0.11395,-0.372137,0.272511,0.401735,-0.111855,0,0,0,0.948818,-0.00530576,0.00771068,0.117619,-0.271484,0.351231,0,0,0,0,0.927832,-0.0678982,-0.130047,-0.113118,0.0422183,0,0,0,0,0,0.586042,-0.319693,0.421475,-0.061913,0,0,0,0,0,0,0.707183,-0.16065,-0.18454,0,0,0,0,0,0,0,0.450497,-0.355718,0,0,0,0,0,0,0,0,0.802513
0.25,4.53297533900608,4.532355096441479,-2.3428215705681823,-2.145477020182955,0.09331596161363635,0.9464408568181818,1.150853710397727,0.1044570876677434,-0.0036282386231818184,-0.006154743602443183,2.1863001335261365,0.017893100886812504,0.011535345150998858,-0.5013889067902045,3.7980707408173298,4.087778404294318,4.238736299296591,4.546840448748625,4.77174109497057,4.65804086257587,4.825407134888012,3.9873013672982958,4.3599511721285795,4.365200826633068,4.551773998131818,4.890351527875001,4.588253966311795,4.722912959615285,4.4680283564282375,1.892488146284091,1.8441129542784096,2.357876411360398,2.0108140459090906,2.3312999272102273,2.582582981161989,2.205466008693181,-0.007689511426741478,-0.007523204201395397,-0.008238564145579545,-0.010094888262045455,-0.0005882824733880671,-0.003909830770579374,-0.007072005929664206,-0.008458337179600567,-0.006647236550604601,-0.0008213309997361932,-0.0025933917409772726,-0.008528370040734212,-0.0034146752117193177,-0.006179812110871079,-0.004938780556337501,-0.008672283844064772,-0.007504525207023126,-0.0072561272531249995,-0.0034252701094870447,-0.004371738156438125,-0.010499646571766478,-0.007793952307830852,-0.003721575824915471,-0.004886915945331251,-0.008894909283404544,-0.01099218056438693,-0.007100483080671818,-0.003064051955322727,-0.0033216022248295446,-0.005305237980740908,-0.0022498843881608517,-0.0033285309347727264,-0.0035347258740136365,-0.002288652015784091,-0.004394604661557052,-0.006928591702377842,-0.0069761259214528425,-0.01025460555328091,-0.009356751852175,-0.0070480535064971015,-0.008020916503564374,-0.006366655710684091,13.669841263801345,-15.63560068143062,0.8910771561772729,0.19665301021363643,0.6433870752954547,0.4738904488394363,0.249363,0.186192,0.00111372,0.00314307,0.192055,1,0.435628,0.0644642,0.252503,0.138424,0.374168,-0.354407,-0.217445,0.275655,0,0.900127,0.122032,0.0285873,0.317105,-0.242218,-0.481469,0.297681,-0.22,0,0,0.99043,0.137725,0.293118,-0.0646773,0.282107,0.47222,-0.415904,0,0,0,0.957317,-0.424609,0.197448,-0.313599,-0.412932,0.438024,0,0,0,0,0.783628,-0.218293,-0.100923,-0.0244639,0.0568116,0,0,0,0,0,0.842917,-0.46155,0.555676,-0.0998551,0,0,0,0,0,0,0.491366,-0.157642,0.0277322,0,0,0,0,0,0,0,0.369287,0.196602,0,0,0,0,0,0,0,0,0.67687
0.25,4.076645339006079,4.481695096441478,-2.317421570568182,-2.177057020182955,0.10332106161363636,0.8654508568181819,1.0588837103977269,0.0341614876677434,-0.0044284386231818185,-0.006696423602443183,2.0828101335261366,0.018497800886812504,0.010963045150998859,-0.5490939067902045,3.42952074081733,3.6599584042943185,3.7787262992965913,4.000260448748626,4.4077010949705695,4.100580862575869,4.504697134888012,3.4367013672982956,4.221381172128579,4.225380826633068,4.454643998131818,4.809671527875002,4.513363966311795,4.834242959615285,4.316458356428238,1.700498146284091,2.0831729542784094,2.482996411360398,1.9871740459090907,2.3862799272102273,2.5300929811619888,2.2074460086931813,-0.010690081426741476,-0.005900724201395397,-0.006790764145579545,-0.009755198262045454,-0.002950186473388067,-0.004900220770579375,-0.011907845929664207,-0.006481257179600566,-0.007764116550604602,-0.0008403999997361933,-0.0027820217409772726,-0.010643650040734212,-0.0030174852117193177,-0.005074872110871079,-0.006417330556337501,-0.009745123844064774,-0.004741475207023126,-0.006923097253125,-0.0027231201094870447,-0.008374018156438125,-0.008134596571766479,-0.003229342307830852,-0.007946715824915471,-0.005251465945331252,-0.009847029283404545,-0.007092770564386931,-0.007622003080671818,-0.002345691955322727,-0.0035997022248295445,-0.004915817980740908,-0.001749484388160852,-0.0035436709347727263,-0.003107825874013637,-0.002907922015784091,-0.0044912546615570505,-0.000988087702377842,-0.005192265921452843,-0.01049190555328091,-0.009142891852175001,-0.008333943506497101,-0.011712326503564376,-0.008871235710684091,5.350961263801344,-14.113700681430622,0.8460791561772729,0.19191601021363644,0.6564020752954547,0.4961544488394363,0.300241,0.169048,0.000997216,0.00294536,0.205666,1,0.74095,0.166865,0.257722,0.115505,-0.0738437,-0.701767,0.275339,0.158996,0,0.67156,-0.0295931,0.29162,-0.0942321,0.198239,0.046654,0.469845,-0.375645,0,0,0.985536,0.286139,0.259434,0.271005,0.233499,0.325843,-0.663453,0,0,0,0.875592,-0.507192,0.230156,-0.105993,-0.0479892,0.211103,0,0,0,0,0.808226,-0.47785,0.106059,0.0205098,-0.293531,0,0,0,0,0,0.774914,0.0609414,0.188204,-0.14274,0,0,0,0,0,0,0.651634,-0.250766,0.0558067,0,0,0,0,0,0,0,0.704438,0.157586,0,0,0,0,0,0,0,0,0.463027
0.25,4.60459533900608,4.735645096441479,-2.316771570568182,-2.1314670201829546,0.08491396161363635,1.0359708568181818,1.124833710397727,0.1110600876677434,-0.0032875086231818184,-0.006147163602443183,2.0555701335261367,0.021253100886812502,0.013571545150998858,-0.4919519067902045,3.50376074081733,4.123708404294319,4.5807462992965915,4.629800448748625,4.81057109497057,4.87914086257587,4.740747134888012,3.9905213672982955,4.611361172128579,4.715650826633069,4.6775839981318175,5.079101527875002,4.800973966311795,4.732672959615285,4.457058356428238,1.721288146284091,2.0977529542784095,2.717946411360398,2.0069040459090908,2.381789927210227,2.4814129811619887,2.2575560086931814,-0.0008471214267414767,-0.0044079142013953975,-0.010103714145579545,-0.009783298262045454,-0.003831006473388067,-0.004159970770579374,-0.0005830759296642063,-0.007201297179600566,-0.006941926550604601,-0.0010696989997361931,-0.0026689817409772726,-0.0011678400407342132,-0.0030842452117193176,-0.006564012110871079,0.0007445794436624993,-0.005323483844064773,-0.008515055207023127,-0.006714627253124999,-0.008027830109487044,-0.006738268156438125,-0.0033959965717664784,-0.010365662307830852,-0.007950225824915471,-0.01003815594533125,-0.005804789283404545,-0.0030011005643869313,-0.007617323080671818,-0.009570891955322729,-0.0033421822248295447,-0.005243297980740908,-0.002258164388160852,-0.003148050934772726,-0.0032702558740136368,-0.002321892015784091,-0.0038898146615570514,-0.010779261702377842,-0.005738995921452843,0.0013642444467190909,-0.009173951852175,-0.0043936035064971015,-0.002105916503564375,-0.003322655710684091,7.316181263801345,-7.3644806814306225,0.8891971561772729,0.19638301021363644,0.6568620752954546,0.5124634488394363,0.35349,0.209768,0.00108995,0.00263373,0.229098,1,0.0779301,-0.104414,-0.319863,-0.0746562,-0.152146,0.571004,-0.0694103,-0.289232,0,0.996959,0.143393,-0.293811,0.250115,-0.475897,-0.0320737,-0.596079,0.0706634,0,0,0.984142,-0.120837,0.35349,-0.311062,-0.208256,-0.0140881,0.703533,0,0,0,0.892615,0.134353,0.111785,0.020468,-0.175441,0.0166466,0,0,0,0,0.88818,0.105532,-0.134729,0.325381,0.223504,0,0,0,0,0,0.793713,-0.100595,-0.225058,0.0131795,0,0,0,0,0,0,0.775155,-0.105999,0.00874885,0,0,0,0,0,0,0,0.664179,-0.0169357,0,0,0,0,0,0,0,0,0.60467
0.25,4.7100153390060795,4.811715096441478,-2.414291570568182,-2.2458070201829545,0.10324706161363635,0.9145908568181819,1.086663710397727,0.0151871876677434,-0.004049358623181818,-0.005829733602443183,1.9968301335261365,0.0184860008868125,0.01433224515099886,-0.5385629067902046,3.47875074081733,4.181508404294318,4.899226299296592,4.511140448748626,4.7804710949705695,4.76496086257587,4.751237134888012,4.424851367298296,4.465961172128579,4.879530826633069,4.605633998131817,4.9503615278750015,4.741973966311795,4.817652959615285,4.543838356428238,1.757838146284091,2.10824295427841,2.364336411360398,1.988914045909091,2.3586499272102275,2.5369229811619887,2.2886460086931812,-0.0067963114267414765,-0.0014636342013953977,-0.009530184145579546,-0.009882918262045454,-0.0056711764733880675,-0.004071190770579374,-0.008669245929664206,-0.007438187179600566,-0.006509426550604601,-0.0002550499997361932,-0.0025488917409772728,-0.003644140040734213,-0.0028908252117193175,-0.002204872110871079,-0.005268530556337501,-0.004533343844064773,-0.005262705207023126,-0.006730007253125,-0.0026130901094870446,-0.004428848156438125,-0.0069240365717664785,-0.0040080723078308525,-0.006357925824915471,-0.005232645945331252,-0.003845969283404545,-0.005826520564386931,-0.006864973080671818,-0.003988051955322727,-0.003203332224829545,-0.005001287980740908,-0.0019588743881608518,-0.0032793109347727264,-0.003806525874013637,-0.002221562015784091,-0.004086124661557051,0.00024691529762215793,-0.006515995921452843,-0.009211875553280909,-0.009278351852175,-0.005703533506497101,-0.009849926503564376,-0.006682005710684091,11.877541263801344,-4.592940681430622,0.8669851561772729,0.19553101021363645,0.6498120752954546,0.5146194488394363,0.184401,0.123426,0.00132346,0.00278006,0.272169,1,0.791014,0.0998102,-0.0954576,0.161289,0.208749,-0.212377,-0.0567527,0.0314568,0,0.611799,-0.362219,-0.150775,0.00461281,0.213057,0.310621,0.311428,-0.473339,0,0,0.926734,-0.277132,0.458092,0.156135,0.233359,0.552363,-0.533683,0,0,0,0.944115,-0.252513,0.0707878,-0.343826,-0.525084,-0.051468,0,0,0,0,0.836871,0.221391,-0.0664439,0.207034,-0.391929,0,0,0,0,0,0.912484,-0.245099,0.360436,0.276394,0,0,0,0,0,0,0.788194,0.11556,0.138315,0,0,0,0,0,0,0,0.364476,0.00872319,0,0,0,0,0,0,0,0,0.488145
0.25,4.665535339006079,4.6456550964414784,-2.319131570568182,-2.1119470201829547,0.08189846161363636,0.9919108568181818,1.210303710397727,0.0731761876677434,-0.004172248623181819,-0.006218863602443183,2.0752401335261363,0.019914600886812503,0.01560934515099886,-0.44175090679020457,3.30195074081733,4.236708404294318,4.1262362992965915,4.4070104487486255,4.848401094970569,4.616770862575869,5.0553171348880115,4.477501367298296,4.771141172128579,4.562470826633069,4.695223998131818,4.867621527875002,4.681313966311795,4.846262959615285,4.451888356428238,1.930258146284091,1.9768029542784096,2.749196411360398,2.001144045909091,2.316829927210227,2.475342981161989,2.2803760086931812,-0.0015587514267414767,-0.012190484201395398,-0.007032684145579546,-0.009720928262045455,-0.009634516473388068,-0.0035688107705793746,-0.004998675929664206,-0.003154227179600566,-0.004768016550604601,-0.0006155199997361933,-0.0025815217409772724,-0.004614860040734213,-0.0045529552117193174,-0.003256542110871079,-0.010038700556337501,-0.009516543844064772,-0.000895555207023126,-0.007281757253124999,-0.003227320109487045,-0.004754798156438125,-0.005813596571766479,-0.011281462307830854,-0.010899205824915471,-0.006453185945331252,-0.007697509283404545,-0.006038300564386931,-0.007255843080671818,-0.005436011955322727,-0.0034346422248295446,-0.0050825379807409084,-0.0014382243881608519,-0.0029168209347727263,-0.003051895874013637,-0.002318302015784091,-0.0036647746615570513,-0.004742341702377842,-0.008259755921452842,0.0012831544467190909,-0.009259691852175,-0.001081623506497102,-0.006152776503564375,-0.002808025710684091,6.878211263801345,-9.639000681430621,0.8777941561772729,0.19080601021363644,0.6513920752954546,0.4636224488394363,0.245255,0.176305,0.00106151,0.00279997,0.188545,1,0.309912,0.228361,-0.164283,-0.48093,0.034743,0.257834,0.128278,0.00208602,0,0.950765,-0.189728,-0.0829335,0.197501,-0.399513,0.0468546,0.444418,0.11279,0,0,0.954911,-0.0843769,0.254136,0.220282,0.0618396,0.64814,0.688841,0,0,0,0.979293,0.0398579,0.127506,-0.0395922,0.270606,0.105671,0,0,0,0,0.814571,-0.116262,0.186305,0.268074,-0.0215763,0,0,0,0,0,0.872287,0.0338666,-0.0384395,0.041499,0,0,0,0,0,0,0.94344,-0.266716,0.155022,0,0,0,0,0,0,0,0.385027,0.522005,0,0,0,0,0,0,0,0,0.450441
0.25,4.507155339006079,4.502955096441479,-2.3797715705681823,-2.2002070201829547,0.10161806161363635,0.992000856818182,1.025873710397727,0.1599350876677434,-0.003936148623181818,-0.005395723602443183,2.2119001335261363,0.0237355008868125,0.021388645150998857,-0.5600069067902046,3.46220074081733,4.080258404294319,4.687866299296592,4.644110448748625,4.652871094970569,4.672420862575869,4.665547134888012,4.168701367298295,4.241301172128579,4.502110826633069,4.797873998131817,4.954471527875002,4.562883966311795,4.6153329596152854,4.311498356428238,1.682838146284091,2.1024729542784097,2.192036411360398,1.9870540459090908,2.281459927210227,2.500132981161989,2.2854960086931815,-0.003627921426741477,-0.009939244201395397,-0.0071456241455795455,-0.009902428262045454,-0.007368236473388067,-0.004301980770579375,-0.007936375929664206,-0.008143287179600566,-0.0030698965506046013,-0.0022979489997361933,-0.0026599117409772726,-0.007691300040734213,-0.0029704952117193175,-0.0036547421108710787,-0.0123785805563375,-0.005155863844064773,-0.003019435207023126,-0.006767457253124999,-0.005136780109487045,-0.004137508156438124,-0.008096656571766479,-0.0039481823078308526,-0.005779915824915471,-0.004763665945331252,-0.009339029283404545,-0.006257070564386931,-0.0074710230806718176,-0.004239161955322727,-0.0030360622248295447,-0.005034547980740908,-0.002592994388160852,-0.003659460934772726,-0.003457265874013637,-0.002755472015784091,-0.0041179446615570514,0.0004188002976221579,-0.007853215921452841,-0.009053075553280908,-0.009033181852175,-0.008380523506497102,-0.010732626503564376,-0.0067589157106840905,3.694831263801344,-15.642400681430622,0.8643491561772728,0.19428901021363643,0.6491510752954547,0.5682524488394364,0.191273,0.224003,0.00130182,0.00338518,0.200584,1,0.604159,0.201683,0.0747899,0.00723353,0.458769,-0.123419,-0.0768133,-0.103691,0,0.796864,-0.055965,-0.439933,0.0295849,0.357191,-0.129209,0.164464,-0.393384,0,0,0.977851,0.0190733,-0.0715451,0.506889,0.069465,-0.441767,-0.00592172,0,0,0,0.894708,-0.611357,0.0365297,0.0275782,-0.119789,0.647197,0,0,0,0,0.787526,0.179702,-0.185575,-0.0640443,-0.168459,0,0,0,0,0,0.609411,0.356676,-0.357198,0.301513,0,0,0,0,0,0,0.894891,0.481083,-0.0112717,0,0,0,0,0,0,0,0.628021,-0.305364,0,0,0,0,0,0,0,0,0.450483
0.25,4.15309533900608,4.262305096441478,-2.289761570568182,-2.112107020182955,0.09505816161363635,1.0440808568181819,1.015093710397727,0.3564940876677434,-0.004135528623181818,-0.005730653602443183,2.1904301335261365,0.025430500886812504,0.02099514515099886,-0.5357799067902046,3.30262074081733,3.9532084042943185,3.8215862992965914,4.3442504487486255,4.31920109497057,4.19814086257587,4.384307134888012,3.837101367298296,4.369211172128579,4.215580826633069,4.684093998131818,4.7872615278750015,4.259583966311795,4.411842959615285,3.943648356428238,1.783298146284091,1.9549629542784097,2.584626411360398,1.984454045909091,2.242759927210227,2.646512981161989,2.1968260086931815,-0.013091281426741475,-0.004289664201395397,-0.007910614145579545,-0.010263398262045455,-0.005684936473388067,-0.005009770770579375,-0.006283515929664206,-0.004509927179600566,-0.005001656550604601,-0.0006689889997361933,-0.0027478417409772726,-0.006181920040734213,-0.0032032152117193176,-0.00879919211087108,-0.0120765805563375,-0.003981563844064773,-0.003330945207023126,-0.0076000772531249995,-0.007359530109487045,-0.003377098156438125,-0.008368256571766479,-0.0017520223078308522,-0.007792445824915471,-0.007018435945331252,-0.008005769283404544,-0.00842812056438693,-0.0071244630806718175,-0.0007201249553227272,-0.0036414722248295445,-0.005415387980740908,-0.001437044388160852,-0.0033816909347727264,-0.0021035858740136365,-0.002631272015784091,-0.0041329846615570515,-0.008644091702377843,-0.003616665921452843,-0.0011553485532809092,-0.009953101852175,-0.002870073506497102,-0.0034715765035643747,-0.002246755710684091,4.1323912638013445,-13.906300681430622,0.8890511561772728,0.19575801021363645,0.6492350752954547,0.49085744883943633,0.282667,0.289901,0.00112424,0.00331344,0.353207,1,0.636512,0.0556856,0.213586,-0.0331338,0.525049,-0.0231448,0.32351,-0.30404,0,0.771267,0.0984006,-0.588915,0.410301,-0.186721,-0.116102,0.212846,0.0729613,0,0,0.993588,-0.132169,0.0119511,-0.345178,-0.198674,0.269839,0.483513,0,0,0,0.768174,0.220301,0.34916,-0.460774,-0.152881,0.245131,0,0,0,0,0.88424,0.125718,-0.268384,0.497075,-0.177821,0,0,0,0,0,0.657718,-0.0440309,-0.0653187,0.496336,0,0,0,0,0,0,0.812547,0.0601464,0.15493,0,0,0,0,0,0,0,0.706318,0.394496,0,0,0,0,0,0,0,0,0.388282
0.25,4.20257533900608,4.4332150964414785,-2.281041570568182,-2.100127020182955,0.08955466161363634,1.0581708568181818,1.142243710397727,0.0710013876677434,-0.0033135486231818186,-0.004566783602443183,2.1754401335261364,0.031112600886812503,0.021121045150998857,-0.5790339067902046,3.79975074081733,3.8738884042943185,3.8300362992965913,4.146550448748625,4.3917010949705695,4.5497808625758696,4.528787134888012,3.866251367298296,4.27882117212858,4.253470826633069,4.674593998131818,4.876051527875002,4.522413966311795,4.604242959615285,4.135288356428238,1.697528146284091,2.06703295427841,2.461456411360398,1.9744440459090908,2.3119799272102273,2.5333329811619887,2.2509560086931812,-0.002154291426741477,-0.0016050942013953976,-0.006243534145579545,-0.010072268262045454,-0.004168226473388067,-0.004845730770579375,-0.003930725929664206,-0.001118017179600566,-0.008104966550604602,-0.0020515789997361932,-0.0025190417409772727,-0.004283080040734213,-0.0034449252117193176,-0.006587652110871079,-0.006405110556337501,-0.0033588238440647733,-0.005641715207023126,-0.006685107253124999,-0.005936820109487045,-0.006062488156438125,-0.004000826571766479,-0.004092172307830852,-0.004724525824915471,-0.009791145945331252,-0.0034262792834045446,-0.007260030564386931,-0.007793243080671817,0.0012980780446772728,-0.003232252224829545,-0.0054169879807409085,-0.0015308643881608518,-0.0036085309347727262,-0.0031759458740136365,-0.002898172015784091,-0.004073884661557051,-0.001695441702377842,-0.007587585921452843,-0.004571895553280909,-0.009604691852175001,-0.008430973506497103,-0.004078806503564375,-0.007350745710684091,3.0523212638013444,-14.417100681430622,0.8556001561772729,0.19117001021363644,0.6464920752954546,0.5343244488394363,0.250452,0.18704,0.00119299,0.00234079,0.176919,1,0.492465,-0.0167921,-0.275657,0.284852,0.00953777,-0.342636,-0.114791,0.0275253,0,0.870332,-0.202414,-0.56988,0.0113549,-0.233125,-0.26354,0.137686,-0.137985,0,0,0.979156,-0.00240666,-0.200078,0.120969,-0.304967,-0.060555,0.0969094,0,0,0,0.774108,-0.191305,-0.51299,-0.585941,-0.670445,-0.118789,0,0,0,0,0.917661,-0.432746,-0.365094,0.345154,0.00341168,0,0,0,0,0,0.693182,-0.365645,0.174894,0.0363041,0,0,0,0,0,0,0.3314,0.314304,-0.113043,0,0,0,0,0,0,0,0.515942,0.191659,0,0,0,0,0,0,0,0,0.951766
0.25,4.184755339006079,4.293155096441478,-2.258381570568182,-2.0688470201829547,0.08959636161363635,1.0133008568181818,1.086103710397727,0.0837846876677434,-0.0035030586231818185,-0.004275843602443183,2.1724901335261366,0.0253129008868125,0.018718845150998857,-0.5842989067902046,3.5265107408173297,3.8481884042943184,3.8378962992965913,4.211550448748626,4.314521094970569,4.49666086257587,4.494227134888011,3.7483913672982956,4.2019411721285795,4.067740826633068,4.5702739981318175,4.707261527875001,4.403303966311795,4.470642959615285,3.9711183564282377,1.619918146284091,2.0324429542784097,2.688746411360398,1.9665740459090908,2.442729927210227,2.499742981161989,2.1885560086931815,-0.003704101426741477,-0.0011560442013953977,-0.005456964145579546,-0.009940858262045453,-0.005252136473388067,-0.0044327807705793745,-0.0027001659296642063,-0.0016711571796005661,-0.0094581365506046,-0.0008852309997361932,-0.0025245317409772726,-0.006153760040734213,-0.0040815052117193175,-0.007904522110871079,-0.0042097205563375005,-0.0021634738440647733,-0.006475715207023126,-0.006900607253125,-0.0060582901094870445,-0.006070788156438124,-0.0024187365717664782,-0.001683582307830852,-0.002190335824915471,-0.009873895945331251,-0.0029958092834045445,-0.006016710564386931,-0.007645053080671818,0.0008478480446772727,-0.0035239322248295448,-0.005340117980740908,-0.002061384388160852,-0.003551450934772726,-0.0025788058740136366,-0.002822732015784091,-0.004238304661557051,-0.005761661702377842,-0.008196775921452844,-0.003141505553280909,-0.009613301852175,-0.0051483935064971014,-0.0036809565035643746,-0.005882205710684091,4.932071263801344,-12.911900681430621,0.8493611561772728,0.19799301021363644,0.6481130752954546,0.5081454488394364,0.237053,0.183861,0.00116239,0.00270513,0.237376,1,0.531869,0.0414119,-0.336549,0.27626,-0.247023,-0.415184,-0.0721636,0.0437738,0,0.846827,-0.220467,-0.338925,0.191901,-0.350909,-0.17482,0.0950074,0.185323,0,0,0.974515,0.116315,-0.0668366,0.114232,-0.552483,-0.0335455,0.143014,0,0,0,0.870825,-0.104537,-0.510366,-0.36845,-0.612291,-0.238273,0,0,0,0,0.93352,-0.16904,-0.431534,0.0464896,-0.335995,0,0,0,0,0,0.71676,-0.368714,0.330716,0.101774,0,0,0,0,0,0,0.184106,0.237124,0.378502,0,0,0,0,0,0,0,0.664815,0.275519,0,0,0,0,0,0,0,0,0.737623
0.25,4.313625339006079,4.588275096441478,-2.2576715705681822,-2.114957020182955,0.08807406161363635,1.023410856818182,1.136923710397727,0.1681470876677434,-0.0034806286231818186,-0.005037903602443183,2.1951301335261366,0.024244000886812504,0.02170484515099886,-0.5480479067902045,3.72718074081733,3.9875684042943185,4.034216299296592,4.081220448748626,4.396751094970569,4.58145086257587,4.532977134888012,3.924061367298296,4.289111172128579,4.463870826633069,4.741023998131817,5.100061527875002,4.768233966311795,4.616662959615285,4.218338356428238,1.853578146284091,2.0001329542784094,2.644176411360398,2.0047840459090907,2.272969927210227,2.586862981161989,2.2264260086931813,-0.0017858114267414768,-0.0030205742013953976,-0.007599284145579545,-0.009887888262045454,-0.006938856473388067,-0.004057790770579375,-0.0019876759296642062,-0.002562077179600566,-0.0098121865506046,-0.0009415289997361932,-0.0027412117409772725,-0.004600580040734213,-0.004022505211719318,-0.0061989621108710785,-0.005389720556337501,-0.0032709838440647732,-0.009228045207023127,-0.007445647253125,-0.006711520109487045,-0.0044238881564381246,-0.0033508265717664782,-0.006849872307830852,-0.002654585824915471,-0.005599105945331252,-0.0014556092834045447,-0.003337700564386931,-0.006456063080671818,-0.004362911955322727,-0.003205752224829545,-0.005037597980740908,-0.0020736843881608517,-0.003517800934772726,-0.0036542658740136365,-0.002768062015784091,-0.003553214661557051,-0.001443981702377842,-0.004202285921452843,-0.0038485655532809093,-0.009874521852175,-0.006271243506497102,-0.004405126503564375,-0.004959185710684091,6.691131263801345,-14.837700681430622,0.8543311561772728,0.18971901021363644,0.6557280752954546,0.5082564488394363,0.213815,0.227879,0.00120871,0.00242237,0.334585,1,0.681567,-0.268707,-0.206388,0.225613,-0.0474366,-0.0257,-0.0625072,-0.250854,0,0.731756,-0.0477898,-0.54124,0.167032,-0.304376,0.378762,0.0207008,-0.321348,0,0,0.962036,-0.244179,0.142043,-0.164368,-0.0907268,0.251667,0.0777909,0,0,0,0.777715,-0.270599,-0.519997,-0.365273,-0.464924,0.151794,0,0,0,0,0.909835,-0.238882,-0.617357,0.426502,0.00901116,0,0,0,0,0,0.742042,-0.0762116,0.643531,0.103773,0,0,0,0,0,0,0.572089,-0.135368,-0.224255,0,0,0,0,0,0,0,0.319081,0.00358785,0,0,0,0,0,0,0,0,0.8623
